/JOB
//NAME comment
//POS
///NPOS 997,0,0,0,0,0
///TOOL 9
///POSTYPE PULSE
///PULSE
C00000=-32369,49978,-119479,-59362,-123625,92619,0
C00001=-32353,53001,-118462,-58814,-122137,93597,0
C00002=-32349,53709,-118196,-58699,-121804,93813,0
C00003=-32349,53709,-118196,-58699,-121804,93813,0
C00004=-32349,53709,-118196,-58699,-121804,93813,0
C00005=-32349,53709,-118196,-58699,-121804,93813,0
C00006=-21661,74149,-62122,-95848,-113786,74053,0
C00007=-21551,74466,-61339,-95990,-113736,73830,0
C00008=-21387,74702,-60756,-96150,-113623,73661,0
C00009=-21187,74826,-60449,-96310,-113461,73565,0
C00010=-20976,74823,-60455,-96451,-113269,73556,0
C00011=-20871,74771,-60582,-96511,-113167,73585,0
C00012=-18770,73483,-63739,-97710,-111116,74361,0
C00013=-18581,73314,-64158,-97814,-110928,74470,0
C00014=-18438,73050,-64810,-97873,-110771,74644,0
C00015=-18356,72726,-65615,-97881,-110662,74865,0
C00016=-18347,72382,-66473,-97836,-110614,75103,0
C00017=-18372,72210,-66902,-97792,-110616,75223,0
C00018=-27886,52479,-122299,-63041,-118570,94318,0
C00019=-28082,52366,-122700,-62775,-118480,94459,0
C00020=-28355,52291,-122971,-62439,-118465,94572,0
C00021=-28672,52262,-123077,-62077,-118529,94644,0
C00022=-28994,52284,-123007,-61732,-118665,94666,0
C00023=-29148,52314,-122904,-61575,-118758,94657,0
C00024=-32051,53097,-120246,-58733,-120841,94324,0
C00025=-32287,53198,-119907,-58520,-121066,94267,0
C00026=-32436,53333,-119455,-58419,-121308,94167,0
C00027=-32482,53485,-118943,-58442,-121539,94036,0
C00028=-32420,53637,-118437,-58585,-121729,93889,0
C00029=-32354,53704,-118211,-58692,-121799,93818,0
C00030=-32354,53704,-118211,-58692,-121799,93818,0
C00031=-19158,72372,-66504,-97259,-111321,75146,0
C00032=-19158,72372,-66504,-97259,-111321,75146,0
C00033=-28799,52818,-121137,-62193,-119346,94107,0
C00034=-31286,53507,-118849,-59777,-121151,93826,0
C00035=-20998,73446,-63853,-96161,-113089,74497,0
C00036=-19164,72376,-66495,-97255,-111327,75143,0
C00037=-19083,72430,-66358,-97322,-111263,75102,0
C00038=-28763,52763,-121326,-62207,-119258,94155,0
C00039=-31402,53493,-118899,-59642,-121173,93857,0
C00040=-21032,73572,-63541,-96162,-113138,74412,0
C00041=-19090,72434,-66349,-97318,-111269,75099,0
C00042=-19008,72489,-66212,-97384,-111205,75057,0
C00043=-28728,52709,-121513,-62221,-119172,94204,0
C00044=-31518,53479,-118947,-59507,-121195,93888,0
C00045=-21066,73698,-63228,-96164,-113187,74328,0
C00046=-19015,72492,-66203,-97380,-111211,75055,0
C00047=-19024,72419,-66387,-97362,-111211,75107,0
C00048=-19024,72419,-66387,-97362,-111211,75107,0
C00049=-19247,72360,-66534,-97194,-111397,75158,0
C00050=-19247,72360,-66534,-97194,-111397,75158,0
C00051=-19218,72268,-66763,-97199,-111360,75221,0
C00052=-19245,72144,-67073,-97159,-111368,75308,0
C00053=-19326,72403,-66428,-97145,-111472,75132,0
C00054=-19405,72446,-66321,-97096,-111547,75106,0
C00055=-19272,72021,-67381,-97120,-111375,75395,0
C00056=-19299,71898,-67688,-97080,-111382,75482,0
C00057=-19484,72490,-66213,-97048,-111621,75079,0
C00058=-19563,72534,-66105,-96999,-111696,75053,0
C00059=-19326,71776,-67994,-97040,-111390,75568,0
C00060=-19354,71655,-68298,-97000,-111397,75655,0
C00061=-19641,72577,-65997,-96951,-111771,75026,0
C00062=-19720,72622,-65887,-96903,-111846,74999,0
C00063=-19381,71534,-68601,-96960,-111404,75740,0
C00064=-19408,71414,-68902,-96920,-111411,75826,0
C00065=-19799,72666,-65777,-96855,-111921,74972,0
C00066=-19877,72711,-65667,-96808,-111995,74946,0
C00067=-19436,71294,-69203,-96880,-111418,75911,0
C00068=-19463,71175,-69502,-96839,-111425,75996,0
C00069=-19956,72756,-65556,-96761,-112070,74918,0
C00070=-20034,72801,-65444,-96714,-112146,74891,0
C00071=-19491,71057,-69800,-96799,-111432,76081,0
C00072=-19518,70939,-70097,-96759,-111439,76166,0
C00073=-20112,72846,-65332,-96667,-112221,74863,0
C00074=-20190,72892,-65219,-96620,-112296,74836,0
C00075=-19546,70821,-70392,-96718,-111446,76250,0
C00076=-19574,70705,-70687,-96678,-111453,76333,0
C00077=-20269,72938,-65105,-96573,-112371,74808,0
C00078=-20347,72984,-64991,-96527,-112446,74780,0
C00079=-19602,70589,-70980,-96637,-111460,76417,0
C00080=-19630,70473,-71272,-96597,-111467,76501,0
C00081=-20424,73031,-64876,-96481,-112522,74752,0
C00082=-20502,73078,-64761,-96435,-112597,74724,0
C00083=-19658,70358,-71563,-96556,-111474,76584,0
C00084=-19686,70243,-71853,-96515,-111481,76667,0
C00085=-20580,73125,-64645,-96390,-112672,74695,0
C00086=-20658,73172,-64529,-96344,-112748,74667,0
C00087=-19714,70129,-72141,-96474,-111488,76749,0
C00088=-19743,70016,-72429,-96434,-111494,76831,0
C00089=-20736,73219,-64412,-96299,-112823,74639,0
C00090=-20813,73267,-64294,-96254,-112899,74610,0
C00091=-19771,69903,-72715,-96393,-111501,76914,0
C00092=-19799,69790,-73001,-96352,-111508,76996,0
C00093=-20891,73315,-64175,-96210,-112975,74581,0
C00094=-20968,73364,-64056,-96165,-113050,74552,0
C00095=-19828,69678,-73285,-96310,-111515,77077,0
C00096=-19856,69567,-73569,-96269,-111521,77159,0
C00097=-21003,73256,-64324,-96120,-113065,74628,0
C00098=-21032,73128,-64641,-96074,-113071,74718,0
C00099=-19885,69456,-73851,-96228,-111528,77239,0
C00100=-19914,69345,-74132,-96187,-111534,77321,0
C00101=-21061,73001,-64956,-96028,-113078,74807,0
C00102=-21090,72875,-65270,-95982,-113084,74896,0
C00103=-19943,69235,-74412,-96145,-111541,77401,0
C00104=-19972,69126,-74692,-96104,-111547,77481,0
C00105=-21119,72750,-65582,-95936,-113090,74984,0
C00106=-21149,72625,-65894,-95890,-113096,75073,0
C00107=-20001,69017,-74970,-96062,-111554,77561,0
C00108=-20030,68908,-75247,-96021,-111560,77641,0
C00109=-21178,72500,-66203,-95845,-113103,75160,0
C00110=-21208,72377,-66512,-95799,-113109,75248,0
C00111=-20059,68800,-75524,-95979,-111567,77721,0
C00112=-20088,68692,-75799,-95937,-111573,77801,0
C00113=-21237,72254,-66818,-95752,-113115,75335,0
C00114=-21267,72132,-67124,-95706,-113121,75422,0
C00115=-20118,68585,-76073,-95895,-111579,77880,0
C00116=-20147,68479,-76347,-95853,-111586,77959,0
C00117=-21297,72010,-67428,-95660,-113127,75508,0
C00118=-21326,71889,-67731,-95614,-113133,75595,0
C00119=-20176,68372,-76619,-95811,-111592,78038,0
C00120=-20206,68267,-76891,-95769,-111598,78117,0
C00121=-21356,71768,-68033,-95568,-113139,75681,0
C00122=-21386,71649,-68333,-95522,-113145,75766,0
C00123=-20236,68161,-77162,-95727,-111604,78196,0
C00124=-20265,68056,-77432,-95684,-111610,78274,0
C00125=-21416,71529,-68632,-95475,-113151,75851,0
C00126=-21446,71411,-68929,-95429,-113157,75937,0
C00127=-20295,67952,-77701,-95642,-111617,78352,0
C00128=-20325,67848,-77969,-95600,-111623,78430,0
C00129=-21477,71293,-69226,-95383,-113163,76021,0
C00130=-21507,71175,-69521,-95336,-113169,76106,0
C00131=-20355,67744,-78236,-95557,-111629,78508,0
C00132=-20385,67641,-78502,-95514,-111635,78585,0
C00133=-21537,71059,-69815,-95290,-113175,76190,0
C00134=-21568,70942,-70108,-95243,-113181,76274,0
C00135=-20415,67538,-78768,-95471,-111641,78662,0
C00136=-20446,67436,-79032,-95429,-111647,78739,0
C00137=-21598,70826,-70400,-95196,-113187,76357,0
C00138=-21629,70711,-70691,-95150,-113192,76441,0
C00139=-20476,67334,-79296,-95386,-111652,78816,0
C00140=-20506,67232,-79559,-95343,-111658,78893,0
C00141=-21660,70597,-70980,-95103,-113198,76524,0
C00142=-21690,70482,-71268,-95056,-113204,76607,0
C00143=-20537,67131,-79821,-95300,-111664,78970,0
C00144=-20567,67030,-80083,-95256,-111670,79046,0
C00145=-21721,70369,-71555,-95009,-113210,76689,0
C00146=-21752,70256,-71841,-94962,-113215,76772,0
C00147=-20598,66930,-80343,-95213,-111676,79122,0
C00148=-20629,66830,-80603,-95170,-111681,79199,0
C00149=-21783,70143,-72127,-94915,-113221,76854,0
C00150=-21814,70031,-72411,-94868,-113226,76936,0
C00151=-20660,66731,-80862,-95126,-111687,79274,0
C00152=-20691,66631,-81120,-95083,-111692,79350,0
C00153=-21846,69920,-72693,-94821,-113232,77017,0
C00154=-21877,69809,-72975,-94774,-113237,77098,0
C00155=-20722,66533,-81378,-95039,-111698,79426,0
C00156=-20753,66434,-81634,-94995,-111704,79501,0
C00157=-21908,69698,-73256,-94726,-113243,77180,0
C00158=-21940,69588,-73535,-94679,-113248,77260,0
C00159=-20784,66336,-81890,-94951,-111709,79577,0
C00160=-20815,66239,-82145,-94907,-111714,79651,0
C00161=-21971,69479,-73814,-94632,-113254,77341,0
C00162=-22003,69369,-74092,-94584,-113259,77421,0
C00163=-20847,66141,-82399,-94863,-111720,79726,0
C00164=-20878,66045,-82653,-94819,-111725,79801,0
C00165=-22035,69261,-74369,-94536,-113264,77502,0
C00166=-22066,69153,-74644,-94489,-113270,77582,0
C00167=-20910,65948,-82906,-94775,-111730,79875,0
C00168=-20942,65852,-83158,-94730,-111736,79950,0
C00169=-22098,69045,-74919,-94441,-113275,77661,0
C00170=-22130,68938,-75193,-94393,-113280,77741,0
C00171=-20973,65756,-83409,-94686,-111741,80025,0
C00172=-21005,65661,-83660,-94641,-111746,80098,0
C00173=-22162,68831,-75466,-94345,-113285,77820,0
C00174=-22194,68725,-75738,-94297,-113290,77899,0
C00175=-21037,65566,-83910,-94597,-111751,80173,0
C00176=-21069,65471,-84159,-94552,-111756,80246,0
C00177=-22227,68619,-76009,-94249,-113295,77978,0
C00178=-22259,68514,-76279,-94201,-113300,78057,0
C00179=-21101,65377,-84408,-94507,-111761,80320,0
C00180=-21134,65283,-84656,-94462,-111766,80394,0
C00181=-22291,68409,-76548,-94153,-113305,78135,0
C00182=-22324,68305,-76816,-94105,-113310,78213,0
C00183=-21166,65189,-84903,-94417,-111771,80467,0
C00184=-21198,65096,-85150,-94372,-111776,80540,0
C00185=-22357,68201,-77083,-94056,-113315,78291,0
C00186=-22389,68097,-77349,-94008,-113320,78369,0
C00187=-21231,65003,-85395,-94326,-111781,80613,0
C00188=-21263,64910,-85640,-94281,-111786,80686,0
C00189=-22422,67994,-77615,-93959,-113325,78447,0
C00190=-22455,67891,-77880,-93911,-113330,78524,0
C00191=-21296,64818,-85885,-94235,-111791,80759,0
C00192=-21329,64726,-86129,-94190,-111795,80832,0
C00193=-22488,67789,-78143,-93862,-113335,78601,0
C00194=-22521,67687,-78406,-93813,-113339,78678,0
C00195=-21362,64634,-86372,-94144,-111800,80904,0
C00196=-21395,64543,-86615,-94098,-111805,80976,0
C00197=-22554,67585,-78668,-93764,-113344,78756,0
C00198=-22587,67484,-78930,-93715,-113349,78832,0
C00199=-21428,64452,-86857,-94052,-111809,81049,0
C00200=-21461,64362,-87098,-94006,-111814,81121,0
C00201=-22621,67384,-79190,-93666,-113353,78909,0
C00202=-22654,67283,-79450,-93617,-113358,78985,0
C00203=-21494,64271,-87338,-93960,-111818,81193,0
C00204=-21528,64181,-87578,-93914,-111823,81265,0
C00205=-22688,67184,-79709,-93568,-113362,79061,0
C00206=-22721,67084,-79966,-93519,-113367,79137,0
C00207=-21561,64092,-87818,-93867,-111827,81337,0
C00208=-21595,64002,-88057,-93821,-111831,81408,0
C00209=-22755,66985,-80224,-93469,-113371,79213,0
C00210=-22789,66886,-80480,-93420,-113376,79288,0
C00211=-21628,63913,-88295,-93774,-111836,81479,0
C00212=-21662,63825,-88532,-93727,-111840,81551,0
C00213=-22823,66788,-80735,-93370,-113380,79364,0
C00214=-22857,66690,-80990,-93321,-113384,79439,0
C00215=-21696,63736,-88769,-93680,-111844,81622,0
C00216=-21730,63648,-89006,-93633,-111848,81693,0
C00217=-22891,66593,-81244,-93271,-113389,79514,0
C00218=-22925,66496,-81498,-93221,-113393,79589,0
C00219=-21764,63561,-89242,-93586,-111852,81764,0
C00220=-21798,63473,-89477,-93539,-111857,81835,0
C00221=-22959,66399,-81750,-93171,-113397,79664,0
C00222=-22994,66303,-82002,-93121,-113401,79739,0
C00223=-21833,63386,-89711,-93492,-111861,81906,0
C00224=-21867,63299,-89945,-93444,-111864,81977,0
C00225=-23028,66207,-82253,-93071,-113405,79813,0
C00226=-23063,66111,-82503,-93020,-113409,79887,0
C00227=-21902,63213,-90179,-93397,-111868,82047,0
C00228=-21936,63127,-90411,-93349,-111872,82118,0
C00229=-23098,66016,-82753,-92970,-113413,79961,0
C00230=-23132,65921,-83002,-92919,-113417,80035,0
C00231=-21971,63041,-90644,-93301,-111876,82188,0
C00232=-22006,62955,-90876,-93253,-111880,82258,0
C00233=-23167,65826,-83250,-92869,-113421,80109,0
C00234=-23202,65732,-83497,-92818,-113425,80183,0
C00235=-22041,62870,-91107,-93205,-111883,82328,0
C00236=-22076,62785,-91337,-93157,-111887,82398,0
C00237=-23237,65638,-83744,-92767,-113429,80256,0
C00238=-23273,65545,-83990,-92716,-113433,80330,0
C00239=-22111,62700,-91567,-93109,-111891,82468,0
C00240=-22146,62616,-91797,-93060,-111894,82538,0
C00241=-23308,65452,-84235,-92665,-113436,80403,0
C00242=-23343,65359,-84480,-92614,-113440,80476,0
C00243=-22181,62532,-92026,-93012,-111898,82607,0
C00244=-22217,62448,-92254,-92963,-111901,82676,0
C00245=-23379,65266,-84724,-92563,-113444,80549,0
C00246=-23414,65174,-84967,-92512,-113447,80622,0
C00247=-22252,62364,-92482,-92914,-111904,82746,0
C00248=-22288,62281,-92709,-92865,-111908,82816,0
C00249=-23450,65082,-85210,-92460,-113451,80694,0
C00250=-23486,64991,-85452,-92409,-113454,80767,0
C00251=-22324,62198,-92936,-92816,-111911,82885,0
C00252=-22360,62115,-93162,-92767,-111914,82954,0
C00253=-23522,64900,-85693,-92357,-113458,80839,0
C00254=-23558,64809,-85934,-92305,-113461,80911,0
C00255=-22396,62033,-93388,-92718,-111917,83023,0
C00256=-22432,61951,-93613,-92668,-111920,83092,0
C00257=-23594,64719,-86174,-92254,-113464,80983,0
C00258=-23630,64629,-86413,-92202,-113468,81055,0
C00259=-22468,61869,-93838,-92619,-111923,83160,0
C00260=-22504,61787,-94062,-92569,-111926,83229,0
C00261=-23666,64539,-86652,-92150,-113471,81127,0
C00262=-23703,64449,-86890,-92097,-113474,81198,0
C00263=-22541,61706,-94286,-92519,-111929,83298,0
C00264=-22577,61625,-94509,-92469,-111932,83366,0
C00265=-23739,64360,-87127,-92045,-113477,81270,0
C00266=-23776,64272,-87364,-91993,-113480,81342,0
C00267=-22614,61544,-94732,-92419,-111935,83435,0
C00268=-22651,61464,-94954,-92369,-111938,83503,0
C00269=-23813,64183,-87600,-91940,-113483,81413,0
C00270=-23850,64095,-87836,-91887,-113486,81484,0
C00271=-22688,61383,-95175,-92318,-111940,83571,0
C00272=-22725,61304,-95397,-92268,-111943,83640,0
C00273=-23887,64007,-88071,-91835,-113489,81555,0
C00274=-23924,63920,-88305,-91782,-113492,81626,0
C00275=-22762,61224,-95617,-92217,-111945,83708,0
C00276=-22799,61144,-95838,-92166,-111948,83775,0
C00277=-23961,63832,-88539,-91729,-113495,81697,0
C00278=-23998,63745,-88772,-91676,-113498,81768,0
C00279=-22836,61065,-96057,-92116,-111950,83843,0
C00280=-22874,60986,-96276,-92064,-111953,83911,0
C00281=-24036,63659,-89004,-91623,-113500,81838,0
C00282=-24073,63573,-89236,-91569,-113503,81908,0
C00283=-22911,60908,-96495,-92013,-111955,83979,0
C00284=-22949,60830,-96714,-91962,-111957,84046,0
C00285=-24111,63487,-89468,-91516,-113506,81979,0
C00286=-24148,63401,-89699,-91462,-113508,82049,0
C00287=-22987,60751,-96931,-91911,-111959,84114,0
C00288=-23025,60674,-97149,-91859,-111962,84182,0
C00289=-24186,63316,-89929,-91408,-113511,82119,0
C00290=-24224,63230,-90158,-91354,-113513,82189,0
C00291=-23063,60596,-97366,-91807,-111964,84249,0
C00292=-23101,60519,-97582,-91755,-111966,84316,0
C00293=-24262,63146,-90387,-91301,-113516,82259,0
C00294=-24300,63061,-90616,-91246,-113518,82328,0
C00295=-23139,60442,-97798,-91703,-111968,84383,0
C00296=-23178,60365,-98013,-91651,-111969,84450,0
C00297=-24339,62977,-90844,-91192,-113520,82398,0
C00298=-24377,62893,-91071,-91138,-113522,82467,0
C00299=-23216,60289,-98228,-91599,-111971,84517,0
C00300=-23255,60212,-98443,-91546,-111973,84584,0
C00301=-24416,62809,-91298,-91083,-113525,82537,0
C00302=-24454,62726,-91524,-91029,-113527,82606,0
C00303=-23294,60136,-98657,-91494,-111975,84651,0
C00304=-23333,60060,-98871,-91441,-111976,84718,0
C00305=-24493,62643,-91750,-90974,-113529,82675,0
C00306=-24532,62560,-91975,-90919,-113531,82744,0
C00307=-23372,59985,-99084,-91388,-111978,84785,0
C00308=-23411,59910,-99297,-91335,-111979,84851,0
C00309=-24571,62478,-92200,-90864,-113533,82813,0
C00310=-24610,62396,-92424,-90809,-113535,82882,0
C00311=-23450,59835,-99509,-91282,-111981,84917,0
C00312=-23490,59760,-99721,-91229,-111982,84984,0
C00313=-24649,62314,-92648,-90754,-113536,82951,0
C00314=-24689,62232,-92871,-90699,-113538,83019,0
C00315=-23529,59685,-99933,-91175,-111983,85050,0
C00316=-23569,59611,-100144,-91122,-111985,85117,0
C00317=-24728,62151,-93093,-90643,-113540,83088,0
C00318=-24768,62070,-93315,-90587,-113541,83156,0
C00319=-23609,59537,-100354,-91068,-111986,85183,0
C00320=-23648,59463,-100564,-91014,-111987,85249,0
C00321=-24807,61989,-93537,-90532,-113543,83225,0
C00322=-24847,61909,-93758,-90476,-113544,83293,0
C00323=-23688,59390,-100774,-90960,-111988,85315,0
C00324=-23729,59317,-100983,-90906,-111989,85381,0
C00325=-24887,61828,-93979,-90420,-113546,83361,0
C00326=-24927,61748,-94198,-90364,-113547,83429,0
C00327=-23769,59244,-101192,-90851,-111990,85447,0
C00328=-23809,59171,-101401,-90797,-111991,85513,0
C00329=-24967,61669,-94418,-90307,-113549,83497,0
C00330=-25008,61589,-94637,-90251,-113550,83565,0
C00331=-23850,59098,-101609,-90742,-111991,85579,0
C00332=-23891,59026,-101816,-90687,-111992,85644,0
C00333=-25048,61510,-94855,-90194,-113551,83633,0
C00334=-25089,61431,-95073,-90138,-113552,83700,0
C00335=-23931,58954,-102024,-90632,-111993,85710,0
C00336=-23972,58882,-102230,-90577,-111993,85776,0
C00337=-25129,61353,-95291,-90081,-113553,83768,0
C00338=-25170,61274,-95508,-90024,-113554,83835,0
C00339=-24013,58811,-102437,-90522,-111994,85841,0
C00340=-24055,58739,-102643,-90467,-111994,85907,0
C00341=-25211,61196,-95724,-89967,-113555,83902,0
C00342=-25252,61118,-95940,-89910,-113556,83970,0
C00343=-24096,58668,-102849,-90411,-111994,85972,0
C00344=-24138,58597,-103054,-90355,-111995,86037,0
C00345=-25293,61041,-96156,-89852,-113557,84037,0
C00346=-25334,60964,-96371,-89795,-113558,84104,0
C00347=-24179,58527,-103259,-90299,-111995,86102,0
C00348=-24221,58456,-103463,-90243,-111995,86168,0
C00349=-25376,60887,-96585,-89737,-113558,84171,0
C00350=-25417,60810,-96800,-89679,-113559,84238,0
C00351=-24263,58386,-103667,-90187,-111995,86233,0
C00352=-24305,58316,-103870,-90131,-111995,86298,0
C00353=-25459,60733,-97013,-89621,-113560,84305,0
C00354=-25501,60657,-97226,-89563,-113560,84371,0
C00355=-24347,58246,-104074,-90074,-111995,86363,0
C00356=-24389,58177,-104277,-90017,-111994,86428,0
C00357=-25543,60581,-97439,-89505,-113560,84438,0
C00358=-25585,60505,-97651,-89446,-113561,84505,0
C00359=-24432,58108,-104479,-89960,-111994,86493,0
C00360=-24474,58039,-104681,-89903,-111994,86557,0
C00361=-25627,60430,-97863,-89388,-113561,84571,0
C00362=-25669,60355,-98075,-89329,-113561,84638,0
C00363=-24517,57970,-104883,-89846,-111993,86622,0
C00364=-21250,64949,-85538,-75982,-126376,82861,0
C00365=-25712,60280,-98285,-89270,-113562,84704,0
C00366=-25754,60205,-98496,-89211,-113562,84770,0
C00367=-21282,64857,-85782,-75905,-126342,82936,0
C00368=-21315,64765,-86027,-75827,-126307,83010,0
C00369=-25797,60130,-98706,-89152,-113562,84836,0
C00370=-25840,60056,-98916,-89093,-113562,84902,0
C00371=-21348,64673,-86270,-75749,-126273,83084,0
C00372=-21381,64581,-86513,-75672,-126237,83159,0
C00373=-25883,59982,-99125,-89033,-113561,84968,0
C00374=-25926,59909,-99333,-88974,-113561,85034,0
C00375=-21414,64490,-86755,-75594,-126203,83232,0
C00376=-21447,64400,-86997,-75517,-126168,83307,0
C00377=-25969,59835,-99541,-88914,-113561,85100,0
C00378=-26013,59762,-99749,-88854,-113561,85166,0
C00379=-21480,64309,-87237,-75440,-126132,83380,0
C00380=-21514,64219,-87478,-75362,-126098,83453,0
C00381=-26056,59689,-99957,-88794,-113560,85231,0
C00382=-26100,59616,-100164,-88734,-113560,85297,0
C00383=-21547,64129,-87718,-75285,-126062,83526,0
C00384=-21581,64040,-87957,-75208,-126028,83600,0
C00385=-26144,59543,-100370,-88674,-113559,85362,0
C00386=-26187,59471,-100576,-88613,-113559,85428,0
C00387=-21614,63951,-88195,-75131,-125992,83673,0
C00388=-21648,63862,-88433,-75054,-125957,83746,0
C00389=-26232,59399,-100782,-88552,-113558,85493,0
C00390=-26276,59327,-100987,-88492,-113557,85559,0
C00391=-21682,63773,-88670,-74977,-125922,83818,0
C00392=-21716,63685,-88906,-74900,-125887,83891,0
C00393=-26320,59256,-101192,-88431,-113556,85624,0
C00394=-26365,59185,-101396,-88369,-113555,85689,0
C00395=-21750,63598,-89142,-74823,-125851,83963,0
C00396=-21784,63510,-89378,-74745,-125816,84035,0
C00397=-26409,59113,-101600,-88308,-113554,85754,0
C00398=-26454,59043,-101804,-88247,-113553,85819,0
C00399=-21818,63423,-89613,-74669,-125781,84107,0
C00400=-21853,63336,-89847,-74592,-125745,84179,0
C00401=-26499,58972,-102007,-88185,-113552,85884,0
C00402=-26544,58902,-102209,-88123,-113551,85949,0
C00403=-21887,63249,-90081,-74515,-125710,84251,0
C00404=-21922,63163,-90314,-74438,-125674,84323,0
C00405=-26589,58832,-102412,-88061,-113550,86014,0
C00406=-26634,58762,-102614,-87999,-113548,86078,0
C00407=-21956,63077,-90546,-74361,-125638,84395,0
C00408=-21991,62991,-90778,-74284,-125603,84466,0
C00409=-26680,58692,-102815,-87937,-113547,86143,0
C00410=-26725,58623,-103016,-87875,-113545,86207,0
C00411=-22026,62906,-91010,-74207,-125567,84537,0
C00412=-22061,62820,-91240,-74131,-125531,84608,0
C00413=-26771,58553,-103217,-87812,-113544,86272,0
C00414=-26817,58484,-103417,-87749,-113542,86336,0
C00415=-22096,62736,-91471,-74054,-125496,84679,0
C00416=-22131,62651,-91700,-73977,-125460,84750,0
C00417=-26863,58416,-103617,-87686,-113540,86401,0
C00418=-26909,58347,-103817,-87623,-113538,86465,0
C00419=-22167,62567,-91929,-73900,-125425,84820,0
C00420=-22202,62483,-92158,-73824,-125389,84891,0
C00421=-26956,58279,-104016,-87560,-113536,86529,0
C00422=-27002,58211,-104215,-87496,-113534,86593,0
C00423=-22237,62399,-92386,-73747,-125352,84961,0
C00424=-22273,62316,-92614,-73670,-125317,85031,0
C00425=-27049,58143,-104413,-87433,-113532,86657,0
C00426=-27096,58076,-104611,-87369,-113530,86721,0
C00427=-22309,62233,-92841,-73594,-125281,85101,0
C00428=-22345,62150,-93067,-73517,-125244,85172,0
C00429=-27143,58008,-104808,-87305,-113528,86785,0
C00430=-27190,57941,-105005,-87241,-113525,86849,0
C00431=-22381,62067,-93293,-73440,-125209,85241,0
C00432=-22417,61985,-93519,-73364,-125172,85311,0
C00433=-27237,57874,-105202,-87177,-113523,86913,0
C00434=-27284,57807,-105399,-87112,-113520,86977,0
C00435=-22453,61903,-93744,-73287,-125136,85380,0
C00436=-22489,61821,-93968,-73211,-125099,85450,0
C00437=-27332,57741,-105595,-87048,-113518,87040,0
C00438=-27380,57675,-105790,-86983,-113515,87104,0
C00439=-22525,61740,-94192,-73134,-125064,85519,0
C00440=-22562,61659,-94415,-73057,-125027,85588,0
C00441=-27428,57609,-105985,-86918,-113512,87167,0
C00442=-27476,57543,-106180,-86853,-113510,87231,0
C00443=-22599,61578,-94638,-72981,-124990,85657,0
C00444=-22635,61497,-94860,-72904,-124955,85726,0
C00445=-27524,57478,-106375,-86787,-113507,87294,0
C00446=-27572,57412,-106569,-86722,-113504,87357,0
C00447=-22672,61417,-95082,-72828,-124918,85795,0
C00448=-22709,61337,-95304,-72751,-124881,85864,0
C00449=-27621,57347,-106763,-86656,-113500,87421,0
C00450=-27669,57282,-106956,-86590,-113497,87484,0
C00451=-22746,61257,-95525,-72674,-124844,85932,0
C00452=-22783,61178,-95745,-72598,-124807,86001,0
C00453=-27718,57218,-107149,-86524,-113494,87547,0
C00454=-27767,57153,-107342,-86458,-113491,87610,0
C00455=-22821,61098,-95965,-72521,-124771,86069,0
C00456=-22858,61020,-96184,-72445,-124734,86137,0
C00457=-27816,57089,-107534,-86392,-113487,87674,0
C00458=-27865,57025,-107726,-86325,-113484,87736,0
C00459=-22896,60941,-96403,-72368,-124697,86205,0
C00460=-22933,60862,-96622,-72291,-124660,86273,0
C00461=-27915,56961,-107918,-86258,-113480,87800,0
C00462=-27965,56897,-108109,-86191,-113476,87862,0
C00463=-22971,60784,-96840,-72215,-124624,86341,0
C00464=-23009,60706,-97058,-72138,-124586,86409,0
C00465=-28014,56834,-108300,-86124,-113472,87925,0
C00466=-28064,56771,-108491,-86057,-113469,87988,0
C00467=-23047,60629,-97275,-72061,-124549,86477,0
C00468=-23085,60551,-97491,-71985,-124512,86544,0
C00469=-28114,56708,-108681,-85989,-113465,88051,0
C00470=-28165,56645,-108870,-85922,-113460,88113,0
C00471=-23123,60474,-97707,-71908,-124474,86611,0
C00472=-23162,60397,-97923,-71831,-124437,86678,0
C00473=-28215,56583,-109060,-85854,-113456,88176,0
C00474=-28266,56521,-109249,-85786,-113452,88239,0
C00475=-23200,60321,-98138,-71755,-124400,86746,0
C00476=-23239,60244,-98353,-71678,-124363,86813,0
C00477=-28316,56459,-109438,-85717,-113448,88301,0
C00478=-28367,56397,-109626,-85649,-113443,88364,0
C00479=-23278,60168,-98567,-71601,-124325,86880,0
C00480=-23316,60092,-98781,-71524,-124288,86947,0
C00481=-28419,56335,-109814,-85580,-113438,88426,0
C00482=-28470,56274,-110002,-85511,-113434,88488,0
C00483=-23355,60017,-98994,-71447,-124250,87013,0
C00484=-23395,59941,-99207,-71370,-124212,87079,0
C00485=-28521,56213,-110189,-85442,-113429,88550,0
C00486=-28573,56152,-110376,-85373,-113424,88613,0
C00487=-23434,59866,-99420,-71294,-124174,87146,0
C00488=-23473,59791,-99632,-71217,-124136,87212,0
C00489=-28625,56091,-110563,-85304,-113419,88675,0
C00490=-28677,56030,-110749,-85234,-113414,88737,0
C00491=-23512,59717,-99844,-71140,-124098,87278,0
C00492=-23552,59642,-100055,-71063,-124061,87345,0
C00493=-28729,55970,-110935,-85164,-113409,88799,0
C00494=-28781,55910,-111121,-85094,-113404,88861,0
C00495=-23592,59568,-100266,-70986,-124023,87411,0
C00496=-23632,59494,-100476,-70909,-123985,87477,0
C00497=-28834,55850,-111306,-85024,-113398,88923,0
C00498=-28886,55790,-111491,-84954,-113393,88985,0
C00499=-23672,59421,-100686,-70832,-123947,87543,0
C00500=-23712,59347,-100895,-70755,-123909,87609,0
C00501=-28939,55731,-111676,-84883,-113387,89047,0
C00502=-28992,55672,-111860,-84812,-113382,89109,0
C00503=-23752,59274,-101104,-70678,-123871,87674,0
C00504=-23792,59201,-101313,-70601,-123832,87740,0
C00505=-29045,55612,-112044,-84741,-113376,89170,0
C00506=-29099,55554,-112228,-84670,-113370,89232,0
C00507=-23833,59129,-101521,-70523,-123794,87805,0
C00508=-23874,59056,-101729,-70446,-123756,87870,0
C00509=-29152,55495,-112411,-84599,-113364,89294,0
C00510=-25071,61464,-94982,-70435,-126384,86178,0
C00511=-23914,58984,-101937,-70369,-123717,87935,0
C00512=-23955,58912,-102144,-70292,-123679,88001,0
C00513=-25112,61386,-95199,-70352,-126346,86246,0
C00514=-25153,61307,-95417,-70270,-126308,86314,0
C00515=-23996,58841,-102350,-70214,-123640,88066,0
C00516=-24037,58769,-102556,-70137,-123601,88131,0
C00517=-25194,61229,-95633,-70188,-126270,86382,0
C00518=-25235,61151,-95850,-70105,-126232,86449,0
C00519=-24079,58698,-102762,-70059,-123563,88195,0
C00520=-24120,58627,-102968,-69982,-123524,88260,0
C00521=-25276,61073,-96065,-70023,-126195,86517,0
C00522=-25317,60996,-96281,-69941,-126155,86584,0
C00523=-24162,58556,-103173,-69904,-123485,88325,0
C00524=-24203,58486,-103377,-69827,-123446,88390,0
C00525=-25358,60919,-96495,-69858,-126118,86652,0
C00526=-25400,60842,-96710,-69776,-126080,86719,0
C00527=-24245,58416,-103581,-69749,-123407,88454,0
C00528=-24287,58345,-103785,-69672,-123368,88518,0
C00529=-25441,60765,-96923,-69694,-126041,86786,0
C00530=-25483,60689,-97137,-69611,-126003,86853,0
C00531=-24329,58276,-103988,-69594,-123329,88582,0
C00532=-24372,58206,-104191,-69516,-123289,88647,0
C00533=-25525,60613,-97350,-69529,-125964,86920,0
C00534=-25567,60537,-97562,-69446,-125924,86987,0
C00535=-24414,58137,-104394,-69438,-123249,88711,0
C00536=-24456,58068,-104596,-69361,-123210,88774,0
C00537=-25609,60462,-97774,-69364,-125887,87053,0
C00538=-25652,60386,-97986,-69282,-125847,87119,0
C00539=-24499,57999,-104798,-69283,-123171,88839,0
C00540=-24542,57930,-104999,-69205,-123131,88902,0
C00541=-25694,60311,-98197,-69199,-125808,87186,0
C00542=-25736,60236,-98407,-69117,-125769,87252,0
C00543=-24585,57862,-105200,-69127,-123092,88966,0
C00544=-24628,57794,-105401,-69049,-123052,89030,0
C00545=-25779,60162,-98618,-69034,-125730,87319,0
C00546=-25822,60087,-98827,-68951,-125692,87384,0
C00547=-24671,57726,-105602,-68970,-123013,89093,0
C00548=-24714,57658,-105801,-68892,-122972,89157,0
C00549=-25865,60013,-99037,-68869,-125653,87450,0
C00550=-25908,59939,-99246,-68786,-125613,87516,0
C00551=-24758,57590,-106001,-68814,-122932,89220,0
C00552=-24802,57523,-106200,-68736,-122892,89283,0
C00553=-25951,59866,-99454,-68704,-125574,87581,0
C00554=-25994,59792,-99662,-68621,-125535,87647,0
C00555=-24845,57456,-106399,-68657,-122853,89347,0
C00556=-24889,57389,-106597,-68579,-122813,89409,0
C00557=-26038,59719,-99870,-68538,-125496,87713,0
C00558=-26081,59646,-100077,-68455,-125457,87778,0
C00559=-24933,57323,-106795,-68500,-122772,89472,0
C00560=-24978,57256,-106993,-68422,-122731,89535,0
C00561=-26125,59574,-100283,-68373,-125417,87843,0
C00562=-26169,59502,-100490,-68290,-125377,87909,0
C00563=-25022,57190,-107190,-68343,-122691,89598,0
C00564=-25066,57124,-107387,-68264,-122651,89660,0
C00565=-26213,59429,-100695,-68207,-125338,87974,0
C00566=-26257,59357,-100901,-68124,-125298,88038,0
C00567=-25111,57059,-107584,-68186,-122610,89723,0
C00568=-25156,56993,-107780,-68107,-122569,89786,0
C00569=-26301,59286,-101106,-68041,-125259,88103,0
C00570=-26346,59214,-101310,-67958,-125219,88168,0
C00571=-25201,56928,-107976,-68028,-122529,89848,0
C00572=-25246,56863,-108172,-67949,-122487,89911,0
C00573=-26390,59143,-101514,-67875,-125179,88232,0
C00574=-26435,59072,-101718,-67792,-125140,88297,0
C00575=-25291,56798,-108367,-67870,-122447,89973,0
C00576=-25337,56734,-108562,-67791,-122406,90035,0
C00577=-26480,59002,-101921,-67709,-125099,88361,0
C00578=-26525,58931,-102124,-67626,-125059,88426,0
C00579=-25383,56669,-108756,-67711,-122364,90097,0
C00580=-25428,56605,-108950,-67632,-122323,90160,0
C00581=-26570,58861,-102327,-67543,-125019,88490,0
C00582=-26615,58791,-102529,-67459,-124979,88554,0
C00583=-25474,56541,-109144,-67553,-122283,90222,0
C00584=-25520,56478,-109337,-67473,-122241,90283,0
C00585=-26661,58721,-102731,-67376,-124938,88618,0
C00586=-26706,58652,-102932,-67293,-124898,88682,0
C00587=-25566,56414,-109530,-67394,-122200,90345,0
C00588=-25613,56351,-109723,-67314,-122158,90407,0
C00589=-26752,58582,-103133,-67209,-124858,88745,0
C00590=-26798,58513,-103333,-67126,-124818,88809,0
C00591=-25659,56288,-109915,-67235,-122116,90468,0
C00592=-25706,56225,-110107,-67155,-122075,90530,0
C00593=-26844,58445,-103533,-67043,-124776,88872,0
C00594=-26890,58376,-103733,-66959,-124736,88936,0
C00595=-25753,56163,-110299,-67075,-122033,90591,0
C00596=-25800,56100,-110490,-66995,-121991,90653,0
C00597=-26936,58308,-103932,-66875,-124696,88999,0
C00598=-26983,58239,-104131,-66792,-124655,89063,0
C00599=-25847,56038,-110681,-66915,-121950,90714,0
C00600=-25894,55976,-110872,-66835,-121907,90775,0
C00601=-27029,58172,-104330,-66708,-124614,89125,0
C00602=-27076,58104,-104528,-66624,-124573,89189,0
C00603=-25942,55914,-111063,-66755,-121866,90837,0
C00604=-25989,55853,-111253,-66674,-121823,90898,0
C00605=-27123,58036,-104725,-66540,-124532,89252,0
C00606=-27170,57969,-104923,-66456,-124491,89315,0
C00607=-26037,55792,-111442,-66594,-121781,90959,0
C00608=-26085,55730,-111631,-66513,-121738,91019,0
C00609=-27217,57902,-105119,-66373,-124450,89377,0
C00610=-27265,57836,-105316,-66289,-124409,89440,0
C00611=-26133,55670,-111820,-66433,-121696,91080,0
C00612=-26182,55609,-112009,-66352,-121653,91141,0
C00613=-27312,57769,-105512,-66204,-124367,89503,0
C00614=-27360,57703,-105708,-66120,-124326,89565,0
C00615=-26230,55548,-112197,-66271,-121611,91202,0
C00616=-26279,55488,-112385,-66191,-121568,91262,0
C00617=-27407,57637,-105904,-66036,-124285,89627,0
C00618=-27455,57571,-106099,-65952,-124243,89689,0
C00619=-26328,55428,-112573,-66110,-121524,91323,0
C00620=-26376,55368,-112760,-66029,-121482,91383,0
C00621=-27504,57505,-106293,-65867,-124202,89752,0
C00622=-27552,57440,-106487,-65783,-124159,89814,0
C00623=-26426,55309,-112947,-65948,-121439,91444,0
C00624=-26475,55250,-113134,-65866,-121396,91504,0
C00625=-27600,57374,-106682,-65698,-124118,89876,0
C00626=-27649,57309,-106875,-65614,-124077,89938,0
C00627=-26524,55190,-113320,-65785,-121352,91564,0
C00628=-26574,55131,-113507,-65703,-121309,91624,0
C00629=-27698,57245,-107068,-65529,-124034,90000,0
C00630=-27747,57180,-107261,-65445,-123993,90061,0
C00631=-26624,55073,-113692,-65622,-121266,91684,0
C00632=-26674,55014,-113878,-65540,-121222,91744,0
C00633=-27796,57116,-107454,-65360,-123950,90123,0
C00634=-27845,57052,-107646,-65275,-123908,90184,0
C00635=-26724,54956,-114063,-65458,-121178,91804,0
C00636=-26775,54898,-114248,-65376,-121135,91864,0
C00637=-27894,56988,-107837,-65190,-123866,90246,0
C00638=-27944,56924,-108029,-65105,-123824,90307,0
C00639=-26825,54840,-114432,-65295,-121091,91924,0
C00640=-26876,54782,-114616,-65213,-121047,91983,0
C00641=-27993,56861,-108220,-65020,-123781,90369,0
C00642=-28043,56797,-108411,-64935,-123739,90430,0
C00643=-26927,54725,-114800,-65130,-121003,92043,0
C00644=-26978,54668,-114983,-65048,-120959,92103,0
C00645=-28093,56735,-108601,-64849,-123696,90491,0
C00646=-28144,56672,-108791,-64764,-123654,90552,0
C00647=-27029,54611,-115167,-64965,-120914,92162,0
C00648=-27080,54554,-115350,-64883,-120870,92221,0
C00649=-28194,56609,-108980,-64679,-123611,90613,0
C00650=-28244,56547,-109169,-64593,-123568,90674,0
C00651=-27132,54497,-115533,-64800,-120826,92281,0
C00652=-27184,54441,-115714,-64718,-120781,92340,0
C00653=-28295,56485,-109358,-64508,-123525,90735,0
C00654=-28346,56423,-109547,-64422,-123483,90795,0
C00655=-27236,54385,-115896,-64635,-120736,92399,0
C00656=-27288,54329,-116079,-64552,-120691,92458,0
C00657=-28397,56361,-109735,-64336,-123439,90856,0
C00658=-28448,56300,-109923,-64250,-123396,90916,0
C00659=-27340,54273,-116259,-64468,-120646,92517,0
C00660=-27393,54217,-116440,-64385,-120602,92576,0
C00661=-28500,56238,-110110,-64164,-123353,90977,0
C00662=-28551,56177,-110298,-64078,-123309,91037,0
C00663=-27446,54162,-116621,-64302,-120557,92635,0
C00664=-27499,54107,-116801,-64218,-120512,92694,0
C00665=-28603,56116,-110484,-63992,-123265,91097,0
C00666=-28655,56056,-110671,-63906,-123223,91157,0
C00667=-27552,54052,-116982,-64135,-120466,92753,0
C00668=-27605,53997,-117162,-64051,-120421,92811,0
C00669=-28707,55995,-110857,-63820,-123179,91217,0
C00670=-28759,55935,-111043,-63733,-123135,91277,0
C00671=-27658,53942,-117341,-63967,-120375,92870,0
C00672=-27712,53888,-117521,-63883,-120329,92929,0
C00673=-28811,55875,-111228,-63647,-123092,91337,0
C00674=-28864,55815,-111413,-63560,-123047,91397,0
C00675=-27766,53834,-117699,-63799,-120284,92987,0
C00676=-27820,53780,-117878,-63715,-120238,93045,0
C00677=-28917,55756,-111598,-63473,-123003,91456,0
C00678=-28970,55696,-111782,-63387,-122960,91516,0
C00679=-27874,53727,-118056,-63630,-120192,93103,0
C00680=-27929,53673,-118234,-63546,-120147,93162,0
C00681=-29023,55637,-111967,-63300,-122915,91575,0
C00682=-29076,55578,-112151,-63213,-122871,91635,0
C00683=-27983,53620,-118412,-63461,-120099,93220,0
C00684=-28038,53567,-118589,-63376,-120053,93278,0
C00685=-29130,55520,-112334,-63125,-122826,91694,0
C00686=-29183,55461,-112517,-63038,-122783,91754,0
C00687=-28093,53514,-118766,-63292,-120007,93336,0
C00688=-28149,53461,-118943,-63207,-119960,93394,0
C00689=-29237,55403,-112700,-62951,-122738,91813,0
C00690=-29291,55345,-112882,-62863,-122693,91872,0
C00691=-28204,53409,-119120,-63121,-119914,93452,0
C00692=-28260,53357,-119296,-63036,-119867,93509,0
C00693=-29345,55287,-113064,-62776,-122648,91930,0
C00694=-29400,55229,-113246,-62688,-122603,91990,0
C00695=-28316,53305,-119472,-62951,-119820,93567,0
C00696=-28372,53253,-119648,-62865,-119773,93625,0
C00697=-29454,55172,-113428,-62600,-122559,92049,0
C00698=-29509,55114,-113609,-62513,-122514,92107,0
C00699=-28428,53201,-119824,-62779,-119726,93683,0
C00700=-28484,53150,-119998,-62693,-119679,93740,0
C00701=-29564,55057,-113790,-62425,-122469,92166,0
C00702=-29619,55000,-113970,-62336,-122423,92225,0
C00703=-28541,53099,-120173,-62607,-119632,93798,0
C00704=-28598,53048,-120348,-62521,-119585,93855,0
C00705=-29675,54944,-114150,-62248,-122378,92283,0
C00706=-29730,54887,-114330,-62160,-122332,92342,0
C00707=-28655,52997,-120521,-62435,-119536,93912,0
C00708=-28712,52946,-120696,-62348,-119489,93970,0
C00709=-29786,54831,-114510,-62071,-122287,92400,0
C00710=-29842,54775,-114689,-61983,-122241,92458,0
C00711=-28770,52896,-120869,-62261,-119441,94027,0
C00712=-28821,52852,-121022,-62185,-119398,94077,0
C00713=-28833,52855,-121012,-62173,-119408,94076,0
C00714=-29898,54719,-114868,-61894,-122195,92517,0
C00715=-29954,54664,-115047,-61805,-122151,92575,0
C00716=-28941,52883,-120919,-62067,-119482,94064,0
C00717=-29049,52910,-120825,-61961,-119557,94053,0
C00718=-30010,54608,-115225,-61716,-122105,92633,0
C00719=-30067,54553,-115403,-61627,-122059,92691,0
C00720=-29157,52938,-120730,-61856,-119633,94041,0
C00721=-29264,52967,-120636,-61751,-119708,94029,0
C00722=-30124,54498,-115580,-61538,-122013,92748,0
C00723=-30181,54443,-115758,-61449,-121966,92806,0
C00724=-29371,52995,-120542,-61646,-119783,94017,0
C00725=-29478,53023,-120446,-61542,-119859,94006,0
C00726=-30238,54389,-115935,-61359,-121920,92864,0
C00727=-30296,54334,-116111,-61270,-121874,92922,0
C00728=-29584,53052,-120351,-61438,-119935,93994,0
C00729=-29691,53081,-120256,-61334,-120011,93982,0
C00730=-30354,54280,-116288,-61180,-121827,92979,0
C00731=-30411,54226,-116463,-61090,-121781,93036,0
C00732=-29797,53109,-120159,-61231,-120088,93970,0
C00733=-29903,53139,-120063,-61128,-120164,93958,0
C00734=-30469,54173,-116639,-61000,-121733,93094,0
C00735=-30528,54119,-116815,-60910,-121686,93151,0
C00736=-30009,53168,-119966,-61025,-120241,93946,0
C00737=-30114,53197,-119868,-60922,-120318,93934,0
C00738=-30586,54066,-116990,-60820,-121639,93208,0
C00739=-30645,54013,-117164,-60730,-121592,93266,0
C00740=-30220,53226,-119771,-60820,-120395,93923,0
C00741=-30325,53256,-119672,-60718,-120472,93910,0
C00742=-30704,53960,-117339,-60639,-121545,93323,0
C00743=-30763,53907,-117514,-60548,-121498,93379,0
C00744=-30430,53286,-119574,-60617,-120549,93898,0
C00745=-30535,53316,-119475,-60515,-120627,93887,0
C00746=-30822,53854,-117687,-60458,-121451,93436,0
C00747=-30881,53802,-117861,-60367,-121404,93493,0
C00748=-30639,53346,-119375,-60414,-120704,93874,0
C00749=-30743,53376,-119277,-60314,-120782,93862,0
C00750=-30941,53750,-118034,-60276,-121355,93550,0
C00751=-31001,53698,-118207,-60184,-121308,93607,0
C00752=-30848,53406,-119177,-60213,-120860,93850,0
C00753=-30951,53437,-119077,-60113,-120938,93838,0
C00754=-31061,53646,-118380,-60093,-121260,93663,0
C00755=-31122,53595,-118553,-60002,-121213,93719,0
C00756=-31055,53468,-118976,-60014,-121016,93826,0
C00757=-31159,53498,-118874,-59914,-121095,93814,0
C00758=-31182,53544,-118724,-59910,-121165,93776,0
C00759=-31182,53498,-118742,-59917,-121185,93762,0
C00760=-19142,72348,-66494,-97275,-111311,75126,0
C00761=-28792,52760,-121193,-62203,-119348,94102,0
C00762=-31310,53458,-118877,-59757,-121177,93819,0
C00763=-21005,73435,-63809,-96164,-113102,74470,0
C00764=-19149,72351,-66485,-97271,-111318,75124,0
C00765=-19066,72407,-66346,-97338,-111252,75081,0
C00766=-28756,52704,-121384,-62217,-119259,94152,0
C00767=-31428,53444,-118926,-59619,-121199,93850,0
C00768=-21040,73563,-63492,-96165,-113151,74383,0
C00769=-19073,72410,-66337,-97334,-111259,75079,0
C00770=-18999,72459,-66214,-97394,-111200,75042,0
C00771=-28724,52656,-121553,-62230,-119182,94195,0
C00772=-31533,53431,-118971,-59498,-121219,93878,0
C00773=-21071,73677,-63211,-96167,-113196,74307,0
C00774=-19006,72463,-66205,-97390,-111207,75040,0
C00775=-19016,72389,-66389,-97371,-111206,75091,0
C00776=-21000,73285,-64181,-96138,-113075,74572,0
C00777=-20941,73330,-64069,-96188,-113029,74538,0
C00778=-20862,73281,-64191,-96233,-112952,74568,0
C00779=-21030,73155,-64504,-96091,-113081,74663,0
C00780=-21059,73025,-64826,-96044,-113088,74755,0
C00781=-20783,73232,-64311,-96279,-112875,74597,0
C00782=-20704,73183,-64431,-96325,-112797,74626,0
C00783=-21089,72896,-65147,-95997,-113094,74846,0
C00784=-21119,72768,-65465,-95951,-113101,74936,0
C00785=-20624,73135,-64550,-96371,-112720,74655,0
C00786=-20545,73087,-64668,-96417,-112644,74684,0
C00787=-21149,72641,-65783,-95904,-113107,75026,0
C00788=-21179,72514,-66099,-95857,-113113,75115,0
C00789=-20466,73039,-64786,-96463,-112567,74713,0
C00790=-20387,72992,-64904,-96510,-112490,74742,0
C00791=-21209,72388,-66413,-95810,-113120,75204,0
C00792=-21239,72262,-66727,-95763,-113126,75294,0
C00793=-20307,72944,-65020,-96557,-112413,74770,0
C00794=-20228,72897,-65136,-96604,-112337,74799,0
C00795=-21269,72138,-67038,-95716,-113132,75382,0
C00796=-21299,72013,-67348,-95669,-113139,75470,0
C00797=-20148,72851,-65252,-96652,-112260,74827,0
C00798=-20068,72804,-65366,-96699,-112183,74855,0
C00799=-21330,71890,-67657,-95622,-113145,75558,0
C00800=-21360,71767,-67965,-95575,-113151,75646,0
C00801=-19988,72758,-65480,-96747,-112107,74883,0
C00802=-19909,72712,-65594,-96795,-112030,74910,0
C00803=-21391,71645,-68271,-95528,-113157,75733,0
C00804=-21421,71523,-68576,-95481,-113163,75820,0
C00805=-19829,72666,-65707,-96843,-111954,74938,0
C00806=-19749,72621,-65819,-96892,-111878,74965,0
C00807=-21452,71402,-68880,-95434,-113169,75906,0
C00808=-21483,71282,-69182,-95386,-113175,75993,0
C00809=-19669,72576,-65931,-96940,-111801,74993,0
C00810=-19588,72531,-66042,-96989,-111725,75020,0
C00811=-21514,71162,-69483,-95339,-113181,76079,0
C00812=-21544,71043,-69783,-95292,-113187,76165,0
C00813=-19508,72486,-66152,-97039,-111649,75047,0
C00814=-19428,72442,-66262,-97088,-111573,75074,0
C00815=-21575,70924,-70081,-95244,-113193,76251,0
C00816=-21607,70806,-70379,-95197,-113199,76336,0
C00817=-19347,72398,-66371,-97138,-111497,75101,0
C00818=-19267,72354,-66480,-97187,-111421,75128,0
C00819=-21638,70689,-70675,-95149,-113205,76421,0
C00820=-21669,70572,-70970,-95101,-113211,76505,0
C00821=-19190,72308,-66594,-97234,-111347,75156,0
C00822=-19217,72181,-66911,-97194,-111355,75245,0
C00823=-21701,70455,-71264,-95054,-113217,76589,0
C00824=-21732,70340,-71556,-95006,-113223,76674,0
C00825=-19245,72055,-67225,-97154,-111362,75334,0
C00826=-19272,71929,-67539,-97113,-111370,75422,0
C00827=-21763,70224,-71848,-94958,-113228,76758,0
C00828=-21795,70110,-72138,-94910,-113234,76841,0
C00829=-19300,71805,-67851,-97072,-111377,75511,0
C00830=-19327,71681,-68161,-97032,-111385,75599,0
C00831=-21827,69995,-72427,-94862,-113240,76924,0
C00832=-21859,69882,-72715,-94814,-113245,77008,0
C00833=-19355,71557,-68471,-96991,-111392,75687,0
C00834=-19383,71434,-68779,-96950,-111399,75774,0
C00835=-21891,69769,-73002,-94766,-113251,77090,0
C00836=-21923,69656,-73288,-94718,-113257,77173,0
C00837=-19411,71312,-69085,-96909,-111407,75861,0
C00838=-19439,71191,-69390,-96869,-111414,75948,0
C00839=-21955,69544,-73573,-94669,-113262,77256,0
C00840=-21987,69432,-73857,-94621,-113268,77337,0
C00841=-19467,71070,-69694,-96828,-111421,76034,0
C00842=-19495,70949,-69997,-96787,-111428,76120,0
C00843=-22019,69321,-74139,-94572,-113273,77419,0
C00844=-22051,69211,-74421,-94524,-113279,77501,0
C00845=-19523,70830,-70299,-96745,-111435,76206,0
C00846=-19552,70710,-70599,-96704,-111443,76292,0
C00847=-22084,69101,-74702,-94475,-113284,77582,0
C00848=-22116,68991,-74982,-94427,-113289,77663,0
C00849=-19580,70592,-70898,-96663,-111450,76377,0
C00850=-19608,70474,-71196,-96622,-111457,76462,0
C00851=-22149,68882,-75260,-94378,-113295,77744,0
C00852=-22182,68773,-75538,-94329,-113300,77825,0
C00853=-19637,70356,-71493,-96580,-111464,76546,0
C00854=-19666,70239,-71789,-96539,-111471,76631,0
C00855=-22214,68665,-75815,-94280,-113305,77905,0
C00856=-22247,68558,-76091,-94231,-113310,77986,0
C00857=-19694,70123,-72083,-96497,-111478,76715,0
C00858=-19723,70007,-72376,-96456,-111485,76799,0
C00859=-22280,68450,-76365,-94182,-113315,78066,0
C00860=-22313,68344,-76639,-94133,-113321,78146,0
C00861=-19752,69892,-72668,-96414,-111492,76883,0
C00862=-19781,69777,-72959,-96372,-111498,76966,0
C00863=-22347,68237,-76912,-94084,-113326,78225,0
C00864=-22380,68131,-77184,-94034,-113331,78305,0
C00865=-19810,69663,-73249,-96331,-111505,77050,0
C00866=-19839,69549,-73538,-96289,-111512,77133,0
C00867=-22413,68026,-77455,-93985,-113336,78384,0
C00868=-22447,67921,-77725,-93935,-113341,78462,0
C00869=-19868,69436,-73826,-96247,-111519,77215,0
C00870=-19897,69323,-74113,-96205,-111526,77297,0
C00871=-22480,67816,-77995,-93886,-113346,78541,0
C00872=-22514,67712,-78263,-93836,-113350,78620,0
C00873=-19927,69211,-74398,-96162,-111532,77380,0
C00874=-19956,69100,-74683,-96120,-111539,77462,0
C00875=-22548,67609,-78530,-93786,-113355,78699,0
C00876=-22582,67506,-78797,-93737,-113360,78777,0
C00877=-19986,68989,-74966,-96078,-111546,77543,0
C00878=-20015,68878,-75249,-96036,-111552,77625,0
C00879=-22615,67403,-79063,-93687,-113365,78855,0
C00880=-22649,67300,-79328,-93637,-113369,78933,0
C00881=-20045,68768,-75531,-95993,-111559,77706,0
C00882=-20075,68658,-75811,-95951,-111565,77787,0
C00883=-22684,67198,-79592,-93586,-113374,79010,0
C00884=-22718,67097,-79855,-93536,-113379,79087,0
C00885=-20105,68549,-76091,-95908,-111572,77868,0
C00886=-20135,68440,-76369,-95865,-111578,77948,0
C00887=-22752,66996,-80117,-93486,-113383,79165,0
C00888=-22787,66895,-80379,-93435,-113388,79242,0
C00889=-20165,68332,-76647,-95822,-111584,78028,0
C00890=-20195,68224,-76924,-95780,-111591,78109,0
C00891=-22821,66795,-80640,-93385,-113392,79319,0
C00892=-22856,66695,-80899,-93334,-113397,79396,0
C00893=-20225,68117,-77200,-95737,-111597,78189,0
C00894=-20255,68010,-77474,-95694,-111603,78269,0
C00895=-22890,66595,-81159,-93284,-113401,79472,0
C00896=-22925,66496,-81417,-93233,-113405,79549,0
C00897=-20286,67903,-77748,-95650,-111610,78348,0
C00898=-20316,67797,-78021,-95607,-111616,78427,0
C00899=-22960,66397,-81675,-93182,-113410,79625,0
C00900=-22995,66299,-81931,-93131,-113414,79701,0
C00901=-20347,67692,-78294,-95564,-111622,78507,0
C00902=-20377,67587,-78565,-95520,-111628,78586,0
C00903=-23030,66201,-82187,-93080,-113418,79777,0
C00904=-23066,66104,-82442,-93028,-113422,79852,0
C00905=-20408,67482,-78835,-95477,-111634,78664,0
C00906=-20439,67378,-79104,-95433,-111640,78743,0
C00907=-23101,66006,-82697,-92977,-113426,79928,0
C00908=-23136,65909,-82951,-92926,-113431,80003,0
C00909=-20470,67274,-79373,-95389,-111646,78821,0
C00910=-20501,67171,-79641,-95346,-111652,78899,0
C00911=-23172,65813,-83203,-92874,-113435,80079,0
C00912=-23208,65717,-83456,-92822,-113439,80153,0
C00913=-20532,67067,-79908,-95302,-111658,78977,0
C00914=-20563,66965,-80174,-95258,-111664,79055,0
C00915=-23243,65621,-83707,-92771,-113442,80228,0
C00916=-23279,65526,-83958,-92719,-113446,80303,0
C00917=-20594,66863,-80439,-95214,-111670,79133,0
C00918=-20626,66761,-80703,-95170,-111676,79210,0
C00919=-23315,65431,-84208,-92667,-113450,80378,0
C00920=-23351,65336,-84457,-92615,-113454,80452,0
C00921=-20657,66660,-80967,-95125,-111682,79287,0
C00922=-20689,66559,-81229,-95081,-111687,79364,0
C00923=-23387,65242,-84706,-92563,-113458,80527,0
C00924=-23424,65148,-84954,-92510,-113461,80601,0
C00925=-20720,66458,-81491,-95036,-111693,79441,0
C00926=-20752,66358,-81753,-94992,-111699,79518,0
C00927=-23460,65055,-85201,-92458,-113465,80674,0
C00928=-23496,64961,-85448,-92405,-113468,80749,0
C00929=-20784,66259,-82013,-94947,-111704,79595,0
C00930=-20816,66159,-82273,-94902,-111710,79671,0
C00931=-23533,64869,-85693,-92353,-113472,80822,0
C00932=-23570,64776,-85938,-92300,-113475,80896,0
C00933=-20848,66060,-82531,-94857,-111715,79747,0
C00934=-20880,65962,-82789,-94812,-111721,79823,0
C00935=-23607,64684,-86183,-92247,-113479,80969,0
C00936=-23644,64592,-86427,-92194,-113482,81042,0
C00937=-20912,65863,-83047,-94767,-111726,79899,0
C00938=-20944,65766,-83303,-94722,-111731,79975,0
C00939=-23681,64501,-86670,-92141,-113486,81115,0
C00940=-23718,64409,-86912,-92088,-113489,81189,0
C00941=-20977,65668,-83559,-94677,-111737,80050,0
C00942=-21009,65571,-83814,-94631,-111742,80126,0
C00943=-23755,64319,-87154,-92035,-113492,81261,0
C00944=-23792,64228,-87395,-91981,-113495,81334,0
C00945=-21042,65475,-84068,-94586,-111747,80201,0
C00946=-21074,65378,-84322,-94540,-111753,80276,0
C00947=-23830,64138,-87636,-91928,-113498,81407,0
C00948=-23867,64048,-87876,-91874,-113501,81479,0
C00949=-21107,65282,-84575,-94494,-111758,80351,0
C00950=-21140,65187,-84827,-94448,-111763,80426,0
C00951=-23905,63959,-88115,-91820,-113504,81551,0
C00952=-23943,63870,-88354,-91766,-113507,81624,0
C00953=-21173,65091,-85078,-94402,-111768,80500,0
C00954=-21206,64997,-85329,-94356,-111773,80575,0
C00955=-23981,63781,-88592,-91712,-113510,81696,0
C00956=-24019,63692,-88829,-91658,-113513,81768,0
C00957=-21239,64902,-85579,-94310,-111778,80649,0
C00958=-21273,64808,-85828,-94264,-111783,80723,0
C00959=-24057,63604,-89066,-91604,-113516,81840,0
C00960=-24095,63516,-89302,-91549,-113518,81911,0
C00961=-21306,64714,-86077,-94217,-111788,80797,0
C00962=-21339,64621,-86325,-94171,-111792,80871,0
C00963=-24134,63429,-89538,-91495,-113521,81982,0
C00964=-24172,63341,-89773,-91440,-113524,82054,0
C00965=-21373,64528,-86572,-94124,-111797,80945,0
C00966=-21407,64435,-86819,-94077,-111802,81019,0
C00967=-24211,63254,-90007,-91385,-113526,82126,0
C00968=-24249,63168,-90241,-91330,-113529,82197,0
C00969=-21440,64342,-87065,-94031,-111807,81092,0
C00970=-21474,64250,-87310,-93984,-111811,81165,0
C00971=-24288,63081,-90474,-91275,-113531,82268,0
C00972=-24327,62995,-90707,-91220,-113534,82339,0
C00973=-21508,64159,-87555,-93936,-111816,81238,0
C00974=-21542,64067,-87799,-93889,-111820,81312,0
C00975=-24366,62910,-90939,-91165,-113536,82409,0
C00976=-24406,62824,-91170,-91109,-113538,82480,0
C00977=-21577,63976,-88042,-93842,-111825,81385,0
C00978=-21611,63885,-88285,-93794,-111829,81458,0
C00979=-24445,62739,-91401,-91054,-113540,82551,0
C00980=-24484,62654,-91631,-90998,-113543,82621,0
C00981=-21645,63795,-88527,-93747,-111833,81530,0
C00982=-21680,63705,-88768,-93699,-111838,81603,0
C00983=-24524,62570,-91861,-90942,-113545,82691,0
C00984=-24563,62486,-92090,-90886,-113547,82762,0
C00985=-21714,63615,-89009,-93651,-111842,81675,0
C00986=-21749,63526,-89250,-93603,-111846,81747,0
C00987=-24603,62402,-92319,-90830,-113549,82832,0
C00988=-24643,62318,-92547,-90774,-113550,82902,0
C00989=-21784,63436,-89489,-93555,-111850,81820,0
C00990=-21819,63348,-89728,-93507,-111854,81892,0
C00991=-24683,62235,-92774,-90718,-113552,82972,0
C00992=-24723,62152,-93001,-90661,-113554,83042,0
C00993=-21854,63259,-89967,-93459,-111859,81964,0
C00994=-21889,63171,-90204,-93410,-111863,82036,0
C00995=-24764,62069,-93228,-90605,-113556,83112,0
C00996=-24804,61987,-93454,-90548,-113557,83181,0
//INST
///DATE 2025/02/06 12:44
///COMM Generated using RoboDK
///ATTR SC,RW
///GROUP1 RB1
NOP
'Program generated by RoboDK v
'5.5.3 for Yaskawa SIA10D on 0
'6/02/2025 12:44:08
'Using nominal kinematics.
'CALL JOB:onStart
'CALL JOB:MCodeHa
'CALL JOB:MCodeHa
'Using Printing Frame (targets
' wrt base):
'471.7,0.0,-333.4,0.0,0.6,180.
'0
'Tool MDPH2 should be close to
':
'-226.5,0.0,70.1,0.0,-90.0,0.0
'Show MDPH2
MOVJ C00000 VJ=50.00 PL=1
MOVL C00001 V=80.0 PL=1
'CALL JOB:MCodeHa
'CALL JOB:MCodeHa
'CALL JOB:Extrude
MOVL C00002 V=130.0 PL=1
'CALL JOB:Extrude
MOVL C00003 V=40.0 PL=1
'CALL JOB:Extrude
MOVL C00004 V=130.0 PL=1
'CALL JOB:Extrude
MOVL C00005 V=40.0 PL=1
'CALL JOB:Extrude
MOVL C00006 V=30.0 PL=1
'CALL JOB:Extrude
MOVL C00007 V=30.0 PL=1
'CALL JOB:Extrude
MOVL C00008 V=30.0 PL=1
'CALL JOB:Extrude
MOVL C00009 V=30.0 PL=1
'CALL JOB:Extrude
MOVL C00010 V=30.0 PL=1
'CALL JOB:Extrude
MOVL C00011 V=30.0 PL=1
'CALL JOB:Extrude
MOVL C00012 V=30.0 PL=1
'CALL JOB:Extrude
MOVL C00013 V=30.0 PL=1
'CALL JOB:Extrude
MOVL C00014 V=30.0 PL=1
'CALL JOB:Extrude
MOVL C00015 V=30.0 PL=1
'CALL JOB:Extrude
MOVL C00016 V=30.0 PL=1
'CALL JOB:Extrude
MOVL C00017 V=30.0 PL=1
'CALL JOB:Extrude
MOVL C00018 V=30.0 PL=1
'CALL JOB:Extrude
MOVL C00019 V=30.0 PL=1
'CALL JOB:Extrude
MOVL C00020 V=30.0 PL=1
'CALL JOB:Extrude
MOVL C00021 V=30.0 PL=1
'CALL JOB:Extrude
MOVL C00022 V=30.0 PL=1
'CALL JOB:Extrude
MOVL C00023 V=30.0 PL=1
'CALL JOB:Extrude
MOVL C00024 V=30.0 PL=1
'CALL JOB:Extrude
MOVL C00025 V=30.0 PL=1
'CALL JOB:Extrude
MOVL C00026 V=30.0 PL=1
'CALL JOB:Extrude
MOVL C00027 V=30.0 PL=1
'CALL JOB:Extrude
MOVL C00028 V=30.0 PL=1
'CALL JOB:Extrude
MOVL C00029 V=30.0 PL=1
'CALL JOB:Extrude
MOVL C00030 V=40.0 PL=1
'CALL JOB:Extrude
MOVL C00031 V=130.0 PL=1
'CALL JOB:Extrude
MOVL C00032 V=40.0 PL=1
'CALL JOB:Extrude
MOVL C00033 V=30.0 PL=1
'CALL JOB:Extrude
MOVL C00034 V=30.0 PL=1
'CALL JOB:Extrude
MOVL C00035 V=30.0 PL=1
'CALL JOB:Extrude
MOVL C00036 V=30.0 PL=1
MOVL C00037 V=130.0 PL=1
'CALL JOB:Extrude
MOVL C00038 V=30.0 PL=1
'CALL JOB:Extrude
MOVL C00039 V=30.0 PL=1
'CALL JOB:Extrude
MOVL C00040 V=30.0 PL=1
'CALL JOB:Extrude
MOVL C00041 V=30.0 PL=1
MOVL C00042 V=130.0 PL=1
'CALL JOB:Extrude
MOVL C00043 V=30.0 PL=1
'CALL JOB:Extrude
MOVL C00044 V=30.0 PL=1
'CALL JOB:Extrude
MOVL C00045 V=30.0 PL=1
'CALL JOB:Extrude
MOVL C00046 V=30.0 PL=1
MOVL C00047 V=130.0 PL=1
'CALL JOB:Extrude
MOVL C00048 V=40.0 PL=1
'CALL JOB:Extrude
MOVL C00049 V=130.0 PL=1
'CALL JOB:Extrude
MOVL C00050 V=40.0 PL=1
'CALL JOB:Extrude
MOVL C00051 V=30.0 PL=1
'CALL JOB:Extrude
MOVL C00052 V=30.0 PL=1
'CALL JOB:Extrude
MOVL C00053 V=30.0 PL=1
'CALL JOB:Extrude
MOVL C00054 V=30.0 PL=1
'CALL JOB:Extrude
MOVL C00055 V=30.0 PL=1
'CALL JOB:Extrude
MOVL C00056 V=30.0 PL=1
'CALL JOB:Extrude
MOVL C00057 V=30.0 PL=1
'CALL JOB:Extrude
MOVL C00058 V=30.0 PL=1
'CALL JOB:Extrude
MOVL C00059 V=30.0 PL=1
'CALL JOB:Extrude
MOVL C00060 V=30.0 PL=1
'CALL JOB:Extrude
MOVL C00061 V=30.0 PL=1
'CALL JOB:Extrude
MOVL C00062 V=30.0 PL=1
'CALL JOB:Extrude
MOVL C00063 V=30.0 PL=1
'CALL JOB:Extrude
MOVL C00064 V=30.0 PL=1
'CALL JOB:Extrude
MOVL C00065 V=30.0 PL=1
'CALL JOB:Extrude
MOVL C00066 V=30.0 PL=1
'CALL JOB:Extrude
MOVL C00067 V=30.0 PL=1
'CALL JOB:Extrude
MOVL C00068 V=30.0 PL=1
'CALL JOB:Extrude
MOVL C00069 V=30.0 PL=1
'CALL JOB:Extrude
MOVL C00070 V=30.0 PL=1
'CALL JOB:Extrude
MOVL C00071 V=30.0 PL=1
'CALL JOB:Extrude
MOVL C00072 V=30.0 PL=1
'CALL JOB:Extrude
MOVL C00073 V=30.0 PL=1
'CALL JOB:Extrude
MOVL C00074 V=30.0 PL=1
'CALL JOB:Extrude
MOVL C00075 V=30.0 PL=1
'CALL JOB:Extrude
MOVL C00076 V=30.0 PL=1
'CALL JOB:Extrude
MOVL C00077 V=30.0 PL=1
'CALL JOB:Extrude
MOVL C00078 V=30.0 PL=1
'CALL JOB:Extrude
MOVL C00079 V=30.0 PL=1
'CALL JOB:Extrude
MOVL C00080 V=30.0 PL=1
'CALL JOB:Extrude
MOVL C00081 V=30.0 PL=1
'CALL JOB:Extrude
MOVL C00082 V=30.0 PL=1
'CALL JOB:Extrude
MOVL C00083 V=30.0 PL=1
'CALL JOB:Extrude
MOVL C00084 V=30.0 PL=1
'CALL JOB:Extrude
MOVL C00085 V=30.0 PL=1
'CALL JOB:Extrude
MOVL C00086 V=30.0 PL=1
'CALL JOB:Extrude
MOVL C00087 V=30.0 PL=1
'CALL JOB:Extrude
MOVL C00088 V=30.0 PL=1
'CALL JOB:Extrude
MOVL C00089 V=30.0 PL=1
'CALL JOB:Extrude
MOVL C00090 V=30.0 PL=1
'CALL JOB:Extrude
MOVL C00091 V=30.0 PL=1
'CALL JOB:Extrude
MOVL C00092 V=30.0 PL=1
'CALL JOB:Extrude
MOVL C00093 V=30.0 PL=1
'CALL JOB:Extrude
MOVL C00094 V=30.0 PL=1
'CALL JOB:Extrude
MOVL C00095 V=30.0 PL=1
'CALL JOB:Extrude
MOVL C00096 V=30.0 PL=1
'CALL JOB:Extrude
MOVL C00097 V=30.0 PL=1
'CALL JOB:Extrude
MOVL C00098 V=30.0 PL=1
'CALL JOB:Extrude
MOVL C00099 V=30.0 PL=1
'CALL JOB:Extrude
MOVL C00100 V=30.0 PL=1
'CALL JOB:Extrude
MOVL C00101 V=30.0 PL=1
'CALL JOB:Extrude
MOVL C00102 V=30.0 PL=1
'CALL JOB:Extrude
MOVL C00103 V=30.0 PL=1
'CALL JOB:Extrude
MOVL C00104 V=30.0 PL=1
'CALL JOB:Extrude
MOVL C00105 V=30.0 PL=1
'CALL JOB:Extrude
MOVL C00106 V=30.0 PL=1
'CALL JOB:Extrude
MOVL C00107 V=30.0 PL=1
'CALL JOB:Extrude
MOVL C00108 V=30.0 PL=1
'CALL JOB:Extrude
MOVL C00109 V=30.0 PL=1
'CALL JOB:Extrude
MOVL C00110 V=30.0 PL=1
'CALL JOB:Extrude
MOVL C00111 V=30.0 PL=1
'CALL JOB:Extrude
MOVL C00112 V=30.0 PL=1
'CALL JOB:Extrude
MOVL C00113 V=30.0 PL=1
'CALL JOB:Extrude
MOVL C00114 V=30.0 PL=1
'CALL JOB:Extrude
MOVL C00115 V=30.0 PL=1
'CALL JOB:Extrude
MOVL C00116 V=30.0 PL=1
'CALL JOB:Extrude
MOVL C00117 V=30.0 PL=1
'CALL JOB:Extrude
MOVL C00118 V=30.0 PL=1
'CALL JOB:Extrude
MOVL C00119 V=30.0 PL=1
'CALL JOB:Extrude
MOVL C00120 V=30.0 PL=1
'CALL JOB:Extrude
MOVL C00121 V=30.0 PL=1
'CALL JOB:Extrude
MOVL C00122 V=30.0 PL=1
'CALL JOB:Extrude
MOVL C00123 V=30.0 PL=1
'CALL JOB:Extrude
MOVL C00124 V=30.0 PL=1
'CALL JOB:Extrude
MOVL C00125 V=30.0 PL=1
'CALL JOB:Extrude
MOVL C00126 V=30.0 PL=1
'CALL JOB:Extrude
MOVL C00127 V=30.0 PL=1
'CALL JOB:Extrude
MOVL C00128 V=30.0 PL=1
'CALL JOB:Extrude
MOVL C00129 V=30.0 PL=1
'CALL JOB:Extrude
MOVL C00130 V=30.0 PL=1
'CALL JOB:Extrude
MOVL C00131 V=30.0 PL=1
'CALL JOB:Extrude
MOVL C00132 V=30.0 PL=1
'CALL JOB:Extrude
MOVL C00133 V=30.0 PL=1
'CALL JOB:Extrude
MOVL C00134 V=30.0 PL=1
'CALL JOB:Extrude
MOVL C00135 V=30.0 PL=1
'CALL JOB:Extrude
MOVL C00136 V=30.0 PL=1
'CALL JOB:Extrude
MOVL C00137 V=30.0 PL=1
'CALL JOB:Extrude
MOVL C00138 V=30.0 PL=1
'CALL JOB:Extrude
MOVL C00139 V=30.0 PL=1
'CALL JOB:Extrude
MOVL C00140 V=30.0 PL=1
'CALL JOB:Extrude
MOVL C00141 V=30.0 PL=1
'CALL JOB:Extrude
MOVL C00142 V=30.0 PL=1
'CALL JOB:Extrude
MOVL C00143 V=30.0 PL=1
'CALL JOB:Extrude
MOVL C00144 V=30.0 PL=1
'CALL JOB:Extrude
MOVL C00145 V=30.0 PL=1
'CALL JOB:Extrude
MOVL C00146 V=30.0 PL=1
'CALL JOB:Extrude
MOVL C00147 V=30.0 PL=1
'CALL JOB:Extrude
MOVL C00148 V=30.0 PL=1
'CALL JOB:Extrude
MOVL C00149 V=30.0 PL=1
'CALL JOB:Extrude
MOVL C00150 V=30.0 PL=1
'CALL JOB:Extrude
MOVL C00151 V=30.0 PL=1
'CALL JOB:Extrude
MOVL C00152 V=30.0 PL=1
'CALL JOB:Extrude
MOVL C00153 V=30.0 PL=1
'CALL JOB:Extrude
MOVL C00154 V=30.0 PL=1
'CALL JOB:Extrude
MOVL C00155 V=30.0 PL=1
'CALL JOB:Extrude
MOVL C00156 V=30.0 PL=1
'CALL JOB:Extrude
MOVL C00157 V=30.0 PL=1
'CALL JOB:Extrude
MOVL C00158 V=30.0 PL=1
'CALL JOB:Extrude
MOVL C00159 V=30.0 PL=1
'CALL JOB:Extrude
MOVL C00160 V=30.0 PL=1
'CALL JOB:Extrude
MOVL C00161 V=30.0 PL=1
'CALL JOB:Extrude
MOVL C00162 V=30.0 PL=1
'CALL JOB:Extrude
MOVL C00163 V=30.0 PL=1
'CALL JOB:Extrude
MOVL C00164 V=30.0 PL=1
'CALL JOB:Extrude
MOVL C00165 V=30.0 PL=1
'CALL JOB:Extrude
MOVL C00166 V=30.0 PL=1
'CALL JOB:Extrude
MOVL C00167 V=30.0 PL=1
'CALL JOB:Extrude
MOVL C00168 V=30.0 PL=1
'CALL JOB:Extrude
MOVL C00169 V=30.0 PL=1
'CALL JOB:Extrude
MOVL C00170 V=30.0 PL=1
'CALL JOB:Extrude
MOVL C00171 V=30.0 PL=1
'CALL JOB:Extrude
MOVL C00172 V=30.0 PL=1
'CALL JOB:Extrude
MOVL C00173 V=30.0 PL=1
'CALL JOB:Extrude
MOVL C00174 V=30.0 PL=1
'CALL JOB:Extrude
MOVL C00175 V=30.0 PL=1
'CALL JOB:Extrude
MOVL C00176 V=30.0 PL=1
'CALL JOB:Extrude
MOVL C00177 V=30.0 PL=1
'CALL JOB:Extrude
MOVL C00178 V=30.0 PL=1
'CALL JOB:Extrude
MOVL C00179 V=30.0 PL=1
'CALL JOB:Extrude
MOVL C00180 V=30.0 PL=1
'CALL JOB:Extrude
MOVL C00181 V=30.0 PL=1
'CALL JOB:Extrude
MOVL C00182 V=30.0 PL=1
'CALL JOB:Extrude
MOVL C00183 V=30.0 PL=1
'CALL JOB:Extrude
MOVL C00184 V=30.0 PL=1
'CALL JOB:Extrude
MOVL C00185 V=30.0 PL=1
'CALL JOB:Extrude
MOVL C00186 V=30.0 PL=1
'CALL JOB:Extrude
MOVL C00187 V=30.0 PL=1
'CALL JOB:Extrude
MOVL C00188 V=30.0 PL=1
'CALL JOB:Extrude
MOVL C00189 V=30.0 PL=1
'CALL JOB:Extrude
MOVL C00190 V=30.0 PL=1
'CALL JOB:Extrude
MOVL C00191 V=30.0 PL=1
'CALL JOB:Extrude
MOVL C00192 V=30.0 PL=1
'CALL JOB:Extrude
MOVL C00193 V=30.0 PL=1
'CALL JOB:Extrude
MOVL C00194 V=30.0 PL=1
'CALL JOB:Extrude
MOVL C00195 V=30.0 PL=1
'CALL JOB:Extrude
MOVL C00196 V=30.0 PL=1
'CALL JOB:Extrude
MOVL C00197 V=30.0 PL=1
'CALL JOB:Extrude
MOVL C00198 V=30.0 PL=1
'CALL JOB:Extrude
MOVL C00199 V=30.0 PL=1
'CALL JOB:Extrude
MOVL C00200 V=30.0 PL=1
'CALL JOB:Extrude
MOVL C00201 V=30.0 PL=1
'CALL JOB:Extrude
MOVL C00202 V=30.0 PL=1
'CALL JOB:Extrude
MOVL C00203 V=30.0 PL=1
'CALL JOB:Extrude
MOVL C00204 V=30.0 PL=1
'CALL JOB:Extrude
MOVL C00205 V=30.0 PL=1
'CALL JOB:Extrude
MOVL C00206 V=30.0 PL=1
'CALL JOB:Extrude
MOVL C00207 V=30.0 PL=1
'CALL JOB:Extrude
MOVL C00208 V=30.0 PL=1
'CALL JOB:Extrude
MOVL C00209 V=30.0 PL=1
'CALL JOB:Extrude
MOVL C00210 V=30.0 PL=1
'CALL JOB:Extrude
MOVL C00211 V=30.0 PL=1
'CALL JOB:Extrude
MOVL C00212 V=30.0 PL=1
'CALL JOB:Extrude
MOVL C00213 V=30.0 PL=1
'CALL JOB:Extrude
MOVL C00214 V=30.0 PL=1
'CALL JOB:Extrude
MOVL C00215 V=30.0 PL=1
'CALL JOB:Extrude
MOVL C00216 V=30.0 PL=1
'CALL JOB:Extrude
MOVL C00217 V=30.0 PL=1
'CALL JOB:Extrude
MOVL C00218 V=30.0 PL=1
'CALL JOB:Extrude
MOVL C00219 V=30.0 PL=1
'CALL JOB:Extrude
MOVL C00220 V=30.0 PL=1
'CALL JOB:Extrude
MOVL C00221 V=30.0 PL=1
'CALL JOB:Extrude
MOVL C00222 V=30.0 PL=1
'CALL JOB:Extrude
MOVL C00223 V=30.0 PL=1
'CALL JOB:Extrude
MOVL C00224 V=30.0 PL=1
'CALL JOB:Extrude
MOVL C00225 V=30.0 PL=1
'CALL JOB:Extrude
MOVL C00226 V=30.0 PL=1
'CALL JOB:Extrude
MOVL C00227 V=30.0 PL=1
'CALL JOB:Extrude
MOVL C00228 V=30.0 PL=1
'CALL JOB:Extrude
MOVL C00229 V=30.0 PL=1
'CALL JOB:Extrude
MOVL C00230 V=30.0 PL=1
'CALL JOB:Extrude
MOVL C00231 V=30.0 PL=1
'CALL JOB:Extrude
MOVL C00232 V=30.0 PL=1
'CALL JOB:Extrude
MOVL C00233 V=30.0 PL=1
'CALL JOB:Extrude
MOVL C00234 V=30.0 PL=1
'CALL JOB:Extrude
MOVL C00235 V=30.0 PL=1
'CALL JOB:Extrude
MOVL C00236 V=30.0 PL=1
'CALL JOB:Extrude
MOVL C00237 V=30.0 PL=1
'CALL JOB:Extrude
MOVL C00238 V=30.0 PL=1
'CALL JOB:Extrude
MOVL C00239 V=30.0 PL=1
'CALL JOB:Extrude
MOVL C00240 V=30.0 PL=1
'CALL JOB:Extrude
MOVL C00241 V=30.0 PL=1
'CALL JOB:Extrude
MOVL C00242 V=30.0 PL=1
'CALL JOB:Extrude
MOVL C00243 V=30.0 PL=1
'CALL JOB:Extrude
MOVL C00244 V=30.0 PL=1
'CALL JOB:Extrude
MOVL C00245 V=30.0 PL=1
'CALL JOB:Extrude
MOVL C00246 V=30.0 PL=1
'CALL JOB:Extrude
MOVL C00247 V=30.0 PL=1
'CALL JOB:Extrude
MOVL C00248 V=30.0 PL=1
'CALL JOB:Extrude
MOVL C00249 V=30.0 PL=1
'CALL JOB:Extrude
MOVL C00250 V=30.0 PL=1
'CALL JOB:Extrude
MOVL C00251 V=30.0 PL=1
'CALL JOB:Extrude
MOVL C00252 V=30.0 PL=1
'CALL JOB:Extrude
MOVL C00253 V=30.0 PL=1
'CALL JOB:Extrude
MOVL C00254 V=30.0 PL=1
'CALL JOB:Extrude
MOVL C00255 V=30.0 PL=1
'CALL JOB:Extrude
MOVL C00256 V=30.0 PL=1
'CALL JOB:Extrude
MOVL C00257 V=30.0 PL=1
'CALL JOB:Extrude
MOVL C00258 V=30.0 PL=1
'CALL JOB:Extrude
MOVL C00259 V=30.0 PL=1
'CALL JOB:Extrude
MOVL C00260 V=30.0 PL=1
'CALL JOB:Extrude
MOVL C00261 V=30.0 PL=1
'CALL JOB:Extrude
MOVL C00262 V=30.0 PL=1
'CALL JOB:Extrude
MOVL C00263 V=30.0 PL=1
'CALL JOB:Extrude
MOVL C00264 V=30.0 PL=1
'CALL JOB:Extrude
MOVL C00265 V=30.0 PL=1
'CALL JOB:Extrude
MOVL C00266 V=30.0 PL=1
'CALL JOB:Extrude
MOVL C00267 V=30.0 PL=1
'CALL JOB:Extrude
MOVL C00268 V=30.0 PL=1
'CALL JOB:Extrude
MOVL C00269 V=30.0 PL=1
'CALL JOB:Extrude
MOVL C00270 V=30.0 PL=1
'CALL JOB:Extrude
MOVL C00271 V=30.0 PL=1
'CALL JOB:Extrude
MOVL C00272 V=30.0 PL=1
'CALL JOB:Extrude
MOVL C00273 V=30.0 PL=1
'CALL JOB:Extrude
MOVL C00274 V=30.0 PL=1
'CALL JOB:Extrude
MOVL C00275 V=30.0 PL=1
'CALL JOB:Extrude
MOVL C00276 V=30.0 PL=1
'CALL JOB:Extrude
MOVL C00277 V=30.0 PL=1
'CALL JOB:Extrude
MOVL C00278 V=30.0 PL=1
'CALL JOB:Extrude
MOVL C00279 V=30.0 PL=1
'CALL JOB:Extrude
MOVL C00280 V=30.0 PL=1
'CALL JOB:Extrude
MOVL C00281 V=30.0 PL=1
'CALL JOB:Extrude
MOVL C00282 V=30.0 PL=1
'CALL JOB:Extrude
MOVL C00283 V=30.0 PL=1
'CALL JOB:Extrude
MOVL C00284 V=30.0 PL=1
'CALL JOB:Extrude
MOVL C00285 V=30.0 PL=1
'CALL JOB:Extrude
MOVL C00286 V=30.0 PL=1
'CALL JOB:Extrude
MOVL C00287 V=30.0 PL=1
'CALL JOB:Extrude
MOVL C00288 V=30.0 PL=1
'CALL JOB:Extrude
MOVL C00289 V=30.0 PL=1
'CALL JOB:Extrude
MOVL C00290 V=30.0 PL=1
'CALL JOB:Extrude
MOVL C00291 V=30.0 PL=1
'CALL JOB:Extrude
MOVL C00292 V=30.0 PL=1
'CALL JOB:Extrude
MOVL C00293 V=30.0 PL=1
'CALL JOB:Extrude
MOVL C00294 V=30.0 PL=1
'CALL JOB:Extrude
MOVL C00295 V=30.0 PL=1
'CALL JOB:Extrude
MOVL C00296 V=30.0 PL=1
'CALL JOB:Extrude
MOVL C00297 V=30.0 PL=1
'CALL JOB:Extrude
MOVL C00298 V=30.0 PL=1
'CALL JOB:Extrude
MOVL C00299 V=30.0 PL=1
'CALL JOB:Extrude
MOVL C00300 V=30.0 PL=1
'CALL JOB:Extrude
MOVL C00301 V=30.0 PL=1
'CALL JOB:Extrude
MOVL C00302 V=30.0 PL=1
'CALL JOB:Extrude
MOVL C00303 V=30.0 PL=1
'CALL JOB:Extrude
MOVL C00304 V=30.0 PL=1
'CALL JOB:Extrude
MOVL C00305 V=30.0 PL=1
'CALL JOB:Extrude
MOVL C00306 V=30.0 PL=1
'CALL JOB:Extrude
MOVL C00307 V=30.0 PL=1
'CALL JOB:Extrude
MOVL C00308 V=30.0 PL=1
'CALL JOB:Extrude
MOVL C00309 V=30.0 PL=1
'CALL JOB:Extrude
MOVL C00310 V=30.0 PL=1
'CALL JOB:Extrude
MOVL C00311 V=30.0 PL=1
'CALL JOB:Extrude
MOVL C00312 V=30.0 PL=1
'CALL JOB:Extrude
MOVL C00313 V=30.0 PL=1
'CALL JOB:Extrude
MOVL C00314 V=30.0 PL=1
'CALL JOB:Extrude
MOVL C00315 V=30.0 PL=1
'CALL JOB:Extrude
MOVL C00316 V=30.0 PL=1
'CALL JOB:Extrude
MOVL C00317 V=30.0 PL=1
'CALL JOB:Extrude
MOVL C00318 V=30.0 PL=1
'CALL JOB:Extrude
MOVL C00319 V=30.0 PL=1
'CALL JOB:Extrude
MOVL C00320 V=30.0 PL=1
'CALL JOB:Extrude
MOVL C00321 V=30.0 PL=1
'CALL JOB:Extrude
MOVL C00322 V=30.0 PL=1
'CALL JOB:Extrude
MOVL C00323 V=30.0 PL=1
'CALL JOB:Extrude
MOVL C00324 V=30.0 PL=1
'CALL JOB:Extrude
MOVL C00325 V=30.0 PL=1
'CALL JOB:Extrude
MOVL C00326 V=30.0 PL=1
'CALL JOB:Extrude
MOVL C00327 V=30.0 PL=1
'CALL JOB:Extrude
MOVL C00328 V=30.0 PL=1
'CALL JOB:Extrude
MOVL C00329 V=30.0 PL=1
'CALL JOB:Extrude
MOVL C00330 V=30.0 PL=1
'CALL JOB:Extrude
MOVL C00331 V=30.0 PL=1
'CALL JOB:Extrude
MOVL C00332 V=30.0 PL=1
'CALL JOB:Extrude
MOVL C00333 V=30.0 PL=1
'CALL JOB:Extrude
MOVL C00334 V=30.0 PL=1
'CALL JOB:Extrude
MOVL C00335 V=30.0 PL=1
'CALL JOB:Extrude
MOVL C00336 V=30.0 PL=1
'CALL JOB:Extrude
MOVL C00337 V=30.0 PL=1
'CALL JOB:Extrude
MOVL C00338 V=30.0 PL=1
'CALL JOB:Extrude
MOVL C00339 V=30.0 PL=1
'CALL JOB:Extrude
MOVL C00340 V=30.0 PL=1
'CALL JOB:Extrude
MOVL C00341 V=30.0 PL=1
'CALL JOB:Extrude
MOVL C00342 V=30.0 PL=1
'CALL JOB:Extrude
MOVL C00343 V=30.0 PL=1
'CALL JOB:Extrude
MOVL C00344 V=30.0 PL=1
'CALL JOB:Extrude
MOVL C00345 V=30.0 PL=1
'CALL JOB:Extrude
MOVL C00346 V=30.0 PL=1
'CALL JOB:Extrude
MOVL C00347 V=30.0 PL=1
'CALL JOB:Extrude
MOVL C00348 V=30.0 PL=1
'CALL JOB:Extrude
MOVL C00349 V=30.0 PL=1
'CALL JOB:Extrude
MOVL C00350 V=30.0 PL=1
'CALL JOB:Extrude
MOVL C00351 V=30.0 PL=1
'CALL JOB:Extrude
MOVL C00352 V=30.0 PL=1
'CALL JOB:Extrude
MOVL C00353 V=30.0 PL=1
'CALL JOB:Extrude
MOVL C00354 V=30.0 PL=1
'CALL JOB:Extrude
MOVL C00355 V=30.0 PL=1
'CALL JOB:Extrude
MOVL C00356 V=30.0 PL=1
'CALL JOB:Extrude
MOVL C00357 V=30.0 PL=1
'CALL JOB:Extrude
MOVL C00358 V=30.0 PL=1
'CALL JOB:Extrude
MOVL C00359 V=30.0 PL=1
'CALL JOB:Extrude
MOVL C00360 V=30.0 PL=1
'CALL JOB:Extrude
MOVL C00361 V=30.0 PL=1
'CALL JOB:Extrude
MOVL C00362 V=30.0 PL=1
'CALL JOB:Extrude
MOVL C00363 V=30.0 PL=1
'CALL JOB:Extrude
MOVL C00364 V=30.0 PL=1
'CALL JOB:Extrude
MOVL C00365 V=30.0 PL=1
'CALL JOB:Extrude
MOVL C00366 V=30.0 PL=1
'CALL JOB:Extrude
MOVL C00367 V=30.0 PL=1
'CALL JOB:Extrude
MOVL C00368 V=30.0 PL=1
'CALL JOB:Extrude
MOVL C00369 V=30.0 PL=1
'CALL JOB:Extrude
MOVL C00370 V=30.0 PL=1
'CALL JOB:Extrude
MOVL C00371 V=30.0 PL=1
'CALL JOB:Extrude
MOVL C00372 V=30.0 PL=1
'CALL JOB:Extrude
MOVL C00373 V=30.0 PL=1
'CALL JOB:Extrude
MOVL C00374 V=30.0 PL=1
'CALL JOB:Extrude
MOVL C00375 V=30.0 PL=1
'CALL JOB:Extrude
MOVL C00376 V=30.0 PL=1
'CALL JOB:Extrude
MOVL C00377 V=30.0 PL=1
'CALL JOB:Extrude
MOVL C00378 V=30.0 PL=1
'CALL JOB:Extrude
MOVL C00379 V=30.0 PL=1
'CALL JOB:Extrude
MOVL C00380 V=30.0 PL=1
'CALL JOB:Extrude
MOVL C00381 V=30.0 PL=1
'CALL JOB:Extrude
MOVL C00382 V=30.0 PL=1
'CALL JOB:Extrude
MOVL C00383 V=30.0 PL=1
'CALL JOB:Extrude
MOVL C00384 V=30.0 PL=1
'CALL JOB:Extrude
MOVL C00385 V=30.0 PL=1
'CALL JOB:Extrude
MOVL C00386 V=30.0 PL=1
'CALL JOB:Extrude
MOVL C00387 V=30.0 PL=1
'CALL JOB:Extrude
MOVL C00388 V=30.0 PL=1
'CALL JOB:Extrude
MOVL C00389 V=30.0 PL=1
'CALL JOB:Extrude
MOVL C00390 V=30.0 PL=1
'CALL JOB:Extrude
MOVL C00391 V=30.0 PL=1
'CALL JOB:Extrude
MOVL C00392 V=30.0 PL=1
'CALL JOB:Extrude
MOVL C00393 V=30.0 PL=1
'CALL JOB:Extrude
MOVL C00394 V=30.0 PL=1
'CALL JOB:Extrude
MOVL C00395 V=30.0 PL=1
'CALL JOB:Extrude
MOVL C00396 V=30.0 PL=1
'CALL JOB:Extrude
MOVL C00397 V=30.0 PL=1
'CALL JOB:Extrude
MOVL C00398 V=30.0 PL=1
'CALL JOB:Extrude
MOVL C00399 V=30.0 PL=1
'CALL JOB:Extrude
MOVL C00400 V=30.0 PL=1
'CALL JOB:Extrude
MOVL C00401 V=30.0 PL=1
'CALL JOB:Extrude
MOVL C00402 V=30.0 PL=1
'CALL JOB:Extrude
MOVL C00403 V=30.0 PL=1
'CALL JOB:Extrude
MOVL C00404 V=30.0 PL=1
'CALL JOB:Extrude
MOVL C00405 V=30.0 PL=1
'CALL JOB:Extrude
MOVL C00406 V=30.0 PL=1
'CALL JOB:Extrude
MOVL C00407 V=30.0 PL=1
'CALL JOB:Extrude
MOVL C00408 V=30.0 PL=1
'CALL JOB:Extrude
MOVL C00409 V=30.0 PL=1
'CALL JOB:Extrude
MOVL C00410 V=30.0 PL=1
'CALL JOB:Extrude
MOVL C00411 V=30.0 PL=1
'CALL JOB:Extrude
MOVL C00412 V=30.0 PL=1
'CALL JOB:Extrude
MOVL C00413 V=30.0 PL=1
'CALL JOB:Extrude
MOVL C00414 V=30.0 PL=1
'CALL JOB:Extrude
MOVL C00415 V=30.0 PL=1
'CALL JOB:Extrude
MOVL C00416 V=30.0 PL=1
'CALL JOB:Extrude
MOVL C00417 V=30.0 PL=1
'CALL JOB:Extrude
MOVL C00418 V=30.0 PL=1
'CALL JOB:Extrude
MOVL C00419 V=30.0 PL=1
'CALL JOB:Extrude
MOVL C00420 V=30.0 PL=1
'CALL JOB:Extrude
MOVL C00421 V=30.0 PL=1
'CALL JOB:Extrude
MOVL C00422 V=30.0 PL=1
'CALL JOB:Extrude
MOVL C00423 V=30.0 PL=1
'CALL JOB:Extrude
MOVL C00424 V=30.0 PL=1
'CALL JOB:Extrude
MOVL C00425 V=30.0 PL=1
'CALL JOB:Extrude
MOVL C00426 V=30.0 PL=1
'CALL JOB:Extrude
MOVL C00427 V=30.0 PL=1
'CALL JOB:Extrude
MOVL C00428 V=30.0 PL=1
'CALL JOB:Extrude
MOVL C00429 V=30.0 PL=1
'CALL JOB:Extrude
MOVL C00430 V=30.0 PL=1
'CALL JOB:Extrude
MOVL C00431 V=30.0 PL=1
'CALL JOB:Extrude
MOVL C00432 V=30.0 PL=1
'CALL JOB:Extrude
MOVL C00433 V=30.0 PL=1
'CALL JOB:Extrude
MOVL C00434 V=30.0 PL=1
'CALL JOB:Extrude
MOVL C00435 V=30.0 PL=1
'CALL JOB:Extrude
MOVL C00436 V=30.0 PL=1
'CALL JOB:Extrude
MOVL C00437 V=30.0 PL=1
'CALL JOB:Extrude
MOVL C00438 V=30.0 PL=1
'CALL JOB:Extrude
MOVL C00439 V=30.0 PL=1
'CALL JOB:Extrude
MOVL C00440 V=30.0 PL=1
'CALL JOB:Extrude
MOVL C00441 V=30.0 PL=1
'CALL JOB:Extrude
MOVL C00442 V=30.0 PL=1
'CALL JOB:Extrude
MOVL C00443 V=30.0 PL=1
'CALL JOB:Extrude
MOVL C00444 V=30.0 PL=1
'CALL JOB:Extrude
MOVL C00445 V=30.0 PL=1
'CALL JOB:Extrude
MOVL C00446 V=30.0 PL=1
'CALL JOB:Extrude
MOVL C00447 V=30.0 PL=1
'CALL JOB:Extrude
MOVL C00448 V=30.0 PL=1
'CALL JOB:Extrude
MOVL C00449 V=30.0 PL=1
'CALL JOB:Extrude
MOVL C00450 V=30.0 PL=1
'CALL JOB:Extrude
MOVL C00451 V=30.0 PL=1
'CALL JOB:Extrude
MOVL C00452 V=30.0 PL=1
'CALL JOB:Extrude
MOVL C00453 V=30.0 PL=1
'CALL JOB:Extrude
MOVL C00454 V=30.0 PL=1
'CALL JOB:Extrude
MOVL C00455 V=30.0 PL=1
'CALL JOB:Extrude
MOVL C00456 V=30.0 PL=1
'CALL JOB:Extrude
MOVL C00457 V=30.0 PL=1
'CALL JOB:Extrude
MOVL C00458 V=30.0 PL=1
'CALL JOB:Extrude
MOVL C00459 V=30.0 PL=1
'CALL JOB:Extrude
MOVL C00460 V=30.0 PL=1
'CALL JOB:Extrude
MOVL C00461 V=30.0 PL=1
'CALL JOB:Extrude
MOVL C00462 V=30.0 PL=1
'CALL JOB:Extrude
MOVL C00463 V=30.0 PL=1
'CALL JOB:Extrude
MOVL C00464 V=30.0 PL=1
'CALL JOB:Extrude
MOVL C00465 V=30.0 PL=1
'CALL JOB:Extrude
MOVL C00466 V=30.0 PL=1
'CALL JOB:Extrude
MOVL C00467 V=30.0 PL=1
'CALL JOB:Extrude
MOVL C00468 V=30.0 PL=1
'CALL JOB:Extrude
MOVL C00469 V=30.0 PL=1
'CALL JOB:Extrude
MOVL C00470 V=30.0 PL=1
'CALL JOB:Extrude
MOVL C00471 V=30.0 PL=1
'CALL JOB:Extrude
MOVL C00472 V=30.0 PL=1
'CALL JOB:Extrude
MOVL C00473 V=30.0 PL=1
'CALL JOB:Extrude
MOVL C00474 V=30.0 PL=1
'CALL JOB:Extrude
MOVL C00475 V=30.0 PL=1
'CALL JOB:Extrude
MOVL C00476 V=30.0 PL=1
'CALL JOB:Extrude
MOVL C00477 V=30.0 PL=1
'CALL JOB:Extrude
MOVL C00478 V=30.0 PL=1
'CALL JOB:Extrude
MOVL C00479 V=30.0 PL=1
'CALL JOB:Extrude
MOVL C00480 V=30.0 PL=1
'CALL JOB:Extrude
MOVL C00481 V=30.0 PL=1
'CALL JOB:Extrude
MOVL C00482 V=30.0 PL=1
'CALL JOB:Extrude
MOVL C00483 V=30.0 PL=1
'CALL JOB:Extrude
MOVL C00484 V=30.0 PL=1
'CALL JOB:Extrude
MOVL C00485 V=30.0 PL=1
'CALL JOB:Extrude
MOVL C00486 V=30.0 PL=1
'CALL JOB:Extrude
MOVL C00487 V=30.0 PL=1
'CALL JOB:Extrude
MOVL C00488 V=30.0 PL=1
'CALL JOB:Extrude
MOVL C00489 V=30.0 PL=1
'CALL JOB:Extrude
MOVL C00490 V=30.0 PL=1
'CALL JOB:Extrude
MOVL C00491 V=30.0 PL=1
'CALL JOB:Extrude
MOVL C00492 V=30.0 PL=1
'CALL JOB:Extrude
MOVL C00493 V=30.0 PL=1
'CALL JOB:Extrude
MOVL C00494 V=30.0 PL=1
'CALL JOB:Extrude
MOVL C00495 V=30.0 PL=1
'CALL JOB:Extrude
MOVL C00496 V=30.0 PL=1
'CALL JOB:Extrude
MOVL C00497 V=30.0 PL=1
'CALL JOB:Extrude
MOVL C00498 V=30.0 PL=1
'CALL JOB:Extrude
MOVL C00499 V=30.0 PL=1
'CALL JOB:Extrude
MOVL C00500 V=30.0 PL=1
'CALL JOB:Extrude
MOVL C00501 V=30.0 PL=1
'CALL JOB:Extrude
MOVL C00502 V=30.0 PL=1
'CALL JOB:Extrude
MOVL C00503 V=30.0 PL=1
'CALL JOB:Extrude
MOVL C00504 V=30.0 PL=1
'CALL JOB:Extrude
MOVL C00505 V=30.0 PL=1
'CALL JOB:Extrude
MOVL C00506 V=30.0 PL=1
'CALL JOB:Extrude
MOVL C00507 V=30.0 PL=1
'CALL JOB:Extrude
MOVL C00508 V=30.0 PL=1
'CALL JOB:Extrude
MOVL C00509 V=30.0 PL=1
'CALL JOB:Extrude
MOVL C00510 V=30.0 PL=1
'CALL JOB:Extrude
MOVL C00511 V=30.0 PL=1
'CALL JOB:Extrude
MOVL C00512 V=30.0 PL=1
'CALL JOB:Extrude
MOVL C00513 V=30.0 PL=1
'CALL JOB:Extrude
MOVL C00514 V=30.0 PL=1
'CALL JOB:Extrude
MOVL C00515 V=30.0 PL=1
'CALL JOB:Extrude
MOVL C00516 V=30.0 PL=1
'CALL JOB:Extrude
MOVL C00517 V=30.0 PL=1
'CALL JOB:Extrude
MOVL C00518 V=30.0 PL=1
'CALL JOB:Extrude
MOVL C00519 V=30.0 PL=1
'CALL JOB:Extrude
MOVL C00520 V=30.0 PL=1
'CALL JOB:Extrude
MOVL C00521 V=30.0 PL=1
'CALL JOB:Extrude
MOVL C00522 V=30.0 PL=1
'CALL JOB:Extrude
MOVL C00523 V=30.0 PL=1
'CALL JOB:Extrude
MOVL C00524 V=30.0 PL=1
'CALL JOB:Extrude
MOVL C00525 V=30.0 PL=1
'CALL JOB:Extrude
MOVL C00526 V=30.0 PL=1
'CALL JOB:Extrude
MOVL C00527 V=30.0 PL=1
'CALL JOB:Extrude
MOVL C00528 V=30.0 PL=1
'CALL JOB:Extrude
MOVL C00529 V=30.0 PL=1
'CALL JOB:Extrude
MOVL C00530 V=30.0 PL=1
'CALL JOB:Extrude
MOVL C00531 V=30.0 PL=1
'CALL JOB:Extrude
MOVL C00532 V=30.0 PL=1
'CALL JOB:Extrude
MOVL C00533 V=30.0 PL=1
'CALL JOB:Extrude
MOVL C00534 V=30.0 PL=1
'CALL JOB:Extrude
MOVL C00535 V=30.0 PL=1
'CALL JOB:Extrude
MOVL C00536 V=30.0 PL=1
'CALL JOB:Extrude
MOVL C00537 V=30.0 PL=1
'CALL JOB:Extrude
MOVL C00538 V=30.0 PL=1
'CALL JOB:Extrude
MOVL C00539 V=30.0 PL=1
'CALL JOB:Extrude
MOVL C00540 V=30.0 PL=1
'CALL JOB:Extrude
MOVL C00541 V=30.0 PL=1
'CALL JOB:Extrude
MOVL C00542 V=30.0 PL=1
'CALL JOB:Extrude
MOVL C00543 V=30.0 PL=1
'CALL JOB:Extrude
MOVL C00544 V=30.0 PL=1
'CALL JOB:Extrude
MOVL C00545 V=30.0 PL=1
'CALL JOB:Extrude
MOVL C00546 V=30.0 PL=1
'CALL JOB:Extrude
MOVL C00547 V=30.0 PL=1
'CALL JOB:Extrude
MOVL C00548 V=30.0 PL=1
'CALL JOB:Extrude
MOVL C00549 V=30.0 PL=1
'CALL JOB:Extrude
MOVL C00550 V=30.0 PL=1
'CALL JOB:Extrude
MOVL C00551 V=30.0 PL=1
'CALL JOB:Extrude
MOVL C00552 V=30.0 PL=1
'CALL JOB:Extrude
MOVL C00553 V=30.0 PL=1
'CALL JOB:Extrude
MOVL C00554 V=30.0 PL=1
'CALL JOB:Extrude
MOVL C00555 V=30.0 PL=1
'CALL JOB:Extrude
MOVL C00556 V=30.0 PL=1
'CALL JOB:Extrude
MOVL C00557 V=30.0 PL=1
'CALL JOB:Extrude
MOVL C00558 V=30.0 PL=1
'CALL JOB:Extrude
MOVL C00559 V=30.0 PL=1
'CALL JOB:Extrude
MOVL C00560 V=30.0 PL=1
'CALL JOB:Extrude
MOVL C00561 V=30.0 PL=1
'CALL JOB:Extrude
MOVL C00562 V=30.0 PL=1
'CALL JOB:Extrude
MOVL C00563 V=30.0 PL=1
'CALL JOB:Extrude
MOVL C00564 V=30.0 PL=1
'CALL JOB:Extrude
MOVL C00565 V=30.0 PL=1
'CALL JOB:Extrude
MOVL C00566 V=30.0 PL=1
'CALL JOB:Extrude
MOVL C00567 V=30.0 PL=1
'CALL JOB:Extrude
MOVL C00568 V=30.0 PL=1
'CALL JOB:Extrude
MOVL C00569 V=30.0 PL=1
'CALL JOB:Extrude
MOVL C00570 V=30.0 PL=1
'CALL JOB:Extrude
MOVL C00571 V=30.0 PL=1
'CALL JOB:Extrude
MOVL C00572 V=30.0 PL=1
'CALL JOB:Extrude
MOVL C00573 V=30.0 PL=1
'CALL JOB:Extrude
MOVL C00574 V=30.0 PL=1
'CALL JOB:Extrude
MOVL C00575 V=30.0 PL=1
'CALL JOB:Extrude
MOVL C00576 V=30.0 PL=1
'CALL JOB:Extrude
MOVL C00577 V=30.0 PL=1
'CALL JOB:Extrude
MOVL C00578 V=30.0 PL=1
'CALL JOB:Extrude
MOVL C00579 V=30.0 PL=1
'CALL JOB:Extrude
MOVL C00580 V=30.0 PL=1
'CALL JOB:Extrude
MOVL C00581 V=30.0 PL=1
'CALL JOB:Extrude
MOVL C00582 V=30.0 PL=1
'CALL JOB:Extrude
MOVL C00583 V=30.0 PL=1
'CALL JOB:Extrude
MOVL C00584 V=30.0 PL=1
'CALL JOB:Extrude
MOVL C00585 V=30.0 PL=1
'CALL JOB:Extrude
MOVL C00586 V=30.0 PL=1
'CALL JOB:Extrude
MOVL C00587 V=30.0 PL=1
'CALL JOB:Extrude
MOVL C00588 V=30.0 PL=1
'CALL JOB:Extrude
MOVL C00589 V=30.0 PL=1
'CALL JOB:Extrude
MOVL C00590 V=30.0 PL=1
'CALL JOB:Extrude
MOVL C00591 V=30.0 PL=1
'CALL JOB:Extrude
MOVL C00592 V=30.0 PL=1
'CALL JOB:Extrude
MOVL C00593 V=30.0 PL=1
'CALL JOB:Extrude
MOVL C00594 V=30.0 PL=1
'CALL JOB:Extrude
MOVL C00595 V=30.0 PL=1
'CALL JOB:Extrude
MOVL C00596 V=30.0 PL=1
'CALL JOB:Extrude
MOVL C00597 V=30.0 PL=1
'CALL JOB:Extrude
MOVL C00598 V=30.0 PL=1
'CALL JOB:Extrude
MOVL C00599 V=30.0 PL=1
'CALL JOB:Extrude
MOVL C00600 V=30.0 PL=1
'CALL JOB:Extrude
MOVL C00601 V=30.0 PL=1
'CALL JOB:Extrude
MOVL C00602 V=30.0 PL=1
'CALL JOB:Extrude
MOVL C00603 V=30.0 PL=1
'CALL JOB:Extrude
MOVL C00604 V=30.0 PL=1
'CALL JOB:Extrude
MOVL C00605 V=30.0 PL=1
'CALL JOB:Extrude
MOVL C00606 V=30.0 PL=1
'CALL JOB:Extrude
MOVL C00607 V=30.0 PL=1
'CALL JOB:Extrude
MOVL C00608 V=30.0 PL=1
'CALL JOB:Extrude
MOVL C00609 V=30.0 PL=1
'CALL JOB:Extrude
MOVL C00610 V=30.0 PL=1
'CALL JOB:Extrude
MOVL C00611 V=30.0 PL=1
'CALL JOB:Extrude
MOVL C00612 V=30.0 PL=1
'CALL JOB:Extrude
MOVL C00613 V=30.0 PL=1
'CALL JOB:Extrude
MOVL C00614 V=30.0 PL=1
'CALL JOB:Extrude
MOVL C00615 V=30.0 PL=1
'CALL JOB:Extrude
MOVL C00616 V=30.0 PL=1
'CALL JOB:Extrude
MOVL C00617 V=30.0 PL=1
'CALL JOB:Extrude
MOVL C00618 V=30.0 PL=1
'CALL JOB:Extrude
MOVL C00619 V=30.0 PL=1
'CALL JOB:Extrude
MOVL C00620 V=30.0 PL=1
'CALL JOB:Extrude
MOVL C00621 V=30.0 PL=1
'CALL JOB:Extrude
MOVL C00622 V=30.0 PL=1
'CALL JOB:Extrude
MOVL C00623 V=30.0 PL=1
'CALL JOB:Extrude
MOVL C00624 V=30.0 PL=1
'CALL JOB:Extrude
MOVL C00625 V=30.0 PL=1
'CALL JOB:Extrude
MOVL C00626 V=30.0 PL=1
'CALL JOB:Extrude
MOVL C00627 V=30.0 PL=1
'CALL JOB:Extrude
MOVL C00628 V=30.0 PL=1
'CALL JOB:Extrude
MOVL C00629 V=30.0 PL=1
'CALL JOB:Extrude
MOVL C00630 V=30.0 PL=1
'CALL JOB:Extrude
MOVL C00631 V=30.0 PL=1
'CALL JOB:Extrude
MOVL C00632 V=30.0 PL=1
'CALL JOB:Extrude
MOVL C00633 V=30.0 PL=1
'CALL JOB:Extrude
MOVL C00634 V=30.0 PL=1
'CALL JOB:Extrude
MOVL C00635 V=30.0 PL=1
'CALL JOB:Extrude
MOVL C00636 V=30.0 PL=1
'CALL JOB:Extrude
MOVL C00637 V=30.0 PL=1
'CALL JOB:Extrude
MOVL C00638 V=30.0 PL=1
'CALL JOB:Extrude
MOVL C00639 V=30.0 PL=1
'CALL JOB:Extrude
MOVL C00640 V=30.0 PL=1
'CALL JOB:Extrude
MOVL C00641 V=30.0 PL=1
'CALL JOB:Extrude
MOVL C00642 V=30.0 PL=1
'CALL JOB:Extrude
MOVL C00643 V=30.0 PL=1
'CALL JOB:Extrude
MOVL C00644 V=30.0 PL=1
'CALL JOB:Extrude
MOVL C00645 V=30.0 PL=1
'CALL JOB:Extrude
MOVL C00646 V=30.0 PL=1
'CALL JOB:Extrude
MOVL C00647 V=30.0 PL=1
'CALL JOB:Extrude
MOVL C00648 V=30.0 PL=1
'CALL JOB:Extrude
MOVL C00649 V=30.0 PL=1
'CALL JOB:Extrude
MOVL C00650 V=30.0 PL=1
'CALL JOB:Extrude
MOVL C00651 V=30.0 PL=1
'CALL JOB:Extrude
MOVL C00652 V=30.0 PL=1
'CALL JOB:Extrude
MOVL C00653 V=30.0 PL=1
'CALL JOB:Extrude
MOVL C00654 V=30.0 PL=1
'CALL JOB:Extrude
MOVL C00655 V=30.0 PL=1
'CALL JOB:Extrude
MOVL C00656 V=30.0 PL=1
'CALL JOB:Extrude
MOVL C00657 V=30.0 PL=1
'CALL JOB:Extrude
MOVL C00658 V=30.0 PL=1
'CALL JOB:Extrude
MOVL C00659 V=30.0 PL=1
'CALL JOB:Extrude
MOVL C00660 V=30.0 PL=1
'CALL JOB:Extrude
MOVL C00661 V=30.0 PL=1
'CALL JOB:Extrude
MOVL C00662 V=30.0 PL=1
'CALL JOB:Extrude
MOVL C00663 V=30.0 PL=1
'CALL JOB:Extrude
MOVL C00664 V=30.0 PL=1
'CALL JOB:Extrude
MOVL C00665 V=30.0 PL=1
'CALL JOB:Extrude
MOVL C00666 V=30.0 PL=1
'CALL JOB:Extrude
MOVL C00667 V=30.0 PL=1
'CALL JOB:Extrude
MOVL C00668 V=30.0 PL=1
'CALL JOB:Extrude
MOVL C00669 V=30.0 PL=1
'CALL JOB:Extrude
MOVL C00670 V=30.0 PL=1
'CALL JOB:Extrude
MOVL C00671 V=30.0 PL=1
'CALL JOB:Extrude
MOVL C00672 V=30.0 PL=1
'CALL JOB:Extrude
MOVL C00673 V=30.0 PL=1
'CALL JOB:Extrude
MOVL C00674 V=30.0 PL=1
'CALL JOB:Extrude
MOVL C00675 V=30.0 PL=1
'CALL JOB:Extrude
MOVL C00676 V=30.0 PL=1
'CALL JOB:Extrude
MOVL C00677 V=30.0 PL=1
'CALL JOB:Extrude
MOVL C00678 V=30.0 PL=1
'CALL JOB:Extrude
MOVL C00679 V=30.0 PL=1
'CALL JOB:Extrude
MOVL C00680 V=30.0 PL=1
'CALL JOB:Extrude
MOVL C00681 V=30.0 PL=1
'CALL JOB:Extrude
MOVL C00682 V=30.0 PL=1
'CALL JOB:Extrude
MOVL C00683 V=30.0 PL=1
'CALL JOB:Extrude
MOVL C00684 V=30.0 PL=1
'CALL JOB:Extrude
MOVL C00685 V=30.0 PL=1
'CALL JOB:Extrude
MOVL C00686 V=30.0 PL=1
'CALL JOB:Extrude
MOVL C00687 V=30.0 PL=1
'CALL JOB:Extrude
MOVL C00688 V=30.0 PL=1
'CALL JOB:Extrude
MOVL C00689 V=30.0 PL=1
'CALL JOB:Extrude
MOVL C00690 V=30.0 PL=1
'CALL JOB:Extrude
MOVL C00691 V=30.0 PL=1
'CALL JOB:Extrude
MOVL C00692 V=30.0 PL=1
'CALL JOB:Extrude
MOVL C00693 V=30.0 PL=1
'CALL JOB:Extrude
MOVL C00694 V=30.0 PL=1
'CALL JOB:Extrude
MOVL C00695 V=30.0 PL=1
'CALL JOB:Extrude
MOVL C00696 V=30.0 PL=1
'CALL JOB:Extrude
MOVL C00697 V=30.0 PL=1
'CALL JOB:Extrude
MOVL C00698 V=30.0 PL=1
'CALL JOB:Extrude
MOVL C00699 V=30.0 PL=1
'CALL JOB:Extrude
MOVL C00700 V=30.0 PL=1
'CALL JOB:Extrude
MOVL C00701 V=30.0 PL=1
'CALL JOB:Extrude
MOVL C00702 V=30.0 PL=1
'CALL JOB:Extrude
MOVL C00703 V=30.0 PL=1
'CALL JOB:Extrude
MOVL C00704 V=30.0 PL=1
'CALL JOB:Extrude
MOVL C00705 V=30.0 PL=1
'CALL JOB:Extrude
MOVL C00706 V=30.0 PL=1
'CALL JOB:Extrude
MOVL C00707 V=30.0 PL=1
'CALL JOB:Extrude
MOVL C00708 V=30.0 PL=1
'CALL JOB:Extrude
MOVL C00709 V=30.0 PL=1
'CALL JOB:Extrude
MOVL C00710 V=30.0 PL=1
'CALL JOB:Extrude
MOVL C00711 V=30.0 PL=1
'CALL JOB:Extrude
MOVL C00712 V=30.0 PL=1
'CALL JOB:Extrude
MOVL C00713 V=30.0 PL=1
'CALL JOB:Extrude
MOVL C00714 V=30.0 PL=1
'CALL JOB:Extrude
MOVL C00715 V=30.0 PL=1
'CALL JOB:Extrude
MOVL C00716 V=30.0 PL=1
'CALL JOB:Extrude
MOVL C00717 V=30.0 PL=1
'CALL JOB:Extrude
MOVL C00718 V=30.0 PL=1
'CALL JOB:Extrude
MOVL C00719 V=30.0 PL=1
'CALL JOB:Extrude
MOVL C00720 V=30.0 PL=1
'CALL JOB:Extrude
MOVL C00721 V=30.0 PL=1
'CALL JOB:Extrude
MOVL C00722 V=30.0 PL=1
'CALL JOB:Extrude
MOVL C00723 V=30.0 PL=1
'CALL JOB:Extrude
MOVL C00724 V=30.0 PL=1
'CALL JOB:Extrude
MOVL C00725 V=30.0 PL=1
'CALL JOB:Extrude
MOVL C00726 V=30.0 PL=1
'CALL JOB:Extrude
MOVL C00727 V=30.0 PL=1
'CALL JOB:Extrude
MOVL C00728 V=30.0 PL=1
'CALL JOB:Extrude
MOVL C00729 V=30.0 PL=1
'CALL JOB:Extrude
MOVL C00730 V=30.0 PL=1
'CALL JOB:Extrude
MOVL C00731 V=30.0 PL=1
'CALL JOB:Extrude
MOVL C00732 V=30.0 PL=1
'CALL JOB:Extrude
MOVL C00733 V=30.0 PL=1
'CALL JOB:Extrude
MOVL C00734 V=30.0 PL=1
'CALL JOB:Extrude
MOVL C00735 V=30.0 PL=1
'CALL JOB:Extrude
MOVL C00736 V=30.0 PL=1
'CALL JOB:Extrude
MOVL C00737 V=30.0 PL=1
'CALL JOB:Extrude
MOVL C00738 V=30.0 PL=1
'CALL JOB:Extrude
MOVL C00739 V=30.0 PL=1
'CALL JOB:Extrude
MOVL C00740 V=30.0 PL=1
'CALL JOB:Extrude
MOVL C00741 V=30.0 PL=1
'CALL JOB:Extrude
MOVL C00742 V=30.0 PL=1
'CALL JOB:Extrude
MOVL C00743 V=30.0 PL=1
'CALL JOB:Extrude
MOVL C00744 V=30.0 PL=1
'CALL JOB:Extrude
MOVL C00745 V=30.0 PL=1
'CALL JOB:Extrude
MOVL C00746 V=30.0 PL=1
'CALL JOB:Extrude
MOVL C00747 V=30.0 PL=1
'CALL JOB:Extrude
MOVL C00748 V=30.0 PL=1
'CALL JOB:Extrude
MOVL C00749 V=30.0 PL=1
'CALL JOB:Extrude
MOVL C00750 V=30.0 PL=1
'CALL JOB:Extrude
MOVL C00751 V=30.0 PL=1
'CALL JOB:Extrude
MOVL C00752 V=30.0 PL=1
'CALL JOB:Extrude
MOVL C00753 V=30.0 PL=1
'CALL JOB:Extrude
MOVL C00754 V=30.0 PL=1
'CALL JOB:Extrude
MOVL C00755 V=30.0 PL=1
'CALL JOB:Extrude
MOVL C00756 V=30.0 PL=1
'CALL JOB:Extrude
MOVL C00757 V=30.0 PL=1
'CALL JOB:Extrude
MOVL C00758 V=30.0 PL=1
MOVL C00759 V=130.0 PL=1
MOVL C00760 V=130.0 PL=1
'CALL JOB:Extrude
MOVL C00761 V=60.0 PL=1
'CALL JOB:Extrude
MOVL C00762 V=60.0 PL=1
'CALL JOB:Extrude
MOVL C00763 V=60.0 PL=1
'CALL JOB:Extrude
MOVL C00764 V=60.0 PL=1
MOVL C00765 V=130.0 PL=1
'CALL JOB:Extrude
MOVL C00766 V=60.0 PL=1
'CALL JOB:Extrude
MOVL C00767 V=60.0 PL=1
'CALL JOB:Extrude
MOVL C00768 V=60.0 PL=1
'CALL JOB:Extrude
MOVL C00769 V=60.0 PL=1
MOVL C00770 V=130.0 PL=1
'CALL JOB:Extrude
MOVL C00771 V=30.0 PL=1
'CALL JOB:Extrude
MOVL C00772 V=30.0 PL=1
'CALL JOB:Extrude
MOVL C00773 V=30.0 PL=1
'CALL JOB:Extrude
MOVL C00774 V=30.0 PL=1
MOVL C00775 V=130.0 PL=1
MOVL C00776 V=130.0 PL=1
'CALL JOB:Extrude
MOVL C00777 V=20.0 PL=1
'CALL JOB:Extrude
MOVL C00778 V=20.0 PL=1
'CALL JOB:Extrude
MOVL C00779 V=20.0 PL=1
'CALL JOB:Extrude
MOVL C00780 V=20.0 PL=1
'CALL JOB:Extrude
MOVL C00781 V=20.0 PL=1
'CALL JOB:Extrude
MOVL C00782 V=20.0 PL=1
'CALL JOB:Extrude
MOVL C00783 V=20.0 PL=1
'CALL JOB:Extrude
MOVL C00784 V=20.0 PL=1
'CALL JOB:Extrude
MOVL C00785 V=20.0 PL=1
'CALL JOB:Extrude
MOVL C00786 V=20.0 PL=1
'CALL JOB:Extrude
MOVL C00787 V=20.0 PL=1
'CALL JOB:Extrude
MOVL C00788 V=20.0 PL=1
'CALL JOB:Extrude
MOVL C00789 V=20.0 PL=1
'CALL JOB:Extrude
MOVL C00790 V=20.0 PL=1
'CALL JOB:Extrude
MOVL C00791 V=20.0 PL=1
'CALL JOB:Extrude
MOVL C00792 V=20.0 PL=1
'CALL JOB:Extrude
MOVL C00793 V=20.0 PL=1
'CALL JOB:Extrude
MOVL C00794 V=20.0 PL=1
'CALL JOB:Extrude
MOVL C00795 V=20.0 PL=1
'CALL JOB:Extrude
MOVL C00796 V=20.0 PL=1
'CALL JOB:Extrude
MOVL C00797 V=20.0 PL=1
'CALL JOB:Extrude
MOVL C00798 V=20.0 PL=1
'CALL JOB:Extrude
MOVL C00799 V=20.0 PL=1
'CALL JOB:Extrude
MOVL C00800 V=20.0 PL=1
'CALL JOB:Extrude
MOVL C00801 V=20.0 PL=1
'CALL JOB:Extrude
MOVL C00802 V=20.0 PL=1
'CALL JOB:Extrude
MOVL C00803 V=20.0 PL=1
'CALL JOB:Extrude
MOVL C00804 V=20.0 PL=1
'CALL JOB:Extrude
MOVL C00805 V=20.0 PL=1
'CALL JOB:Extrude
MOVL C00806 V=20.0 PL=1
'CALL JOB:Extrude
MOVL C00807 V=20.0 PL=1
'CALL JOB:Extrude
MOVL C00808 V=20.0 PL=1
'CALL JOB:Extrude
MOVL C00809 V=20.0 PL=1
'CALL JOB:Extrude
MOVL C00810 V=20.0 PL=1
'CALL JOB:Extrude
MOVL C00811 V=20.0 PL=1
'CALL JOB:Extrude
MOVL C00812 V=20.0 PL=1
'CALL JOB:Extrude
MOVL C00813 V=20.0 PL=1
'CALL JOB:Extrude
MOVL C00814 V=20.0 PL=1
'CALL JOB:Extrude
MOVL C00815 V=20.0 PL=1
'CALL JOB:Extrude
MOVL C00816 V=20.0 PL=1
'CALL JOB:Extrude
MOVL C00817 V=20.0 PL=1
'CALL JOB:Extrude
MOVL C00818 V=20.0 PL=1
'CALL JOB:Extrude
MOVL C00819 V=20.0 PL=1
'CALL JOB:Extrude
MOVL C00820 V=20.0 PL=1
'CALL JOB:Extrude
MOVL C00821 V=20.0 PL=1
'CALL JOB:Extrude
MOVL C00822 V=20.0 PL=1
'CALL JOB:Extrude
MOVL C00823 V=20.0 PL=1
'CALL JOB:Extrude
MOVL C00824 V=20.0 PL=1
'CALL JOB:Extrude
MOVL C00825 V=20.0 PL=1
'CALL JOB:Extrude
MOVL C00826 V=20.0 PL=1
'CALL JOB:Extrude
MOVL C00827 V=20.0 PL=1
'CALL JOB:Extrude
MOVL C00828 V=20.0 PL=1
'CALL JOB:Extrude
MOVL C00829 V=20.0 PL=1
'CALL JOB:Extrude
MOVL C00830 V=20.0 PL=1
'CALL JOB:Extrude
MOVL C00831 V=20.0 PL=1
'CALL JOB:Extrude
MOVL C00832 V=20.0 PL=1
'CALL JOB:Extrude
MOVL C00833 V=20.0 PL=1
'CALL JOB:Extrude
MOVL C00834 V=20.0 PL=1
'CALL JOB:Extrude
MOVL C00835 V=20.0 PL=1
'CALL JOB:Extrude
MOVL C00836 V=20.0 PL=1
'CALL JOB:Extrude
MOVL C00837 V=20.0 PL=1
'CALL JOB:Extrude
MOVL C00838 V=20.0 PL=1
'CALL JOB:Extrude
MOVL C00839 V=20.0 PL=1
'CALL JOB:Extrude
MOVL C00840 V=20.0 PL=1
'CALL JOB:Extrude
MOVL C00841 V=20.0 PL=1
'CALL JOB:Extrude
MOVL C00842 V=20.0 PL=1
'CALL JOB:Extrude
MOVL C00843 V=20.0 PL=1
'CALL JOB:Extrude
MOVL C00844 V=20.0 PL=1
'CALL JOB:Extrude
MOVL C00845 V=20.0 PL=1
'CALL JOB:Extrude
MOVL C00846 V=20.0 PL=1
'CALL JOB:Extrude
MOVL C00847 V=20.0 PL=1
'CALL JOB:Extrude
MOVL C00848 V=20.0 PL=1
'CALL JOB:Extrude
MOVL C00849 V=20.0 PL=1
'CALL JOB:Extrude
MOVL C00850 V=20.0 PL=1
'CALL JOB:Extrude
MOVL C00851 V=20.0 PL=1
'CALL JOB:Extrude
MOVL C00852 V=20.0 PL=1
'CALL JOB:Extrude
MOVL C00853 V=20.0 PL=1
'CALL JOB:Extrude
MOVL C00854 V=20.0 PL=1
'CALL JOB:Extrude
MOVL C00855 V=20.0 PL=1
'CALL JOB:Extrude
MOVL C00856 V=20.0 PL=1
'CALL JOB:Extrude
MOVL C00857 V=20.0 PL=1
'CALL JOB:Extrude
MOVL C00858 V=20.0 PL=1
'CALL JOB:Extrude
MOVL C00859 V=20.0 PL=1
'CALL JOB:Extrude
MOVL C00860 V=20.0 PL=1
'CALL JOB:Extrude
MOVL C00861 V=20.0 PL=1
'CALL JOB:Extrude
MOVL C00862 V=20.0 PL=1
'CALL JOB:Extrude
MOVL C00863 V=20.0 PL=1
'CALL JOB:Extrude
MOVL C00864 V=20.0 PL=1
'CALL JOB:Extrude
MOVL C00865 V=20.0 PL=1
'CALL JOB:Extrude
MOVL C00866 V=20.0 PL=1
'CALL JOB:Extrude
MOVL C00867 V=20.0 PL=1
'CALL JOB:Extrude
MOVL C00868 V=20.0 PL=1
'CALL JOB:Extrude
MOVL C00869 V=20.0 PL=1
'CALL JOB:Extrude
MOVL C00870 V=20.0 PL=1
'CALL JOB:Extrude
MOVL C00871 V=20.0 PL=1
'CALL JOB:Extrude
MOVL C00872 V=20.0 PL=1
'CALL JOB:Extrude
MOVL C00873 V=20.0 PL=1
'CALL JOB:Extrude
MOVL C00874 V=20.0 PL=1
'CALL JOB:Extrude
MOVL C00875 V=20.0 PL=1
'CALL JOB:Extrude
MOVL C00876 V=20.0 PL=1
'CALL JOB:Extrude
MOVL C00877 V=20.0 PL=1
'CALL JOB:Extrude
MOVL C00878 V=20.0 PL=1
'CALL JOB:Extrude
MOVL C00879 V=20.0 PL=1
'CALL JOB:Extrude
MOVL C00880 V=20.0 PL=1
'CALL JOB:Extrude
MOVL C00881 V=20.0 PL=1
'CALL JOB:Extrude
MOVL C00882 V=20.0 PL=1
'CALL JOB:Extrude
MOVL C00883 V=20.0 PL=1
'CALL JOB:Extrude
MOVL C00884 V=20.0 PL=1
'CALL JOB:Extrude
MOVL C00885 V=20.0 PL=1
'CALL JOB:Extrude
MOVL C00886 V=20.0 PL=1
'CALL JOB:Extrude
MOVL C00887 V=20.0 PL=1
'CALL JOB:Extrude
MOVL C00888 V=20.0 PL=1
'CALL JOB:Extrude
MOVL C00889 V=20.0 PL=1
'CALL JOB:Extrude
MOVL C00890 V=20.0 PL=1
'CALL JOB:Extrude
MOVL C00891 V=20.0 PL=1
'CALL JOB:Extrude
MOVL C00892 V=20.0 PL=1
'CALL JOB:Extrude
MOVL C00893 V=20.0 PL=1
'CALL JOB:Extrude
MOVL C00894 V=20.0 PL=1
'CALL JOB:Extrude
MOVL C00895 V=20.0 PL=1
'CALL JOB:Extrude
MOVL C00896 V=20.0 PL=1
'CALL JOB:Extrude
MOVL C00897 V=20.0 PL=1
'CALL JOB:Extrude
MOVL C00898 V=20.0 PL=1
'CALL JOB:Extrude
MOVL C00899 V=20.0 PL=1
'CALL JOB:Extrude
MOVL C00900 V=20.0 PL=1
'CALL JOB:Extrude
MOVL C00901 V=20.0 PL=1
'CALL JOB:Extrude
MOVL C00902 V=20.0 PL=1
'CALL JOB:Extrude
MOVL C00903 V=20.0 PL=1
'CALL JOB:Extrude
MOVL C00904 V=20.0 PL=1
'CALL JOB:Extrude
MOVL C00905 V=20.0 PL=1
'CALL JOB:Extrude
MOVL C00906 V=20.0 PL=1
'CALL JOB:Extrude
MOVL C00907 V=20.0 PL=1
'CALL JOB:Extrude
MOVL C00908 V=20.0 PL=1
'CALL JOB:Extrude
MOVL C00909 V=20.0 PL=1
'CALL JOB:Extrude
MOVL C00910 V=20.0 PL=1
'CALL JOB:Extrude
MOVL C00911 V=20.0 PL=1
'CALL JOB:Extrude
MOVL C00912 V=20.0 PL=1
'CALL JOB:Extrude
MOVL C00913 V=20.0 PL=1
'CALL JOB:Extrude
MOVL C00914 V=20.0 PL=1
'CALL JOB:Extrude
MOVL C00915 V=20.0 PL=1
'CALL JOB:Extrude
MOVL C00916 V=20.0 PL=1
'CALL JOB:Extrude
MOVL C00917 V=20.0 PL=1
'CALL JOB:Extrude
MOVL C00918 V=20.0 PL=1
'CALL JOB:Extrude
MOVL C00919 V=20.0 PL=1
'CALL JOB:Extrude
MOVL C00920 V=20.0 PL=1
'CALL JOB:Extrude
MOVL C00921 V=20.0 PL=1
'CALL JOB:Extrude
MOVL C00922 V=20.0 PL=1
'CALL JOB:Extrude
MOVL C00923 V=20.0 PL=1
'CALL JOB:Extrude
MOVL C00924 V=20.0 PL=1
'CALL JOB:Extrude
MOVL C00925 V=20.0 PL=1
'CALL JOB:Extrude
MOVL C00926 V=20.0 PL=1
'CALL JOB:Extrude
MOVL C00927 V=20.0 PL=1
'CALL JOB:Extrude
MOVL C00928 V=20.0 PL=1
'CALL JOB:Extrude
MOVL C00929 V=20.0 PL=1
'CALL JOB:Extrude
MOVL C00930 V=20.0 PL=1
'CALL JOB:Extrude
MOVL C00931 V=20.0 PL=1
'CALL JOB:Extrude
MOVL C00932 V=20.0 PL=1
'CALL JOB:Extrude
MOVL C00933 V=20.0 PL=1
'CALL JOB:Extrude
MOVL C00934 V=20.0 PL=1
'CALL JOB:Extrude
MOVL C00935 V=20.0 PL=1
'CALL JOB:Extrude
MOVL C00936 V=20.0 PL=1
'CALL JOB:Extrude
MOVL C00937 V=20.0 PL=1
'CALL JOB:Extrude
MOVL C00938 V=20.0 PL=1
'CALL JOB:Extrude
MOVL C00939 V=20.0 PL=1
'CALL JOB:Extrude
MOVL C00940 V=20.0 PL=1
'CALL JOB:Extrude
MOVL C00941 V=20.0 PL=1
'CALL JOB:Extrude
MOVL C00942 V=20.0 PL=1
'CALL JOB:Extrude
MOVL C00943 V=20.0 PL=1
'CALL JOB:Extrude
MOVL C00944 V=20.0 PL=1
'CALL JOB:Extrude
MOVL C00945 V=20.0 PL=1
'CALL JOB:Extrude
MOVL C00946 V=20.0 PL=1
'CALL JOB:Extrude
MOVL C00947 V=20.0 PL=1
'CALL JOB:Extrude
MOVL C00948 V=20.0 PL=1
'CALL JOB:Extrude
MOVL C00949 V=20.0 PL=1
'CALL JOB:Extrude
MOVL C00950 V=20.0 PL=1
'CALL JOB:Extrude
MOVL C00951 V=20.0 PL=1
'CALL JOB:Extrude
MOVL C00952 V=20.0 PL=1
'CALL JOB:Extrude
MOVL C00953 V=20.0 PL=1
'CALL JOB:Extrude
MOVL C00954 V=20.0 PL=1
'CALL JOB:Extrude
MOVL C00955 V=20.0 PL=1
'CALL JOB:Extrude
MOVL C00956 V=20.0 PL=1
'CALL JOB:Extrude
MOVL C00957 V=20.0 PL=1
'CALL JOB:Extrude
MOVL C00958 V=20.0 PL=1
'CALL JOB:Extrude
MOVL C00959 V=20.0 PL=1
'CALL JOB:Extrude
MOVL C00960 V=20.0 PL=1
'CALL JOB:Extrude
MOVL C00961 V=20.0 PL=1
'CALL JOB:Extrude
MOVL C00962 V=20.0 PL=1
'CALL JOB:Extrude
MOVL C00963 V=20.0 PL=1
'CALL JOB:Extrude
MOVL C00964 V=20.0 PL=1
'CALL JOB:Extrude
MOVL C00965 V=20.0 PL=1
'CALL JOB:Extrude
MOVL C00966 V=20.0 PL=1
'CALL JOB:Extrude
MOVL C00967 V=20.0 PL=1
'CALL JOB:Extrude
MOVL C00968 V=20.0 PL=1
'CALL JOB:Extrude
MOVL C00969 V=20.0 PL=1
'CALL JOB:Extrude
MOVL C00970 V=20.0 PL=1
'CALL JOB:Extrude
MOVL C00971 V=20.0 PL=1
'CALL JOB:Extrude
MOVL C00972 V=20.0 PL=1
'CALL JOB:Extrude
MOVL C00973 V=20.0 PL=1
'CALL JOB:Extrude
MOVL C00974 V=20.0 PL=1
'CALL JOB:Extrude
MOVL C00975 V=20.0 PL=1
'CALL JOB:Extrude
MOVL C00976 V=20.0 PL=1
'CALL JOB:Extrude
MOVL C00977 V=20.0 PL=1
'CALL JOB:Extrude
MOVL C00978 V=20.0 PL=1
'CALL JOB:Extrude
MOVL C00979 V=20.0 PL=1
'CALL JOB:Extrude
MOVL C00980 V=20.0 PL=1
'CALL JOB:Extrude
MOVL C00981 V=20.0 PL=1
'CALL JOB:Extrude
MOVL C00982 V=20.0 PL=1
'CALL JOB:Extrude
MOVL C00983 V=20.0 PL=1
'CALL JOB:Extrude
MOVL C00984 V=20.0 PL=1
'CALL JOB:Extrude
MOVL C00985 V=20.0 PL=1
'CALL JOB:Extrude
MOVL C00986 V=20.0 PL=1
'CALL JOB:Extrude
MOVL C00987 V=20.0 PL=1
'CALL JOB:Extrude
MOVL C00988 V=20.0 PL=1
'CALL JOB:Extrude
MOVL C00989 V=20.0 PL=1
'CALL JOB:Extrude
MOVL C00990 V=20.0 PL=1
'CALL JOB:Extrude
MOVL C00991 V=20.0 PL=1
'CALL JOB:Extrude
MOVL C00992 V=20.0 PL=1
'CALL JOB:Extrude
MOVL C00993 V=20.0 PL=1
'CALL JOB:Extrude
MOVL C00994 V=20.0 PL=1
'CALL JOB:Extrude
MOVL C00995 V=20.0 PL=1
'CALL JOB:Extrude
MOVL C00996 V=20.0 PL=1
END
