/JOB
//NAME PRINT3D4
//POS
///NPOS 1002,0,0,0,0,0
///TOOL 9
///POSTYPE PULSE
///PULSE
C00000=30750,52355,-121930,59993,-119864,-94486,0
C00001=30705,52444,-121621,60085,-119975,-94394,0
C00002=30672,52485,-121480,60141,-120022,-94350,0
C00003=30550,52580,-121152,60321,-120114,-94242,0
C00004=30389,52664,-120865,60537,-120175,-94139,0
C00005=30201,52729,-120637,60777,-120202,-94048,0
C00006=29991,52776,-120475,61030,-120192,-93973,0
C00007=29770,52802,-120384,61286,-120150,-93916,0
C00008=29546,52806,-120365,61534,-120078,-93878,0
C00009=29327,52790,-120417,61767,-119979,-93862,0
C00010=29122,52754,-120534,61976,-119858,-93866,0
C00011=28938,52701,-120712,62154,-119722,-93891,0
C00012=28853,52664,-120835,62230,-119643,-93914,0
C00013=28821,52654,-120869,62260,-119619,-93919,0
C00014=28674,52583,-121106,62390,-119473,-93965,0
C00015=28558,52502,-121383,62480,-119324,-94028,0
C00016=28347,52270,-122177,62604,-118938,-94227,0
C00017=22461,60291,-97657,72649,-124202,-86385,0
C00018=22878,60184,-97961,72176,-124364,-86538,0
C00019=23048,60171,-98001,71998,-124452,-86577,0
C00020=23217,60185,-97961,71834,-124562,-86593,0
C00021=23378,60228,-97844,71691,-124688,-86587,0
C00022=23459,60265,-97742,71628,-124763,-86571,0
C00023=23488,60274,-97717,71604,-124787,-86569,0
C00024=23635,60353,-97501,71493,-124933,-86533,0
C00025=23763,60456,-97215,71415,-125088,-86474,0
C00026=23866,60581,-96868,71374,-125244,-86394,0
C00027=23938,60725,-96471,71373,-125397,-86294,0
C00028=23976,60881,-96040,71413,-125539,-86180,0
C00029=23977,61044,-95591,71494,-125665,-86054,0
C00030=23942,61207,-95141,71613,-125767,-85922,0
C00031=23869,61365,-94707,71767,-125842,-85787,0
C00032=23763,61507,-94315,71946,-125884,-85659,0
C00033=23653,61607,-94043,72106,-125891,-85564,0
C00034=23379,61808,-93489,72483,-125872,-85361,0
C00035=38289,60666,-96864,77501,-121768,-85503,0
C00036=38273,60295,-97895,77355,-121522,-85799,0
C00037=38301,60155,-98286,77267,-121449,-85916,0
C00038=38360,60024,-98655,77151,-121399,-86031,0
C00039=38450,59905,-98988,77011,-121375,-86139,0
C00040=38514,59851,-99142,76925,-121376,-86193,0
C00041=38531,59830,-99201,76898,-121373,-86213,0
C00042=38659,59732,-99477,76729,-121383,-86310,0
C00043=38811,59657,-99693,76545,-121421,-86393,0
C00044=38982,59608,-99835,76353,-121486,-86458,0
C00045=39165,59587,-99898,76161,-121580,-86502,0
C00046=39353,59596,-99875,75977,-121694,-86521,0
C00047=39538,59637,-99765,75810,-121829,-86515,0
C00048=39712,59707,-99569,75668,-121979,-86484,0
C00049=39867,59807,-99293,75557,-122138,-86427,0
C00050=39997,59931,-98946,75484,-122300,-86345,0
C00051=40075,60047,-98623,75458,-122425,-86264,0
C00052=40215,60328,-97840,75446,-122702,-86059,0
C00053=49286,53993,-116901,62897,-121290,-92858,0
C00054=48745,53885,-117237,63438,-120953,-92871,0
C00055=48583,53833,-117401,63590,-120829,-92894,0
C00056=48513,53805,-117492,63654,-120768,-92909,0
C00057=48355,53712,-117791,63782,-120596,-92971,0
C00058=48237,53607,-118130,63863,-120423,-93050,0
C00059=48161,53496,-118496,63894,-120259,-93143,0
C00060=48129,53381,-118873,63874,-120106,-93245,0
C00061=48143,53269,-119247,63807,-119972,-93354,0
C00062=48174,53212,-119437,63746,-119911,-93412,0
C00063=48061,53079,-119880,63808,-119703,-93523,0
C00064=49288,53788,-117568,62796,-121039,-93045,0
C00065=49495,53785,-117585,62567,-121112,-93080,0
C00066=49606,53783,-117594,62444,-121151,-93099,0
C00067=49622,53782,-117595,62427,-121155,-93102,0
C00068=49637,53782,-117599,62410,-121161,-93105,0
C00069=49652,53781,-117601,62393,-121166,-93108,0
C00070=49667,53780,-117603,62376,-121170,-93111,0
C00071=49682,53780,-117606,62359,-121175,-93114,0
C00072=49698,53779,-117608,62342,-121181,-93117,0
C00073=49713,53779,-117610,62325,-121185,-93120,0
C00074=49728,53778,-117613,62308,-121190,-93123,0
C00075=49743,53778,-117615,62291,-121195,-93126,0
C00076=49759,53777,-117617,62274,-121200,-93129,0
C00077=49774,53776,-117620,62257,-121205,-93132,0
C00078=49787,53775,-117623,62242,-121208,-93135,0
C00079=49800,53775,-117626,62227,-121213,-93137,0
C00080=49814,53774,-117629,62212,-121216,-93140,0
C00081=49827,53773,-117632,62197,-121220,-93143,0
C00082=49839,53772,-117637,62182,-121223,-93146,0
C00083=49852,53770,-117641,62168,-121227,-93150,0
C00084=49864,53769,-117645,62154,-121230,-93153,0
C00085=49877,53768,-117649,62139,-121232,-93155,0
C00086=49890,53767,-117653,62125,-121236,-93158,0
C00087=49902,53766,-117657,62110,-121239,-93161,0
C00088=49915,53765,-117661,62096,-121243,-93165,0
C00089=49928,53764,-117665,62082,-121246,-93168,0
C00090=50016,53721,-117806,61964,-121226,-93220,0
C00091=50051,53702,-117869,61916,-121214,-93243,0
C00092=50086,53683,-117933,61869,-121201,-93266,0
C00093=50121,53664,-117998,61821,-121190,-93289,0
C00094=50147,53648,-118050,61785,-121180,-93307,0
C00095=50169,53634,-118096,61753,-121169,-93324,0
C00096=50188,53622,-118138,61727,-121160,-93338,0
C00097=50206,53609,-118179,61701,-121151,-93353,0
C00098=50225,53597,-118221,61674,-121142,-93367,0
C00099=50243,53584,-118262,61648,-121132,-93381,0
C00100=50259,53573,-118299,61625,-121124,-93394,0
C00101=50273,53563,-118333,61605,-121116,-93405,0
C00102=50286,53553,-118366,61585,-121108,-93417,0
C00103=50299,53543,-118399,61566,-121100,-93428,0
C00104=50310,53534,-118430,61549,-121092,-93438,0
C00105=50322,53524,-118462,61532,-121084,-93448,0
C00106=50334,53515,-118493,61515,-121076,-93459,0
C00107=50345,53505,-118525,61497,-121068,-93469,0
C00108=50357,53496,-118556,61480,-121060,-93480,0
C00109=50368,53487,-118588,61463,-121052,-93490,0
C00110=50378,53478,-118617,61447,-121044,-93500,0
C00111=50387,53470,-118643,61434,-121037,-93509,0
C00112=50396,53462,-118670,61421,-121029,-93518,0
C00113=50404,53454,-118696,61407,-121022,-93526,0
C00114=50413,53446,-118724,61394,-121015,-93535,0
C00115=50421,53438,-118749,61381,-121007,-93543,0
C00116=50428,53431,-118773,61370,-121000,-93551,0
C00117=50435,53424,-118797,61359,-120993,-93559,0
C00118=50442,53417,-118822,61348,-120987,-93566,0
C00119=50449,53409,-118846,61336,-120980,-93574,0
C00120=50456,53402,-118870,61325,-120973,-93582,0
C00121=50463,53395,-118894,61314,-120966,-93589,0
C00122=50470,53388,-118918,61303,-120959,-93598,0
C00123=50477,53380,-118942,61291,-120952,-93605,0
C00124=50475,53377,-118953,61292,-120947,-93608,0
C00125=50471,53371,-118973,61294,-120937,-93613,0
C00126=50464,53362,-119004,61298,-120922,-93620,0
C00127=50456,53352,-119035,61301,-120907,-93628,0
C00128=50449,53343,-119065,61305,-120893,-93635,0
C00129=50441,53334,-119096,61309,-120879,-93642,0
C00130=50434,53324,-119127,61313,-120864,-93650,0
C00131=50424,53313,-119164,61319,-120845,-93659,0
C00132=50413,53302,-119201,61325,-120827,-93667,0
C00133=50403,53291,-119238,61331,-120808,-93676,0
C00134=50393,53280,-119274,61337,-120790,-93685,0
C00135=50382,53269,-119311,61343,-120772,-93693,0
C00136=50372,53258,-119348,61349,-120753,-93702,0
C00137=50359,53245,-119389,61357,-120733,-93712,0
C00138=50346,53233,-119429,61366,-120712,-93721,0
C00139=50333,53221,-119471,61374,-120691,-93730,0
C00140=50316,53206,-119518,61386,-120666,-93741,0
C00141=50298,53191,-119566,61399,-120641,-93753,0
C00142=50290,53184,-119590,61405,-120628,-93758,0
C00143=50285,53183,-119596,61409,-120623,-93758,0
C00144=50276,53179,-119606,61418,-120617,-93760,0
C00145=50266,53176,-119617,61427,-120608,-93762,0
C00146=50257,53173,-119627,61435,-120602,-93763,0
C00147=50248,53170,-119637,61444,-120594,-93765,0
C00148=50238,53167,-119648,61453,-120587,-93766,0
C00149=50229,53164,-119658,61462,-120579,-93768,0
C00150=50218,53161,-119667,61472,-120572,-93769,0
C00151=50208,53157,-119678,61482,-120564,-93771,0
C00152=50198,53154,-119688,61492,-120556,-93772,0
C00153=50188,53151,-119698,61501,-120549,-93773,0
C00154=50178,53148,-119709,61511,-120541,-93775,0
C00155=50168,53145,-119719,61521,-120533,-93776,0
C00156=50156,53142,-119729,61532,-120525,-93777,0
C00157=50144,53139,-119740,61544,-120517,-93778,0
C00158=50132,53135,-119750,61556,-120507,-93779,0
C00159=50120,53132,-119760,61567,-120499,-93780,0
C00160=50108,53129,-119771,61579,-120491,-93782,0
C00161=50096,53126,-119781,61590,-120482,-93783,0
C00162=50084,53122,-119791,61602,-120474,-93784,0
C00163=50072,53119,-119802,61614,-120466,-93786,0
C00164=50060,53116,-119812,61625,-120457,-93787,0
C00165=50048,53113,-119824,61637,-120449,-93788,0
C00166=50036,53109,-119834,61649,-120441,-93789,0
C00167=50024,53106,-119843,61661,-120432,-93790,0
C00168=50011,53103,-119853,61673,-120423,-93791,0
C00169=49999,53100,-119863,61686,-120415,-93792,0
C00170=49986,53097,-119873,61699,-120406,-93793,0
C00171=49974,53095,-119881,61711,-120399,-93793,0
C00172=49961,53092,-119891,61723,-120390,-93794,0
C00173=49948,53088,-119902,61736,-120382,-93795,0
C00174=49936,53085,-119912,61748,-120373,-93797,0
C00175=49923,53082,-119922,61761,-120365,-93797,0
C00176=49910,53079,-119933,61773,-120356,-93798,0
C00177=49898,53076,-119943,61785,-120348,-93800,0
C00178=49885,53073,-119953,61798,-120338,-93801,0
C00179=49719,53036,-120071,61964,-120233,-93810,0
C00180=49553,53000,-120188,62130,-120127,-93819,0
C00181=30378,52135,-122685,60302,-119426,-94645,0
C00182=30298,52044,-123003,60348,-119267,-94723,0
C00183=30255,51995,-123172,60373,-119184,-94765,0
C00184=30249,51989,-123195,60378,-119172,-94770,0
C00185=30242,51982,-123217,60382,-119161,-94776,0
C00186=30236,51976,-123239,60386,-119149,-94781,0
C00187=30229,51970,-123262,60390,-119139,-94787,0
C00188=30223,51963,-123284,60394,-119127,-94792,0
C00189=30216,51957,-123306,60399,-119116,-94797,0
C00190=30210,51951,-123327,60403,-119104,-94802,0
C00191=30203,51945,-123350,60407,-119093,-94807,0
C00192=30197,51938,-123372,60412,-119081,-94813,0
C00193=30190,51932,-123394,60416,-119071,-94818,0
C00194=30184,51926,-123416,60420,-119059,-94824,0
C00195=30177,51920,-123438,60425,-119048,-94829,0
C00196=30171,51914,-123457,60429,-119038,-94834,0
C00197=30164,51908,-123477,60434,-119027,-94838,0
C00198=30157,51903,-123496,60439,-119017,-94843,0
C00199=30151,51898,-123515,60444,-119008,-94847,0
C00200=30144,51892,-123532,60449,-118997,-94851,0
C00201=30137,51887,-123550,60454,-118988,-94855,0
C00202=30130,51882,-123568,60459,-118979,-94859,0
C00203=30124,51877,-123586,60464,-118969,-94863,0
C00204=30117,51872,-123603,60469,-118959,-94867,0
C00205=30110,51867,-123622,60474,-118950,-94872,0
C00206=30104,51862,-123639,60479,-118940,-94876,0
C00207=30100,51860,-123648,60482,-118935,-94878,0
C00208=30039,51845,-123700,60542,-118894,-94884,0
C00209=29960,51828,-123756,60622,-118845,-94890,0
C00210=29910,51819,-123789,60673,-118815,-94892,0
C00211=29860,51809,-123822,60725,-118785,-94895,0
C00212=29814,51801,-123849,60771,-118758,-94897,0
C00213=29774,51795,-123872,60813,-118736,-94898,0
C00214=29743,51790,-123887,60846,-118720,-94898,0
C00215=29711,51786,-123902,60878,-118704,-94898,0
C00216=29680,51782,-123917,60911,-118687,-94898,0
C00217=29649,51777,-123931,60943,-118671,-94898,0
C00218=29618,51773,-123946,60976,-118655,-94898,0
C00219=29593,51770,-123956,61002,-118643,-94897,0
C00220=29568,51767,-123965,61028,-118631,-94897,0
C00221=29543,51765,-123974,61054,-118619,-94896,0
C00222=29520,51762,-123981,61079,-118609,-94896,0
C00223=29497,51760,-123988,61103,-118599,-94894,0
C00224=29474,51758,-123995,61128,-118588,-94893,0
C00225=29451,51756,-124002,61152,-118578,-94892,0
C00226=29428,51754,-124009,61176,-118568,-94892,0
C00227=29405,51752,-124016,61201,-118557,-94890,0
C00228=29383,51750,-124024,61225,-118547,-94889,0
C00229=29363,51749,-124027,61246,-118539,-94888,0
C00230=29344,51747,-124032,61266,-118531,-94887,0
C00231=29325,51746,-124035,61287,-118523,-94885,0
C00232=29306,51745,-124040,61307,-118515,-94884,0
C00233=29287,51744,-124044,61328,-118507,-94883,0
C00234=29270,51743,-124047,61346,-118500,-94881,0
C00235=29253,51742,-124049,61365,-118494,-94880,0
C00236=29236,51741,-124051,61383,-118487,-94878,0
C00237=29219,51741,-124054,61401,-118480,-94877,0
C00238=29202,51740,-124056,61420,-118474,-94875,0
C00239=29185,51739,-124058,61438,-118468,-94874,0
C00240=29168,51738,-124061,61457,-118461,-94872,0
C00241=29151,51738,-124063,61475,-118455,-94871,0
C00242=29143,51737,-124064,61485,-118452,-94870,0
C00243=29132,51741,-124050,61498,-118454,-94864,0
C00244=29119,51746,-124033,61515,-118456,-94858,0
C00245=29104,51752,-124011,61534,-118460,-94850,0
C00246=29088,51758,-123989,61554,-118464,-94842,0
C00247=29073,51764,-123967,61574,-118468,-94834,0
C00248=29058,51770,-123946,61593,-118471,-94825,0
C00249=29041,51777,-123921,61615,-118476,-94816,0
C00250=29023,51785,-123893,61638,-118481,-94806,0
C00251=29005,51792,-123865,61662,-118487,-94795,0
C00252=28987,51800,-123836,61685,-118493,-94785,0
C00253=28969,51808,-123809,61708,-118499,-94774,0
C00254=28951,51816,-123780,61732,-118503,-94764,0
C00255=28933,51825,-123749,61756,-118510,-94753,0
C00256=28913,51834,-123716,61782,-118517,-94741,0
C00257=28894,51843,-123682,61807,-118525,-94729,0
C00258=28874,51854,-123643,61835,-118533,-94715,0
C00259=28852,51866,-123601,61864,-118543,-94700,0
C00260=28830,51878,-123558,61894,-118553,-94685,0
C00261=28827,51883,-123541,61899,-118560,-94679,0
C00262=28825,51888,-123524,61904,-118565,-94674,0
C00263=28822,51893,-123505,61909,-118571,-94669,0
C00264=28819,51898,-123488,61915,-118578,-94664,0
C00265=28817,51903,-123471,61920,-118584,-94658,0
C00266=28814,51908,-123453,61925,-118591,-94653,0
C00267=28812,51913,-123434,61930,-118596,-94647,0
C00268=28810,51918,-123416,61935,-118603,-94641,0
C00269=28807,51924,-123396,61940,-118610,-94636,0
C00270=28805,51929,-123378,61944,-118617,-94630,0
C00271=28803,51934,-123360,61949,-118624,-94624,0
C00272=28801,51940,-123340,61954,-118631,-94619,0
C00273=28799,51945,-123320,61959,-118639,-94612,0
C00274=28797,51951,-123299,61964,-118647,-94606,0
C00275=28795,51957,-123277,61968,-118655,-94600,0
C00276=28794,51963,-123256,61973,-118663,-94593,0
C00277=28792,51970,-123234,61978,-118671,-94587,0
C00278=28790,51976,-123212,61982,-118679,-94581,0
C00279=28788,51982,-123192,61987,-118686,-94574,0
C00280=28786,51988,-123170,61992,-118694,-94568,0
C00281=28785,51994,-123148,61997,-118703,-94561,0
C00282=28783,52000,-123126,62001,-118710,-94555,0
C00283=28781,52006,-123106,62006,-118718,-94549,0
C00284=28780,52012,-123084,62011,-118726,-94542,0
C00285=28778,52019,-123061,62015,-118735,-94536,0
C00286=28777,52025,-123039,62019,-118743,-94530,0
C00287=28776,52031,-123016,62023,-118753,-94523,0
C00288=28776,52038,-122994,62027,-118761,-94517,0
C00289=28775,52044,-122972,62031,-118770,-94510,0
C00290=28773,52050,-122950,62035,-118778,-94503,0
C00291=28772,52057,-122927,62040,-118786,-94497,0
C00292=28770,52063,-122904,62044,-118795,-94491,0
C00293=28769,52070,-122883,62049,-118803,-94484,0
C00294=28768,52076,-122860,62053,-118812,-94477,0
C00295=28766,52082,-122838,62058,-118820,-94470,0
C00296=28761,52127,-122682,62084,-118881,-94425,0
C00297=28752,52210,-122391,62132,-118994,-94341,0
C00298=28747,52252,-122246,62157,-119049,-94299,0
C00299=22553,60600,-96801,72706,-124486,-86157,0
C00300=22502,60632,-96712,72774,-124479,-86124,0
C00301=22450,60664,-96623,72841,-124472,-86090,0
C00302=22438,60672,-96600,72857,-124471,-86082,0
C00303=22427,60680,-96577,72872,-124471,-86073,0
C00304=22417,60688,-96556,72886,-124470,-86066,0
C00305=22407,60696,-96534,72900,-124470,-86058,0
C00306=22397,60703,-96513,72914,-124470,-86050,0
C00307=22386,60711,-96491,72928,-124470,-86043,0
C00308=22376,60719,-96469,72942,-124468,-86035,0
C00309=22366,60727,-96448,72956,-124468,-86027,0
C00310=22356,60734,-96426,72970,-124468,-86019,0
C00311=22346,60742,-96404,72984,-124467,-86011,0
C00312=22337,60749,-96384,72997,-124467,-86004,0
C00313=22329,60756,-96366,73008,-124467,-85998,0
C00314=22321,60763,-96347,73019,-124468,-85991,0
C00315=22313,60769,-96329,73030,-124468,-85984,0
C00316=22306,60776,-96309,73041,-124468,-85978,0
C00317=22298,60784,-96289,73052,-124470,-85971,0
C00318=22291,60790,-96270,73063,-124471,-85965,0
C00319=22283,60798,-96250,73073,-124471,-85958,0
C00320=22276,60805,-96231,73084,-124472,-85951,0
C00321=22269,60812,-96212,73095,-124472,-85944,0
C00322=22261,60819,-96192,73106,-124473,-85937,0
C00323=22254,60826,-96172,73117,-124474,-85931,0
C00324=22246,60833,-96153,73128,-124474,-85924,0
C00325=22239,60840,-96133,73139,-124475,-85917,0
C00326=22231,60847,-96114,73149,-124475,-85911,0
C00327=22224,60854,-96094,73160,-124477,-85904,0
C00328=22218,60860,-96076,73170,-124478,-85898,0
C00329=22212,60867,-96059,73179,-124479,-85892,0
C00330=22206,60873,-96041,73188,-124480,-85886,0
C00331=22200,60880,-96023,73197,-124481,-85880,0
C00332=22194,60886,-96005,73206,-124481,-85874,0
C00333=22187,60892,-95987,73215,-124482,-85868,0
C00334=22182,60899,-95970,73224,-124483,-85862,0
C00335=22177,60905,-95954,73232,-124485,-85856,0
C00336=22172,60911,-95937,73240,-124486,-85851,0
C00337=22166,60917,-95920,73248,-124488,-85845,0
C00338=22161,60923,-95903,73256,-124489,-85840,0
C00339=22156,60948,-95834,73274,-124503,-85819,0
C00340=22150,60973,-95765,73292,-124518,-85799,0
C00341=22144,60998,-95697,73310,-124533,-85779,0
C00342=22141,61017,-95644,73323,-124544,-85763,0
C00343=22138,61036,-95591,73335,-124557,-85748,0
C00344=22134,61055,-95538,73348,-124568,-85732,0
C00345=22133,61072,-95491,73358,-124580,-85719,0
C00346=22131,61089,-95444,73368,-124590,-85705,0
C00347=22129,61106,-95398,73378,-124602,-85691,0
C00348=22127,61123,-95352,73388,-124612,-85678,0
C00349=22125,61140,-95305,73398,-124624,-85665,0
C00350=22123,61157,-95258,73408,-124634,-85651,0
C00351=22122,61172,-95216,73417,-124644,-85639,0
C00352=22121,61186,-95177,73425,-124655,-85628,0
C00353=22120,61200,-95138,73432,-124664,-85617,0
C00354=22120,61214,-95100,73440,-124674,-85606,0
C00355=22119,61228,-95061,73448,-124683,-85595,0
C00356=22119,61247,-95010,73457,-124696,-85580,0
C00357=22128,61256,-94986,73452,-124709,-85575,0
C00358=22137,61264,-94963,73447,-124720,-85570,0
C00359=22147,61272,-94940,73441,-124732,-85565,0
C00360=22156,61281,-94917,73436,-124743,-85560,0
C00361=22166,61289,-94894,73431,-124756,-85555,0
C00362=22175,61298,-94871,73426,-124767,-85550,0
C00363=22185,61306,-94848,73420,-124779,-85545,0
C00364=22194,61315,-94825,73415,-124790,-85540,0
C00365=22204,61323,-94801,73410,-124803,-85535,0
C00366=22214,61332,-94778,73404,-124816,-85530,0
C00367=22225,61341,-94754,73397,-124828,-85525,0
C00368=22235,61349,-94731,73391,-124841,-85520,0
C00369=22246,61358,-94707,73385,-124853,-85515,0
C00370=22257,61367,-94683,73379,-124866,-85510,0
C00371=22270,61377,-94656,73370,-124881,-85505,0
C00372=22284,61387,-94629,73361,-124897,-85499,0
C00373=22297,61397,-94601,73353,-124912,-85494,0
C00374=22311,61407,-94574,73345,-124927,-85488,0
C00375=22324,61417,-94547,73336,-124943,-85483,0
C00376=22338,61427,-94519,73327,-124958,-85477,0
C00377=22351,61437,-94492,73319,-124974,-85472,0
C00378=22366,61447,-94464,73310,-124990,-85466,0
C00379=22381,61457,-94437,73300,-125006,-85461,0
C00380=22396,61467,-94409,73290,-125022,-85455,0
C00381=22414,61479,-94377,73277,-125042,-85449,0
C00382=22436,61492,-94341,73262,-125065,-85443,0
C00383=22457,61505,-94305,73247,-125088,-85436,0
C00384=22479,61518,-94269,73232,-125111,-85430,0
C00385=22501,61532,-94233,73217,-125134,-85423,0
C00386=22525,61546,-94195,73200,-125158,-85416,0
C00387=22552,61561,-94154,73180,-125186,-85409,0
C00388=22591,61580,-94103,73152,-125223,-85401,0
C00389=22629,61599,-94052,73123,-125260,-85393,0
C00390=22668,61618,-94000,73094,-125297,-85385,0
C00391=22762,61656,-93897,73020,-125382,-85372,0
C00392=22772,61655,-93901,73009,-125388,-85375,0
C00393=22782,61653,-93904,72998,-125394,-85377,0
C00394=22792,61652,-93908,72988,-125398,-85380,0
C00395=22802,61651,-93911,72977,-125404,-85382,0
C00396=22812,61650,-93915,72967,-125408,-85385,0
C00397=22822,61648,-93919,72956,-125414,-85388,0
C00398=22832,61647,-93922,72945,-125419,-85390,0
C00399=22842,61646,-93926,72935,-125425,-85393,0
C00400=22852,61644,-93930,72924,-125429,-85396,0
C00401=22863,61642,-93935,72913,-125435,-85399,0
C00402=22873,61641,-93940,72902,-125440,-85402,0
C00403=22883,61639,-93945,72890,-125445,-85405,0
C00404=22894,61636,-93952,72878,-125450,-85409,0
C00405=22906,61634,-93959,72866,-125454,-85413,0
C00406=23022,61606,-94038,72736,-125506,-85455,0
C00407=23244,61552,-94187,72487,-125603,-85534,0
C00408=38661,60675,-96843,77139,-122001,-85549,0
C00409=38672,60701,-96772,77140,-122024,-85530,0
C00410=38694,60753,-96629,77141,-122071,-85492,0
C00411=38708,60785,-96540,77142,-122100,-85468,0
C00412=38714,60798,-96506,77142,-122112,-85459,0
C00413=38720,60808,-96477,77140,-122122,-85452,0
C00414=38726,60819,-96447,77139,-122132,-85444,0
C00415=38732,60830,-96418,77138,-122143,-85436,0
C00416=38738,60840,-96389,77137,-122153,-85429,0
C00417=38744,60851,-96359,77136,-122163,-85421,0
C00418=38750,60862,-96329,77135,-122174,-85414,0
C00419=38756,60872,-96300,77134,-122185,-85405,0
C00420=38761,60883,-96271,77133,-122195,-85398,0
C00421=38767,60894,-96241,77132,-122206,-85390,0
C00422=38773,60902,-96218,77131,-122214,-85384,0
C00423=38778,60911,-96195,77129,-122223,-85379,0
C00424=38783,60919,-96171,77128,-122231,-85372,0
C00425=38789,60927,-96149,77126,-122240,-85367,0
C00426=38794,60936,-96126,77124,-122248,-85361,0
C00427=38800,60944,-96103,77122,-122258,-85355,0
C00428=38806,60952,-96080,77120,-122267,-85350,0
C00429=38812,60960,-96058,77118,-122275,-85344,0
C00430=38817,60969,-96035,77116,-122284,-85338,0
C00431=38823,60977,-96012,77114,-122293,-85332,0
C00432=38829,60985,-95990,77112,-122301,-85326,0
C00433=38835,60993,-95967,77110,-122310,-85321,0
C00434=38840,61002,-95944,77109,-122318,-85315,0
C00435=38846,61010,-95922,77107,-122328,-85310,0
C00436=38852,61018,-95899,77105,-122337,-85304,0
C00437=38857,61026,-95878,77103,-122345,-85299,0
C00438=38863,61033,-95859,77100,-122353,-85294,0
C00439=38868,61040,-95840,77098,-122360,-85289,0
C00440=38873,61047,-95821,77096,-122368,-85284,0
C00441=38879,61054,-95802,77094,-122376,-85279,0
C00442=38884,61061,-95783,77092,-122384,-85275,0
C00443=38890,61068,-95763,77090,-122391,-85270,0
C00444=38895,61074,-95747,77087,-122399,-85266,0
C00445=38900,61080,-95730,77085,-122406,-85262,0
C00446=38905,61086,-95714,77083,-122413,-85258,0
C00447=38910,61092,-95697,77080,-122420,-85254,0
C00448=38913,61095,-95689,77079,-122423,-85252,0
C00449=38926,61101,-95673,77069,-122434,-85249,0
C00450=38951,61113,-95640,77049,-122459,-85243,0
C00451=38977,61125,-95607,77030,-122482,-85238,0
C00452=39000,61135,-95579,77012,-122502,-85233,0
C00453=39020,61144,-95556,76996,-122521,-85229,0
C00454=39040,61152,-95534,76980,-122538,-85226,0
C00455=39059,61160,-95513,76965,-122554,-85223,0
C00456=39077,61166,-95496,76950,-122569,-85220,0
C00457=39095,61173,-95478,76936,-122585,-85217,0
C00458=39112,61179,-95460,76921,-122600,-85215,0
C00459=39130,61186,-95443,76907,-122615,-85212,0
C00460=39148,61192,-95425,76893,-122630,-85210,0
C00461=39166,61199,-95407,76878,-122645,-85208,0
C00462=39181,61204,-95394,76866,-122657,-85206,0
C00463=39196,61208,-95382,76853,-122670,-85204,0
C00464=39211,61213,-95369,76840,-122682,-85203,0
C00465=39226,61218,-95356,76828,-122694,-85201,0
C00466=39241,61223,-95343,76815,-122707,-85199,0
C00467=39253,61226,-95334,76805,-122716,-85199,0
C00468=39259,61223,-95341,76798,-122718,-85202,0
C00469=39271,61218,-95357,76784,-122722,-85208,0
C00470=39283,61212,-95372,76770,-122726,-85214,0
C00471=39294,61207,-95388,76756,-122730,-85220,0
C00472=39306,61201,-95403,76742,-122733,-85227,0
C00473=39318,61196,-95419,76728,-122737,-85232,0
C00474=39330,61190,-95434,76713,-122740,-85239,0
C00475=39342,61185,-95449,76699,-122745,-85245,0
C00476=39353,61179,-95465,76685,-122748,-85251,0
C00477=39365,61173,-95481,76671,-122752,-85257,0
C00478=39378,61167,-95499,76656,-122755,-85264,0
C00479=39390,61160,-95518,76641,-122759,-85271,0
C00480=39402,61154,-95536,76626,-122762,-85278,0
C00481=39415,61147,-95553,76611,-122765,-85285,0
C00482=39428,61140,-95574,76594,-122769,-85293,0
C00483=39443,61131,-95598,76576,-122772,-85302,0
C00484=39457,61123,-95622,76558,-122776,-85311,0
C00485=39472,61114,-95646,76540,-122779,-85320,0
C00486=39487,61106,-95670,76521,-122783,-85329,0
C00487=39501,61097,-95693,76503,-122786,-85338,0
C00488=39516,61089,-95717,76485,-122790,-85347,0
C00489=39530,61080,-95741,76467,-122793,-85356,0
C00490=39546,61071,-95768,76447,-122795,-85366,0
C00491=39561,61061,-95796,76428,-122799,-85376,0
C00492=39576,61051,-95823,76409,-122801,-85386,0
C00493=39596,61036,-95863,76382,-122805,-85401,0
C00494=39617,61022,-95904,76355,-122807,-85415,0
C00495=39637,61007,-95944,76329,-122810,-85430,0
C00496=39657,60993,-95985,76302,-122813,-85445,0
C00497=39678,60978,-96025,76275,-122816,-85459,0
C00498=39702,60960,-96077,76243,-122818,-85477,0
C00499=39729,60937,-96141,76206,-122819,-85500,0
C00500=39760,60910,-96216,76163,-122821,-85526,0
C00501=39792,60883,-96291,76119,-122822,-85552,0
C00502=39837,60841,-96407,76056,-122822,-85592,0
C00503=39875,60801,-96519,76000,-122818,-85630,0
C00504=39876,60797,-96532,75997,-122816,-85633,0
C00505=39878,60787,-96557,75991,-122811,-85641,0
C00506=39879,60778,-96582,75985,-122806,-85649,0
C00507=39881,60769,-96608,75980,-122801,-85656,0
C00508=39882,60760,-96633,75974,-122795,-85664,0
C00509=39884,60751,-96658,75968,-122791,-85671,0
C00510=39885,60742,-96684,75963,-122785,-85679,0
C00511=39887,60733,-96709,75957,-122780,-85686,0
C00512=39888,60723,-96735,75951,-122775,-85694,0
C00513=39890,60714,-96762,75946,-122769,-85702,0
C00514=39891,60704,-96789,75940,-122763,-85709,0
C00515=39892,60694,-96816,75935,-122757,-85718,0
C00516=39892,60685,-96841,75930,-122752,-85725,0
C00517=39893,60676,-96866,75925,-122746,-85732,0
C00518=39896,60571,-97157,75874,-122677,-85816,0
C00519=39902,60372,-97711,75778,-122546,-85976,0
C00520=37388,58267,-103629,77380,-119671,-87353,0
C00521=42893,55633,-111575,70556,-120363,-90410,0
C00522=44082,55150,-113095,69073,-120434,-91016,0
C00523=26168,57412,-105927,67409,-123786,-89319,0
C00524=27033,56682,-108096,66129,-123499,-90067,0
C00525=31802,53746,-117293,59497,-122137,-93373,0
C00526=30401,53855,-116913,61095,-121756,-93049,0
C00527=38797,58176,-103919,75920,-120383,-87620,0
C00528=39100,58144,-104018,75599,-120526,-87689,0
C00529=39761,58177,-103937,74941,-120908,-87755,0
C00530=39871,58199,-103874,74839,-120985,-87752,0
C00531=45655,54141,-116329,66921,-120041,-92170,0
C00532=45608,54077,-116531,66943,-119952,-92222,0
C00533=45471,53688,-117793,66912,-119462,-92569,0
C00534=45484,53304,-119061,66725,-119026,-92940,0
C00535=45647,52941,-120278,66384,-118658,-93317,0
C00536=45682,52904,-120405,66329,-118626,-93359,0
C00537=31772,54109,-116121,59708,-122599,-93052,0
C00538=31670,54148,-115995,59840,-122610,-93000,0
C00539=30998,54310,-115461,60660,-122559,-92747,0
C00540=30649,54354,-115315,61065,-122477,-92651,0
C00541=30649,54295,-115338,61075,-122503,-92632,0
C00542=40140,58455,-103005,74712,-121380,-87512,0
C00543=46782,53890,-116996,65620,-120298,-92493,0
C00544=46645,53750,-117446,65704,-120083,-92603,0
C00545=46491,53477,-118335,65746,-119706,-92838,0
C00546=46441,53199,-119251,65673,-119359,-93096,0
C00547=46499,52928,-120161,65486,-119053,-93367,0
C00548=46666,52672,-121029,65187,-118797,-93641,0
C00549=46815,52547,-121462,64968,-118692,-93786,0
C00550=31475,53213,-118859,59639,-121417,-93722,0
C00551=31254,53314,-118520,59933,-121474,-93596,0
C00552=30787,53459,-118038,60518,-121494,-93392,0
C00553=30277,53556,-117710,61126,-121432,-93223,0
C00554=29740,53602,-117549,61737,-121290,-93097,0
C00555=29196,53596,-117561,62330,-121076,-93018,0
C00556=28905,53563,-117662,62634,-120924,-93003,0
C00557=24611,59223,-100554,69971,-124641,-87530,0
C00558=24915,59476,-99844,69784,-125019,-87383,0
C00559=25146,59722,-99156,69671,-125351,-87230,0
C00560=25362,60090,-98130,69637,-125775,-86981,0
C00561=25484,60491,-97015,69718,-126172,-86692,0
C00562=29737,54937,-113300,83966,-113583,-89467,0
C00563=29663,55140,-112668,84101,-113663,-89264,0
C00564=37593,58665,-102355,77371,-120106,-86981,0
C00565=37974,58492,-102857,76917,-120204,-87176,0
C00566=38328,58373,-103206,76511,-120319,-87325,0
C00567=38826,58291,-103451,75973,-120537,-87462,0
C00568=39338,58287,-103472,75453,-120816,-87537,0
C00569=39841,58361,-103269,74974,-121146,-87547,0
C00570=40059,58430,-103078,74784,-121316,-87522,0
C00571=40295,59291,-100626,74930,-122074,-86847,0
C00572=47989,53963,-116792,64340,-120854,-92609,0
C00573=47783,53834,-117204,64504,-120622,-92695,0
C00574=47751,53804,-117300,64525,-120575,-92718,0
C00575=47674,53751,-117470,64584,-120482,-92756,0
C00576=47511,53580,-118023,64682,-120217,-92890,0
C00577=47413,53399,-118616,64705,-119963,-93046,0
C00578=47385,53214,-119226,64649,-119728,-93217,0
C00579=47429,53033,-119832,64517,-119521,-93396,0
C00580=47546,52863,-120409,64311,-119350,-93578,0
C00581=47731,52709,-120934,64037,-119220,-93754,0
C00582=48079,52526,-121569,63571,-119103,-93983,0
C00583=31252,52609,-120880,59597,-120508,-94242,0
C00584=31085,52736,-120446,59841,-120629,-94098,0
C00585=31031,52763,-120355,59915,-120648,-94065,0
C00586=30955,52813,-120183,60023,-120690,-94007,0
C00587=30683,52935,-119768,60381,-120761,-93852,0
C00588=30369,53030,-119446,60772,-120779,-93717,0
C00589=30025,53094,-119226,61181,-120739,-93605,0
C00590=29663,53124,-119118,61594,-120649,-93522,0
C00591=29295,53120,-119126,61997,-120508,-93470,0
C00592=28934,53081,-119249,62375,-120326,-93453,0
C00593=28455,52980,-119577,62852,-120022,-93476,0
C00594=23583,59517,-99712,71171,-124306,-87123,0
C00595=23901,59624,-99414,70898,-124572,-87092,0
C00596=24183,59781,-98977,70688,-124857,-87016,0
C00597=24319,59896,-98658,70606,-125026,-86949,0
C00598=24477,60064,-98190,70530,-125250,-86845,0
C00599=24628,60318,-97485,70504,-125539,-86673,0
C00600=24716,60594,-96719,70555,-125810,-86474,0
C00601=24739,60883,-95922,70680,-126050,-86255,0
C00602=24715,61046,-95471,70788,-126162,-86125,0
C00603=24652,61277,-94835,70971,-126304,-85936,0
C00604=28528,55365,-111956,85316,-113212,-88952,0
C00605=37723,59524,-99919,77602,-120746,-86287,0
C00606=37926,59302,-100549,77306,-120720,-86497,0
C00607=38180,59121,-101066,76976,-120746,-86681,0
C00608=38350,59043,-101291,76773,-120791,-86770,0
C00609=38588,58961,-101529,76499,-120872,-86871,0
C00610=38926,58904,-101697,76136,-121024,-86965,0
C00611=39272,58902,-101712,75787,-121218,-87017,0
C00612=39613,58953,-101573,75466,-121446,-87024,0
C00613=39794,59011,-101410,75309,-121591,-87002,0
C00614=40027,59111,-101131,75119,-121793,-86954,0
C00615=40229,59246,-100751,74976,-122005,-86874,0
C00616=48254,53135,-119517,63661,-119945,-93420,0
C00617=48321,53040,-119835,63543,-119850,-93520,0
C00618=48424,52954,-120125,63390,-119779,-93617,0
C00619=48561,52882,-120373,63205,-119734,-93707,0
C00620=48598,52869,-120418,63159,-119729,-93725,0
C00621=48672,52833,-120540,63060,-119710,-93769,0
C00622=48852,52778,-120731,62837,-119701,-93848,0
C00623=49054,52742,-120861,62597,-119722,-93913,0
C00624=49557,52704,-121001,62025,-119845,-94023,0
C00625=30613,51976,-123048,60007,-119393,-94752,0
C00626=30632,52206,-122246,60094,-119732,-94531,0
C00627=30595,52307,-121899,60181,-119863,-94430,0
C00628=30517,52401,-121574,60311,-119970,-94328,0
C00629=30406,52483,-121290,60473,-120047,-94234,0
C00630=30373,52499,-121235,60517,-120058,-94213,0
C00631=30312,52540,-121095,60604,-120093,-94166,0
C00632=30161,52607,-120865,60801,-120134,-94080,0
C00633=29987,52659,-120685,61018,-120144,-94005,0
C00634=29795,52694,-120564,61246,-120124,-93944,0
C00635=29592,52710,-120504,61478,-120075,-93898,0
C00636=29385,52708,-120508,61704,-119999,-93870,0
C00637=29183,52686,-120576,61916,-119899,-93860,0
C00638=28993,52647,-120706,62107,-119780,-93871,0
C00639=28955,52635,-120748,62143,-119750,-93877,0
C00640=28859,52612,-120822,62238,-119687,-93885,0
C00641=28687,52550,-121031,62398,-119543,-93920,0
C00642=28542,52472,-121295,62522,-119389,-93975,0
C00643=28281,52265,-122000,62713,-119020,-94141,0
C00644=22508,60140,-97954,72565,-124172,-86452,0
C00645=23009,60046,-98222,72013,-124391,-86609,0
C00646=23199,60043,-98231,71819,-124501,-86643,0
C00647=23389,60073,-98150,71641,-124633,-86651,0
C00648=23571,60136,-97978,71488,-124787,-86633,0
C00649=23736,60229,-97720,71366,-124955,-86588,0
C00650=23797,60281,-97578,71331,-125029,-86558,0
C00651=23889,60379,-97306,71287,-125159,-86497,0
C00652=23980,60530,-96889,71270,-125329,-86395,0
C00653=24034,60694,-96435,71298,-125488,-86277,0
C00654=24050,60865,-95963,71369,-125628,-86147,0
C00655=24040,60937,-95765,71415,-125677,-86090,0
C00656=24006,61067,-95405,71515,-125757,-85983,0
C00657=23927,61220,-94985,71672,-125824,-85852,0
C00658=23817,61358,-94605,71853,-125861,-85726,0
C00659=23680,61472,-94290,72048,-125865,-85614,0
C00660=23260,61709,-93637,72589,-125781,-85359,0
C00661=38190,60547,-97067,77579,-121681,-85524,0
C00662=38208,60114,-98270,77374,-121416,-85874,0
C00663=38253,59961,-98700,77263,-121344,-86005,0
C00664=38335,59817,-99105,77120,-121298,-86133,0
C00665=38453,59688,-99469,76947,-121283,-86255,0
C00666=38603,59581,-99774,76752,-121299,-86363,0
C00667=38678,59546,-99874,76662,-121320,-86403,0
C00668=38815,59498,-100012,76505,-121367,-86461,0
C00669=39012,59464,-100112,76293,-121459,-86518,0
C00670=39215,59462,-100121,76090,-121575,-86548,0
C00671=39414,59493,-100038,75904,-121712,-86553,0
C00672=39493,59519,-99967,75836,-121775,-86543,0
C00673=39627,59577,-99804,75728,-121893,-86515,0
C00674=39782,59682,-99512,75621,-122055,-86453,0
C00675=39905,59808,-99162,75554,-122213,-86369,0
C00676=39993,59949,-98767,75530,-122363,-86268,0
C00677=40132,60361,-97621,75579,-122726,-85960,0
C00678=49414,53873,-117120,62738,-121292,-92912,0
C00679=48948,53798,-117352,63213,-121024,-92908,0
C00680=48759,53745,-117518,63395,-120888,-92927,0
C00681=48595,53676,-117741,63542,-120742,-92966,0
C00682=48462,53593,-118008,63647,-120590,-93021,0
C00683=48441,53573,-118071,63661,-120559,-93036,0
C00684=48379,53530,-118211,63709,-120482,-93067,0
C00685=48291,53436,-118517,63762,-120335,-93141,0
C00686=48239,53336,-118846,63771,-120192,-93227,0
C00687=48226,53235,-119182,63737,-120061,-93321,0
C00688=48240,53185,-119349,63699,-120004,-93371,0
C00689=48105,53064,-119748,63791,-119803,-93465,0
C00690=49500,53687,-117730,62553,-121093,-93096,0
C00691=49570,53681,-117748,62474,-121113,-93112,0
C00692=49710,53671,-117787,62315,-121152,-93143,0
C00693=49851,53660,-117825,62156,-121190,-93175,0
C00694=49928,53655,-117846,62068,-121212,-93193,0
C00695=49942,53653,-117852,62052,-121215,-93196,0
C00696=49955,53652,-117856,62037,-121218,-93200,0
C00697=49969,53650,-117861,62021,-121221,-93202,0
C00698=49983,53649,-117865,62005,-121224,-93206,0
C00699=49996,53648,-117870,61990,-121228,-93209,0
C00700=50010,53646,-117875,61974,-121231,-93213,0
C00701=50023,53645,-117879,61958,-121235,-93216,0
C00702=50037,53644,-117885,61943,-121238,-93219,0
C00703=50051,53642,-117890,61927,-121242,-93223,0
C00704=50064,53641,-117894,61911,-121245,-93226,0
C00705=50078,53640,-117899,61896,-121247,-93230,0
C00706=50090,53638,-117906,61881,-121250,-93233,0
C00707=50156,53605,-118014,61793,-121232,-93273,0
C00708=50198,53583,-118087,61736,-121220,-93300,0
C00709=50230,53566,-118144,61693,-121209,-93321,0
C00710=50254,53552,-118191,61660,-121200,-93337,0
C00711=50277,53538,-118239,61627,-121191,-93354,0
C00712=50296,53526,-118278,61601,-121182,-93368,0
C00713=50313,53515,-118316,61577,-121174,-93381,0
C00714=50328,53504,-118352,61555,-121165,-93393,0
C00715=50343,53493,-118387,61534,-121157,-93406,0
C00716=50358,53482,-118424,61512,-121149,-93418,0
C00717=50373,53471,-118460,61490,-121139,-93430,0
C00718=50388,53461,-118495,61468,-121131,-93442,0
C00719=50403,53450,-118531,61447,-121123,-93454,0
C00720=50414,53441,-118561,61430,-121115,-93464,0
C00721=50425,53432,-118591,61414,-121108,-93474,0
C00722=50436,53423,-118619,61397,-121100,-93484,0
C00723=50447,53415,-118648,61381,-121093,-93493,0
C00724=50456,53406,-118677,61367,-121085,-93502,0
C00725=50466,53398,-118705,61352,-121077,-93512,0
C00726=50476,53389,-118733,61337,-121070,-93521,0
C00727=50485,53381,-118762,61322,-121062,-93530,0
C00728=50495,53372,-118791,61308,-121055,-93540,0
C00729=50504,53364,-118818,61293,-121047,-93549,0
C00730=50514,53355,-118847,61278,-121039,-93558,0
C00731=50524,53347,-118874,61263,-121033,-93567,0
C00732=50533,53339,-118903,61249,-121024,-93577,0
C00733=50542,53331,-118930,61236,-121018,-93585,0
C00734=50550,53322,-118956,61222,-121010,-93594,0
C00735=50547,53318,-118971,61224,-121003,-93598,0
C00736=50541,53309,-119000,61226,-120989,-93605,0
C00737=50535,53301,-119028,61229,-120975,-93612,0
C00738=50528,53291,-119059,61232,-120961,-93620,0
C00739=50521,53282,-119089,61236,-120946,-93627,0
C00740=50514,53273,-119120,61239,-120931,-93634,0
C00741=50507,53264,-119150,61242,-120918,-93642,0
C00742=50500,53254,-119181,61246,-120903,-93649,0
C00743=50493,53245,-119211,61249,-120888,-93656,0
C00744=50486,53236,-119241,61252,-120873,-93664,0
C00745=50479,53227,-119272,61256,-120859,-93671,0
C00746=50472,53218,-119302,61259,-120844,-93679,0
C00747=50463,53208,-119334,61264,-120828,-93686,0
C00748=50455,53198,-119366,61269,-120813,-93694,0
C00749=50446,53189,-119397,61273,-120797,-93701,0
C00750=50436,53178,-119434,61280,-120779,-93710,0
C00751=50423,53165,-119474,61287,-120758,-93719,0
C00752=50411,53153,-119516,61295,-120737,-93729,0
C00753=50399,53141,-119556,61303,-120716,-93739,0
C00754=50386,53128,-119597,61311,-120697,-93748,0
C00755=50375,53118,-119632,61318,-120679,-93756,0
C00756=50361,53106,-119671,61328,-120658,-93765,0
C00757=50346,53093,-119716,61338,-120635,-93775,0
C00758=50324,53076,-119771,61354,-120605,-93787,0
C00759=50294,53054,-119842,61377,-120566,-93803,0
C00760=50256,53028,-119930,61407,-120518,-93822,0
C00761=50217,53001,-120019,61437,-120468,-93841,0
C00762=50184,52980,-120087,61464,-120429,-93855,0
C00763=50181,52980,-120089,61467,-120428,-93855,0
C00764=50167,52977,-120097,61481,-120420,-93856,0
C00765=50154,52975,-120104,61494,-120412,-93856,0
C00766=50140,52973,-120112,61508,-120404,-93856,0
C00767=50127,52970,-120120,61522,-120396,-93856,0
C00768=50114,52968,-120128,61535,-120388,-93856,0
C00769=50100,52965,-120135,61549,-120381,-93857,0
C00770=50087,52963,-120143,61563,-120373,-93857,0
C00771=50073,52960,-120151,61577,-120365,-93857,0
C00772=50060,52958,-120159,61590,-120357,-93858,0
C00773=50046,52956,-120166,61604,-120349,-93858,0
C00774=50033,52953,-120174,61618,-120341,-93858,0
C00775=50019,52951,-120182,61631,-120333,-93858,0
C00776=50006,52948,-120190,61645,-120326,-93858,0
C00777=49868,52927,-120257,61788,-120250,-93858,0
C00778=49729,52906,-120322,61930,-120174,-93856,0
C00779=49591,52886,-120389,62073,-120098,-93855,0
C00780=30225,51989,-122995,60442,-119286,-94685,0
C00781=30154,51930,-123201,60493,-119178,-94733,0
C00782=30083,51871,-123406,60545,-119069,-94781,0
C00783=30011,51813,-123610,60598,-118961,-94829,0
C00784=30004,51807,-123630,60603,-118950,-94833,0
C00785=29996,51802,-123649,60609,-118940,-94838,0
C00786=29989,51796,-123668,60615,-118930,-94842,0
C00787=29981,51791,-123687,60621,-118919,-94846,0
C00788=29974,51785,-123705,60627,-118909,-94851,0
C00789=29966,51780,-123725,60632,-118899,-94855,0
C00790=29958,51774,-123745,60638,-118888,-94860,0
C00791=29951,51769,-123763,60644,-118878,-94864,0
C00792=29943,51764,-123782,60650,-118868,-94868,0
C00793=29936,51758,-123801,60656,-118857,-94872,0
C00794=29928,51753,-123820,60662,-118847,-94877,0
C00795=29921,51747,-123840,60668,-118836,-94881,0
C00796=29917,51745,-123849,60670,-118832,-94883,0
C00797=29856,51731,-123897,60732,-118792,-94889,0
C00798=29797,51719,-123938,60792,-118756,-94893,0
C00799=29738,51707,-123978,60852,-118719,-94896,0
C00800=29707,51702,-123996,60883,-118702,-94897,0
C00801=29664,51695,-124021,60927,-118678,-94899,0
C00802=29634,51690,-124036,60959,-118662,-94899,0
C00803=29603,51686,-124051,60991,-118646,-94899,0
C00804=29576,51683,-124062,61019,-118632,-94899,0
C00805=29550,51680,-124073,61047,-118619,-94899,0
C00806=29523,51676,-124084,61075,-118605,-94898,0
C00807=29496,51673,-124095,61103,-118593,-94898,0
C00808=29469,51670,-124105,61131,-118579,-94897,0
C00809=29442,51667,-124116,61160,-118566,-94897,0
C00810=29418,51664,-124125,61185,-118555,-94896,0
C00811=29396,51662,-124132,61208,-118545,-94895,0
C00812=29375,51660,-124139,61231,-118535,-94894,0
C00813=29353,51658,-124146,61254,-118525,-94894,0
C00814=29333,51656,-124150,61276,-118517,-94892,0
C00815=29312,51655,-124156,61298,-118508,-94891,0
C00816=29292,51654,-124161,61320,-118499,-94890,0
C00817=29271,51652,-124165,61342,-118491,-94889,0
C00818=29251,51651,-124171,61364,-118481,-94888,0
C00819=29231,51649,-124175,61385,-118473,-94886,0
C00820=29210,51647,-124180,61407,-118464,-94885,0
C00821=29190,51646,-124185,61429,-118456,-94883,0
C00822=29169,51645,-124190,61451,-118447,-94882,0
C00823=29150,51643,-124194,61472,-118439,-94881,0
C00824=29131,51642,-124197,61493,-118431,-94879,0
C00825=29121,51642,-124200,61503,-118427,-94879,0
C00826=29106,51647,-124180,61522,-118431,-94871,0
C00827=29091,51652,-124162,61540,-118433,-94864,0
C00828=29076,51658,-124141,61560,-118437,-94856,0
C00829=29061,51664,-124120,61579,-118440,-94848,0
C00830=29046,51670,-124098,61599,-118443,-94841,0
C00831=29030,51675,-124078,61619,-118447,-94832,0
C00832=29015,51681,-124057,61638,-118450,-94824,0
C00833=29000,51687,-124035,61658,-118454,-94816,0
C00834=28984,51693,-124015,61677,-118457,-94809,0
C00835=28969,51699,-123994,61697,-118461,-94800,0
C00836=28954,51705,-123972,61717,-118464,-94792,0
C00837=28938,51711,-123950,61737,-118469,-94784,0
C00838=28922,51717,-123926,61757,-118473,-94775,0
C00839=28907,51724,-123903,61777,-118478,-94766,0
C00840=28891,51731,-123879,61797,-118483,-94758,0
C00841=28872,51740,-123846,61823,-118488,-94745,0
C00842=28852,51749,-123813,61848,-118495,-94734,0
C00843=28833,51758,-123780,61874,-118502,-94722,0
C00844=28814,51767,-123748,61899,-118509,-94710,0
C00845=28796,51776,-123717,61923,-118516,-94699,0
C00846=28779,51784,-123688,61945,-118522,-94688,0
C00847=28759,51795,-123649,61972,-118531,-94675,0
C00848=28737,51807,-123604,62003,-118541,-94659,0
C00849=28713,51822,-123554,62036,-118554,-94641,0
C00850=28675,51847,-123464,62089,-118577,-94611,0
C00851=28637,51872,-123376,62142,-118600,-94581,0
C00852=28590,51905,-123258,62209,-118631,-94541,0
C00853=28590,51910,-123241,62211,-118638,-94536,0
C00854=28591,51916,-123218,62213,-118647,-94530,0
C00855=28591,51923,-123195,62216,-118656,-94523,0
C00856=28592,51929,-123172,62218,-118665,-94517,0
C00857=28592,51936,-123149,62220,-118674,-94510,0
C00858=28593,51942,-123126,62223,-118684,-94503,0
C00859=28593,51949,-123104,62226,-118693,-94497,0
C00860=28593,51955,-123081,62228,-118702,-94491,0
C00861=28594,51962,-123058,62231,-118711,-94484,0
C00862=28594,51968,-123035,62233,-118720,-94478,0
C00863=28595,51975,-123013,62236,-118730,-94471,0
C00864=28595,51981,-122990,62238,-118739,-94465,0
C00865=28595,51988,-122968,62241,-118748,-94458,0
C00866=28601,52024,-122840,62251,-118801,-94423,0
C00867=28613,52090,-122610,62268,-118896,-94359,0
C00868=28624,52157,-122379,62286,-118990,-94294,0
C00869=28630,52190,-122264,62296,-119039,-94262,0
C00870=22701,60372,-97311,72484,-124459,-86301,0
C00871=22651,60406,-97215,72551,-124456,-86266,0
C00872=22551,60475,-97023,72685,-124448,-86196,0
C00873=22451,60544,-96830,72818,-124440,-86125,0
C00874=22443,60550,-96812,72830,-124440,-86119,0
C00875=22435,60557,-96794,72841,-124440,-86112,0
C00876=22426,60563,-96776,72853,-124440,-86106,0
C00877=22418,60570,-96758,72864,-124440,-86099,0
C00878=22410,60576,-96740,72876,-124439,-86093,0
C00879=22401,60583,-96722,72887,-124439,-86087,0
C00880=22392,60589,-96704,72900,-124439,-86080,0
C00881=22382,60596,-96686,72913,-124437,-86073,0
C00882=22373,60602,-96667,72925,-124436,-86066,0
C00883=22364,60609,-96649,72937,-124436,-86059,0
C00884=22355,60616,-96630,72950,-124436,-86053,0
C00885=22347,60622,-96612,72962,-124435,-86046,0
C00886=22339,60629,-96594,72972,-124435,-86040,0
C00887=22331,60635,-96576,72983,-124436,-86034,0
C00888=22323,60641,-96559,72994,-124436,-86027,0
C00889=22316,60648,-96541,73005,-124436,-86021,0
C00890=22308,60654,-96523,73016,-124436,-86015,0
C00891=22300,60661,-96506,73027,-124436,-86009,0
C00892=22292,60667,-96488,73038,-124436,-86002,0
C00893=22284,60673,-96470,73049,-124436,-85996,0
C00894=22277,60680,-96452,73060,-124436,-85990,0
C00895=22269,60686,-96434,73070,-124436,-85983,0
C00896=22261,60693,-96416,73081,-124436,-85978,0
C00897=22254,60699,-96399,73091,-124436,-85971,0
C00898=22247,60705,-96382,73101,-124437,-85965,0
C00899=22240,60711,-96364,73111,-124437,-85959,0
C00900=22233,60718,-96347,73121,-124437,-85953,0
C00901=22226,60724,-96329,73131,-124439,-85947,0
C00902=22219,60730,-96312,73141,-124439,-85941,0
C00903=22214,60750,-96258,73156,-124450,-85925,0
C00904=22206,60780,-96174,73179,-124467,-85900,0
C00905=22198,60811,-96090,73202,-124483,-85875,0
C00906=22191,60837,-96018,73221,-124500,-85853,0
C00907=22187,60859,-95957,73236,-124512,-85835,0
C00908=22182,60880,-95897,73252,-124525,-85817,0
C00909=22179,60900,-95844,73264,-124537,-85802,0
C00910=22176,60919,-95792,73276,-124549,-85787,0
C00911=22173,60938,-95739,73288,-124562,-85772,0
C00912=22171,60957,-95687,73300,-124573,-85756,0
C00913=22168,60976,-95634,73313,-124586,-85741,0
C00914=22166,60992,-95589,73322,-124596,-85728,0
C00915=22165,61009,-95544,73332,-124608,-85715,0
C00916=22163,61025,-95499,73341,-124618,-85702,0
C00917=22162,61041,-95454,73350,-124628,-85689,0
C00918=22161,61055,-95415,73358,-124639,-85678,0
C00919=22160,61070,-95376,73365,-124649,-85667,0
C00920=22160,61084,-95336,73373,-124658,-85655,0
C00921=22159,61098,-95297,73380,-124668,-85644,0
C00922=22159,61113,-95258,73388,-124679,-85633,0
C00923=22158,61127,-95219,73396,-124688,-85622,0
C00924=22158,61141,-95179,73403,-124698,-85611,0
C00925=22158,61154,-95144,73410,-124708,-85600,0
C00926=22158,61167,-95108,73416,-124717,-85590,0
C00927=22157,61180,-95073,73422,-124726,-85580,0
C00928=22163,61184,-95061,73419,-124732,-85578,0
C00929=22173,61193,-95036,73413,-124744,-85573,0
C00930=22184,61202,-95012,73407,-124758,-85567,0
C00931=22195,61211,-94987,73400,-124771,-85562,0
C00932=22207,61221,-94961,73393,-124786,-85557,0
C00933=22219,61230,-94935,73385,-124799,-85552,0
C00934=22231,61240,-94909,73378,-124813,-85546,0
C00935=22244,61249,-94883,73371,-124828,-85541,0
C00936=22256,61259,-94857,73363,-124842,-85535,0
C00937=22268,61269,-94831,73356,-124856,-85530,0
C00938=22281,61279,-94803,73348,-124872,-85524,0
C00939=22295,61289,-94775,73339,-124888,-85519,0
C00940=22310,61299,-94746,73330,-124904,-85513,0
C00941=22324,61310,-94718,73320,-124920,-85508,0
C00942=22340,61321,-94688,73310,-124937,-85502,0
C00943=22358,61332,-94657,73298,-124957,-85495,0
C00944=22375,61344,-94625,73286,-124975,-85490,0
C00945=22393,61356,-94593,73274,-124995,-85483,0
C00946=22410,61367,-94562,73263,-125014,-85477,0
C00947=22430,61379,-94529,73249,-125034,-85472,0
C00948=22451,61392,-94495,73235,-125056,-85465,0
C00949=22472,61404,-94461,73220,-125078,-85459,0
C00950=22503,61421,-94416,73198,-125109,-85451,0
C00951=22533,61437,-94372,73175,-125140,-85444,0
C00952=22564,61454,-94327,73153,-125169,-85437,0
C00953=22578,61461,-94307,73143,-125183,-85433,0
C00954=22583,61461,-94307,73138,-125187,-85434,0
C00955=22592,61461,-94307,73129,-125192,-85436,0
C00956=22601,61461,-94307,73119,-125198,-85437,0
C00957=22611,61461,-94308,73110,-125204,-85438,0
C00958=22620,61461,-94308,73101,-125210,-85440,0
C00959=22630,61461,-94308,73091,-125215,-85442,0
C00960=22641,61460,-94309,73080,-125221,-85444,0
C00961=22651,61460,-94311,73069,-125228,-85446,0
C00962=22662,61460,-94312,73058,-125234,-85448,0
C00963=22673,61459,-94313,73048,-125241,-85451,0
C00964=22683,61459,-94314,73037,-125246,-85452,0
C00965=22694,61459,-94315,73026,-125253,-85455,0
C00966=22702,61459,-94315,73018,-125258,-85456,0
C00967=22712,61459,-94315,73009,-125264,-85458,0
C00968=22721,61459,-94315,72999,-125269,-85459,0
C00969=22731,61459,-94315,72989,-125275,-85461,0
C00970=22741,61459,-94316,72980,-125281,-85463,0
C00971=22750,61458,-94316,72970,-125287,-85465,0
C00972=22761,61458,-94317,72959,-125294,-85466,0
C00973=22772,61457,-94319,72948,-125299,-85469,0
C00974=22783,61457,-94321,72936,-125306,-85471,0
C00975=22794,61456,-94323,72925,-125313,-85474,0
C00976=22806,61455,-94325,72913,-125319,-85476,0
C00977=22817,61455,-94327,72902,-125326,-85479,0
C00978=22828,61454,-94329,72890,-125332,-85481,0
C00979=22840,61454,-94331,72879,-125338,-85483,0
C00980=22851,61453,-94332,72867,-125344,-85485,0
C00981=22862,61452,-94334,72856,-125351,-85488,0
C00982=22873,61452,-94336,72844,-125358,-85491,0
C00983=22942,61445,-94355,72772,-125395,-85508,0
C00984=23069,61433,-94391,72639,-125464,-85539,0
C00985=23196,61420,-94426,72506,-125531,-85570,0
C00986=38503,60453,-97333,77230,-121812,-85644,0
C00987=38529,60503,-97194,77227,-121859,-85607,0
C00988=38580,60605,-96914,77221,-121955,-85534,0
C00989=38631,60706,-96633,77216,-122051,-85460,0
C00990=38636,60715,-96609,77215,-122060,-85454,0
C00991=38641,60724,-96585,77214,-122068,-85447,0
C00992=38646,60733,-96561,77213,-122077,-85441,0
C00993=38651,60741,-96536,77212,-122085,-85435,0
C00994=38656,60750,-96512,77211,-122094,-85429,0
C00995=38661,60759,-96488,77210,-122102,-85422,0
C00996=38666,60768,-96462,77209,-122112,-85415,0
C00997=38671,60778,-96434,77209,-122121,-85408,0
C00998=38676,60788,-96408,77208,-122130,-85401,0
C00999=38681,60797,-96382,77208,-122139,-85394,0
C01000=38686,60807,-96356,77207,-122148,-85387,0
C01001=38691,60816,-96332,77206,-122156,-85381,0
//INST
///DATE 2025/02/20 16:20
///COMM Generated using RoboDK
///ATTR SC,RW
///GROUP1 RB1
NOP
MOVL C00000 V=30.0 PL=1
CALL JOB:EXTRUDE
MOVL C00001 V=30.0 PL=1
CALL JOB:EXTRUDE
MOVL C00002 V=30.0 PL=1
CALL JOB:EXTRUDE
MOVL C00003 V=30.0 PL=1
CALL JOB:EXTRUDE
MOVL C00004 V=30.0 PL=1
CALL JOB:EXTRUDE
MOVL C00005 V=30.0 PL=1
CALL JOB:EXTRUDE
MOVL C00006 V=30.0 PL=1
CALL JOB:EXTRUDE
MOVL C00007 V=30.0 PL=1
CALL JOB:EXTRUDE
MOVL C00008 V=30.0 PL=1
CALL JOB:EXTRUDE
MOVL C00009 V=30.0 PL=1
CALL JOB:EXTRUDE
MOVL C00010 V=30.0 PL=1
CALL JOB:EXTRUDE
MOVL C00011 V=30.0 PL=1
CALL JOB:EXTRUDE
MOVL C00012 V=30.0 PL=1
CALL JOB:EXTRUDE
MOVL C00013 V=30.0 PL=1
CALL JOB:EXTRUDE
MOVL C00014 V=30.0 PL=1
CALL JOB:EXTRUDE
MOVL C00015 V=30.0 PL=1
CALL JOB:EXTRUDE
MOVL C00016 V=30.0 PL=1
CALL JOB:EXTRUDE
MOVL C00017 V=30.0 PL=1
CALL JOB:EXTRUDE
MOVL C00018 V=30.0 PL=1
CALL JOB:EXTRUDE
MOVL C00019 V=30.0 PL=1
CALL JOB:EXTRUDE
MOVL C00020 V=30.0 PL=1
CALL JOB:EXTRUDE
MOVL C00021 V=30.0 PL=1
CALL JOB:EXTRUDE
MOVL C00022 V=30.0 PL=1
CALL JOB:EXTRUDE
MOVL C00023 V=30.0 PL=1
CALL JOB:EXTRUDE
MOVL C00024 V=30.0 PL=1
CALL JOB:EXTRUDE
MOVL C00025 V=30.0 PL=1
CALL JOB:EXTRUDE
MOVL C00026 V=30.0 PL=1
CALL JOB:EXTRUDE
MOVL C00027 V=30.0 PL=1
CALL JOB:EXTRUDE
MOVL C00028 V=30.0 PL=1
CALL JOB:EXTRUDE
MOVL C00029 V=30.0 PL=1
CALL JOB:EXTRUDE
MOVL C00030 V=30.0 PL=1
CALL JOB:EXTRUDE
MOVL C00031 V=30.0 PL=1
CALL JOB:EXTRUDE
MOVL C00032 V=30.0 PL=1
CALL JOB:EXTRUDE
MOVL C00033 V=30.0 PL=1
CALL JOB:EXTRUDE
MOVL C00034 V=30.0 PL=1
CALL JOB:EXTRUDE
MOVL C00035 V=30.0 PL=1
CALL JOB:EXTRUDE
MOVL C00036 V=30.0 PL=1
CALL JOB:EXTRUDE
MOVL C00037 V=30.0 PL=1
CALL JOB:EXTRUDE
MOVL C00038 V=30.0 PL=1
CALL JOB:EXTRUDE
MOVL C00039 V=30.0 PL=1
CALL JOB:EXTRUDE
MOVL C00040 V=30.0 PL=1
CALL JOB:EXTRUDE
MOVL C00041 V=30.0 PL=1
CALL JOB:EXTRUDE
MOVL C00042 V=30.0 PL=1
CALL JOB:EXTRUDE
MOVL C00043 V=30.0 PL=1
CALL JOB:EXTRUDE
MOVL C00044 V=30.0 PL=1
CALL JOB:EXTRUDE
MOVL C00045 V=30.0 PL=1
CALL JOB:EXTRUDE
MOVL C00046 V=30.0 PL=1
CALL JOB:EXTRUDE
MOVL C00047 V=30.0 PL=1
CALL JOB:EXTRUDE
MOVL C00048 V=30.0 PL=1
CALL JOB:EXTRUDE
MOVL C00049 V=30.0 PL=1
CALL JOB:EXTRUDE
MOVL C00050 V=30.0 PL=1
CALL JOB:EXTRUDE
MOVL C00051 V=30.0 PL=1
CALL JOB:EXTRUDE
MOVL C00052 V=30.0 PL=1
CALL JOB:EXTRUDE
MOVL C00053 V=30.0 PL=1
CALL JOB:EXTRUDE
MOVL C00054 V=30.0 PL=1
CALL JOB:EXTRUDE
MOVL C00055 V=30.0 PL=1
CALL JOB:EXTRUDE
MOVL C00056 V=30.0 PL=1
CALL JOB:EXTRUDE
MOVL C00057 V=30.0 PL=1
CALL JOB:EXTRUDE
MOVL C00058 V=30.0 PL=1
CALL JOB:EXTRUDE
MOVL C00059 V=30.0 PL=1
CALL JOB:EXTRUDE
MOVL C00060 V=30.0 PL=1
CALL JOB:EXTRUDE
MOVL C00061 V=30.0 PL=1
CALL JOB:EXTRUDE
MOVL C00062 V=30.0 PL=1
MOVL C00063 V=130.0 PL=1
CALL JOB:EXTRUDE
CALL JOB:EXTRUDE
MOVL C00064 V=130.0 PL=1
CALL JOB:EXTRUDE
CALL JOB:EXTRUDE
MOVL C00065 V=30.0 PL=1
CALL JOB:EXTRUDE
MOVL C00066 V=30.0 PL=1
CALL JOB:EXTRUDE
MOVL C00067 V=30.0 PL=1
CALL JOB:EXTRUDE
MOVL C00068 V=30.0 PL=1
CALL JOB:EXTRUDE
MOVL C00069 V=30.0 PL=1
CALL JOB:EXTRUDE
MOVL C00070 V=30.0 PL=1
CALL JOB:EXTRUDE
MOVL C00071 V=30.0 PL=1
CALL JOB:EXTRUDE
MOVL C00072 V=30.0 PL=1
CALL JOB:EXTRUDE
MOVL C00073 V=30.0 PL=1
CALL JOB:EXTRUDE
MOVL C00074 V=30.0 PL=1
CALL JOB:EXTRUDE
MOVL C00075 V=30.0 PL=1
CALL JOB:EXTRUDE
MOVL C00076 V=30.0 PL=1
CALL JOB:EXTRUDE
MOVL C00077 V=30.0 PL=1
CALL JOB:EXTRUDE
MOVL C00078 V=30.0 PL=1
CALL JOB:EXTRUDE
MOVL C00079 V=30.0 PL=1
CALL JOB:EXTRUDE
MOVL C00080 V=30.0 PL=1
CALL JOB:EXTRUDE
MOVL C00081 V=30.0 PL=1
CALL JOB:EXTRUDE
MOVL C00082 V=30.0 PL=1
CALL JOB:EXTRUDE
MOVL C00083 V=30.0 PL=1
CALL JOB:EXTRUDE
MOVL C00084 V=30.0 PL=1
CALL JOB:EXTRUDE
MOVL C00085 V=30.0 PL=1
CALL JOB:EXTRUDE
MOVL C00086 V=30.0 PL=1
CALL JOB:EXTRUDE
MOVL C00087 V=30.0 PL=1
CALL JOB:EXTRUDE
MOVL C00088 V=30.0 PL=1
CALL JOB:EXTRUDE
MOVL C00089 V=30.0 PL=1
CALL JOB:EXTRUDE
MOVL C00090 V=30.0 PL=1
CALL JOB:EXTRUDE
MOVL C00091 V=30.0 PL=1
CALL JOB:EXTRUDE
MOVL C00092 V=30.0 PL=1
CALL JOB:EXTRUDE
MOVL C00093 V=30.0 PL=1
CALL JOB:EXTRUDE
MOVL C00094 V=30.0 PL=1
CALL JOB:EXTRUDE
MOVL C00095 V=30.0 PL=1
CALL JOB:EXTRUDE
MOVL C00096 V=30.0 PL=1
CALL JOB:EXTRUDE
MOVL C00097 V=30.0 PL=1
CALL JOB:EXTRUDE
MOVL C00098 V=30.0 PL=1
CALL JOB:EXTRUDE
MOVL C00099 V=30.0 PL=1
CALL JOB:EXTRUDE
MOVL C00100 V=30.0 PL=1
CALL JOB:EXTRUDE
MOVL C00101 V=30.0 PL=1
CALL JOB:EXTRUDE
MOVL C00102 V=30.0 PL=1
CALL JOB:EXTRUDE
MOVL C00103 V=30.0 PL=1
CALL JOB:EXTRUDE
MOVL C00104 V=30.0 PL=1
CALL JOB:EXTRUDE
MOVL C00105 V=30.0 PL=1
CALL JOB:EXTRUDE
MOVL C00106 V=30.0 PL=1
CALL JOB:EXTRUDE
MOVL C00107 V=30.0 PL=1
CALL JOB:EXTRUDE
MOVL C00108 V=30.0 PL=1
CALL JOB:EXTRUDE
MOVL C00109 V=30.0 PL=1
CALL JOB:EXTRUDE
MOVL C00110 V=30.0 PL=1
CALL JOB:EXTRUDE
MOVL C00111 V=30.0 PL=1
CALL JOB:EXTRUDE
MOVL C00112 V=30.0 PL=1
CALL JOB:EXTRUDE
MOVL C00113 V=30.0 PL=1
CALL JOB:EXTRUDE
MOVL C00114 V=30.0 PL=1
CALL JOB:EXTRUDE
MOVL C00115 V=30.0 PL=1
CALL JOB:EXTRUDE
MOVL C00116 V=30.0 PL=1
CALL JOB:EXTRUDE
MOVL C00117 V=30.0 PL=1
CALL JOB:EXTRUDE
MOVL C00118 V=30.0 PL=1
CALL JOB:EXTRUDE
MOVL C00119 V=30.0 PL=1
CALL JOB:EXTRUDE
MOVL C00120 V=30.0 PL=1
CALL JOB:EXTRUDE
MOVL C00121 V=30.0 PL=1
CALL JOB:EXTRUDE
MOVL C00122 V=30.0 PL=1
CALL JOB:EXTRUDE
MOVL C00123 V=30.0 PL=1
CALL JOB:EXTRUDE
MOVL C00124 V=30.0 PL=1
CALL JOB:EXTRUDE
MOVL C00125 V=30.0 PL=1
CALL JOB:EXTRUDE
MOVL C00126 V=30.0 PL=1
CALL JOB:EXTRUDE
MOVL C00127 V=30.0 PL=1
CALL JOB:EXTRUDE
MOVL C00128 V=30.0 PL=1
CALL JOB:EXTRUDE
MOVL C00129 V=30.0 PL=1
CALL JOB:EXTRUDE
MOVL C00130 V=30.0 PL=1
CALL JOB:EXTRUDE
MOVL C00131 V=30.0 PL=1
CALL JOB:EXTRUDE
MOVL C00132 V=30.0 PL=1
CALL JOB:EXTRUDE
MOVL C00133 V=30.0 PL=1
CALL JOB:EXTRUDE
MOVL C00134 V=30.0 PL=1
CALL JOB:EXTRUDE
MOVL C00135 V=30.0 PL=1
CALL JOB:EXTRUDE
MOVL C00136 V=30.0 PL=1
CALL JOB:EXTRUDE
MOVL C00137 V=30.0 PL=1
CALL JOB:EXTRUDE
MOVL C00138 V=30.0 PL=1
CALL JOB:EXTRUDE
MOVL C00139 V=30.0 PL=1
CALL JOB:EXTRUDE
MOVL C00140 V=30.0 PL=1
CALL JOB:EXTRUDE
MOVL C00141 V=30.0 PL=1
CALL JOB:EXTRUDE
MOVL C00142 V=30.0 PL=1
CALL JOB:EXTRUDE
MOVL C00143 V=30.0 PL=1
CALL JOB:EXTRUDE
MOVL C00144 V=30.0 PL=1
CALL JOB:EXTRUDE
MOVL C00145 V=30.0 PL=1
CALL JOB:EXTRUDE
MOVL C00146 V=30.0 PL=1
CALL JOB:EXTRUDE
MOVL C00147 V=30.0 PL=1
CALL JOB:EXTRUDE
MOVL C00148 V=30.0 PL=1
CALL JOB:EXTRUDE
MOVL C00149 V=30.0 PL=1
CALL JOB:EXTRUDE
MOVL C00150 V=30.0 PL=1
CALL JOB:EXTRUDE
MOVL C00151 V=30.0 PL=1
CALL JOB:EXTRUDE
MOVL C00152 V=30.0 PL=1
CALL JOB:EXTRUDE
MOVL C00153 V=30.0 PL=1
CALL JOB:EXTRUDE
MOVL C00154 V=30.0 PL=1
CALL JOB:EXTRUDE
MOVL C00155 V=30.0 PL=1
CALL JOB:EXTRUDE
MOVL C00156 V=30.0 PL=1
CALL JOB:EXTRUDE
MOVL C00157 V=30.0 PL=1
CALL JOB:EXTRUDE
MOVL C00158 V=30.0 PL=1
CALL JOB:EXTRUDE
MOVL C00159 V=30.0 PL=1
CALL JOB:EXTRUDE
MOVL C00160 V=30.0 PL=1
CALL JOB:EXTRUDE
MOVL C00161 V=30.0 PL=1
CALL JOB:EXTRUDE
MOVL C00162 V=30.0 PL=1
CALL JOB:EXTRUDE
MOVL C00163 V=30.0 PL=1
CALL JOB:EXTRUDE
MOVL C00164 V=30.0 PL=1
CALL JOB:EXTRUDE
MOVL C00165 V=30.0 PL=1
CALL JOB:EXTRUDE
MOVL C00166 V=30.0 PL=1
CALL JOB:EXTRUDE
MOVL C00167 V=30.0 PL=1
CALL JOB:EXTRUDE
MOVL C00168 V=30.0 PL=1
CALL JOB:EXTRUDE
MOVL C00169 V=30.0 PL=1
CALL JOB:EXTRUDE
MOVL C00170 V=30.0 PL=1
CALL JOB:EXTRUDE
MOVL C00171 V=30.0 PL=1
CALL JOB:EXTRUDE
MOVL C00172 V=30.0 PL=1
CALL JOB:EXTRUDE
MOVL C00173 V=30.0 PL=1
CALL JOB:EXTRUDE
MOVL C00174 V=30.0 PL=1
CALL JOB:EXTRUDE
MOVL C00175 V=30.0 PL=1
CALL JOB:EXTRUDE
MOVL C00176 V=30.0 PL=1
CALL JOB:EXTRUDE
MOVL C00177 V=30.0 PL=1
CALL JOB:EXTRUDE
MOVL C00178 V=30.0 PL=1
CALL JOB:EXTRUDE
MOVL C00179 V=30.0 PL=1
CALL JOB:EXTRUDE
MOVL C00180 V=30.0 PL=1
MOVL C00181 V=130.0 PL=1
CALL JOB:EXTRUDE
MOVL C00182 V=30.0 PL=1
CALL JOB:EXTRUDE
MOVL C00183 V=30.0 PL=1
CALL JOB:EXTRUDE
MOVL C00184 V=30.0 PL=1
CALL JOB:EXTRUDE
MOVL C00185 V=30.0 PL=1
CALL JOB:EXTRUDE
MOVL C00186 V=30.0 PL=1
CALL JOB:EXTRUDE
MOVL C00187 V=30.0 PL=1
CALL JOB:EXTRUDE
MOVL C00188 V=30.0 PL=1
CALL JOB:EXTRUDE
MOVL C00189 V=30.0 PL=1
CALL JOB:EXTRUDE
MOVL C00190 V=30.0 PL=1
CALL JOB:EXTRUDE
MOVL C00191 V=30.0 PL=1
CALL JOB:EXTRUDE
MOVL C00192 V=30.0 PL=1
CALL JOB:EXTRUDE
MOVL C00193 V=30.0 PL=1
CALL JOB:EXTRUDE
MOVL C00194 V=30.0 PL=1
CALL JOB:EXTRUDE
MOVL C00195 V=30.0 PL=1
CALL JOB:EXTRUDE
MOVL C00196 V=30.0 PL=1
CALL JOB:EXTRUDE
MOVL C00197 V=30.0 PL=1
CALL JOB:EXTRUDE
MOVL C00198 V=30.0 PL=1
CALL JOB:EXTRUDE
MOVL C00199 V=30.0 PL=1
CALL JOB:EXTRUDE
MOVL C00200 V=30.0 PL=1
CALL JOB:EXTRUDE
MOVL C00201 V=30.0 PL=1
CALL JOB:EXTRUDE
MOVL C00202 V=30.0 PL=1
CALL JOB:EXTRUDE
MOVL C00203 V=30.0 PL=1
CALL JOB:EXTRUDE
MOVL C00204 V=30.0 PL=1
CALL JOB:EXTRUDE
MOVL C00205 V=30.0 PL=1
CALL JOB:EXTRUDE
MOVL C00206 V=30.0 PL=1
CALL JOB:EXTRUDE
MOVL C00207 V=30.0 PL=1
CALL JOB:EXTRUDE
MOVL C00208 V=30.0 PL=1
CALL JOB:EXTRUDE
MOVL C00209 V=30.0 PL=1
CALL JOB:EXTRUDE
MOVL C00210 V=30.0 PL=1
CALL JOB:EXTRUDE
MOVL C00211 V=30.0 PL=1
CALL JOB:EXTRUDE
MOVL C00212 V=30.0 PL=1
CALL JOB:EXTRUDE
MOVL C00213 V=30.0 PL=1
CALL JOB:EXTRUDE
MOVL C00214 V=30.0 PL=1
CALL JOB:EXTRUDE
MOVL C00215 V=30.0 PL=1
CALL JOB:EXTRUDE
MOVL C00216 V=30.0 PL=1
CALL JOB:EXTRUDE
MOVL C00217 V=30.0 PL=1
CALL JOB:EXTRUDE
MOVL C00218 V=30.0 PL=1
CALL JOB:EXTRUDE
MOVL C00219 V=30.0 PL=1
CALL JOB:EXTRUDE
MOVL C00220 V=30.0 PL=1
CALL JOB:EXTRUDE
MOVL C00221 V=30.0 PL=1
CALL JOB:EXTRUDE
MOVL C00222 V=30.0 PL=1
CALL JOB:EXTRUDE
MOVL C00223 V=30.0 PL=1
CALL JOB:EXTRUDE
MOVL C00224 V=30.0 PL=1
CALL JOB:EXTRUDE
MOVL C00225 V=30.0 PL=1
CALL JOB:EXTRUDE
MOVL C00226 V=30.0 PL=1
CALL JOB:EXTRUDE
MOVL C00227 V=30.0 PL=1
CALL JOB:EXTRUDE
MOVL C00228 V=30.0 PL=1
CALL JOB:EXTRUDE
MOVL C00229 V=30.0 PL=1
CALL JOB:EXTRUDE
MOVL C00230 V=30.0 PL=1
CALL JOB:EXTRUDE
MOVL C00231 V=30.0 PL=1
CALL JOB:EXTRUDE
MOVL C00232 V=30.0 PL=1
CALL JOB:EXTRUDE
MOVL C00233 V=30.0 PL=1
CALL JOB:EXTRUDE
MOVL C00234 V=30.0 PL=1
CALL JOB:EXTRUDE
MOVL C00235 V=30.0 PL=1
CALL JOB:EXTRUDE
MOVL C00236 V=30.0 PL=1
CALL JOB:EXTRUDE
MOVL C00237 V=30.0 PL=1
CALL JOB:EXTRUDE
MOVL C00238 V=30.0 PL=1
CALL JOB:EXTRUDE
MOVL C00239 V=30.0 PL=1
CALL JOB:EXTRUDE
MOVL C00240 V=30.0 PL=1
CALL JOB:EXTRUDE
MOVL C00241 V=30.0 PL=1
CALL JOB:EXTRUDE
MOVL C00242 V=30.0 PL=1
CALL JOB:EXTRUDE
MOVL C00243 V=30.0 PL=1
CALL JOB:EXTRUDE
MOVL C00244 V=30.0 PL=1
CALL JOB:EXTRUDE
MOVL C00245 V=30.0 PL=1
CALL JOB:EXTRUDE
MOVL C00246 V=30.0 PL=1
CALL JOB:EXTRUDE
MOVL C00247 V=30.0 PL=1
CALL JOB:EXTRUDE
MOVL C00248 V=30.0 PL=1
CALL JOB:EXTRUDE
MOVL C00249 V=30.0 PL=1
CALL JOB:EXTRUDE
MOVL C00250 V=30.0 PL=1
CALL JOB:EXTRUDE
MOVL C00251 V=30.0 PL=1
CALL JOB:EXTRUDE
MOVL C00252 V=30.0 PL=1
CALL JOB:EXTRUDE
MOVL C00253 V=30.0 PL=1
CALL JOB:EXTRUDE
MOVL C00254 V=30.0 PL=1
CALL JOB:EXTRUDE
MOVL C00255 V=30.0 PL=1
CALL JOB:EXTRUDE
MOVL C00256 V=30.0 PL=1
CALL JOB:EXTRUDE
MOVL C00257 V=30.0 PL=1
CALL JOB:EXTRUDE
MOVL C00258 V=30.0 PL=1
CALL JOB:EXTRUDE
MOVL C00259 V=30.0 PL=1
CALL JOB:EXTRUDE
MOVL C00260 V=30.0 PL=1
CALL JOB:EXTRUDE
MOVL C00261 V=30.0 PL=1
CALL JOB:EXTRUDE
MOVL C00262 V=30.0 PL=1
CALL JOB:EXTRUDE
MOVL C00263 V=30.0 PL=1
CALL JOB:EXTRUDE
MOVL C00264 V=30.0 PL=1
CALL JOB:EXTRUDE
MOVL C00265 V=30.0 PL=1
CALL JOB:EXTRUDE
MOVL C00266 V=30.0 PL=1
CALL JOB:EXTRUDE
MOVL C00267 V=30.0 PL=1
CALL JOB:EXTRUDE
MOVL C00268 V=30.0 PL=1
CALL JOB:EXTRUDE
MOVL C00269 V=30.0 PL=1
CALL JOB:EXTRUDE
MOVL C00270 V=30.0 PL=1
CALL JOB:EXTRUDE
MOVL C00271 V=30.0 PL=1
CALL JOB:EXTRUDE
MOVL C00272 V=30.0 PL=1
CALL JOB:EXTRUDE
MOVL C00273 V=30.0 PL=1
CALL JOB:EXTRUDE
MOVL C00274 V=30.0 PL=1
CALL JOB:EXTRUDE
MOVL C00275 V=30.0 PL=1
CALL JOB:EXTRUDE
MOVL C00276 V=30.0 PL=1
CALL JOB:EXTRUDE
MOVL C00277 V=30.0 PL=1
CALL JOB:EXTRUDE
MOVL C00278 V=30.0 PL=1
CALL JOB:EXTRUDE
MOVL C00279 V=30.0 PL=1
CALL JOB:EXTRUDE
MOVL C00280 V=30.0 PL=1
CALL JOB:EXTRUDE
MOVL C00281 V=30.0 PL=1
CALL JOB:EXTRUDE
MOVL C00282 V=30.0 PL=1
CALL JOB:EXTRUDE
MOVL C00283 V=30.0 PL=1
CALL JOB:EXTRUDE
MOVL C00284 V=30.0 PL=1
CALL JOB:EXTRUDE
MOVL C00285 V=30.0 PL=1
CALL JOB:EXTRUDE
MOVL C00286 V=30.0 PL=1
CALL JOB:EXTRUDE
MOVL C00287 V=30.0 PL=1
CALL JOB:EXTRUDE
MOVL C00288 V=30.0 PL=1
CALL JOB:EXTRUDE
MOVL C00289 V=30.0 PL=1
CALL JOB:EXTRUDE
MOVL C00290 V=30.0 PL=1
CALL JOB:EXTRUDE
MOVL C00291 V=30.0 PL=1
CALL JOB:EXTRUDE
MOVL C00292 V=30.0 PL=1
CALL JOB:EXTRUDE
MOVL C00293 V=30.0 PL=1
CALL JOB:EXTRUDE
MOVL C00294 V=30.0 PL=1
CALL JOB:EXTRUDE
MOVL C00295 V=30.0 PL=1
CALL JOB:EXTRUDE
MOVL C00296 V=30.0 PL=1
CALL JOB:EXTRUDE
MOVL C00297 V=30.0 PL=1
CALL JOB:EXTRUDE
MOVL C00298 V=30.0 PL=1
CALL JOB:EXTRUDE
CALL JOB:EXTRUDE
MOVL C00299 V=130.0 PL=1
CALL JOB:EXTRUDE
CALL JOB:EXTRUDE
MOVL C00300 V=30.0 PL=1
CALL JOB:EXTRUDE
MOVL C00301 V=30.0 PL=1
CALL JOB:EXTRUDE
MOVL C00302 V=30.0 PL=1
CALL JOB:EXTRUDE
MOVL C00303 V=30.0 PL=1
CALL JOB:EXTRUDE
MOVL C00304 V=30.0 PL=1
CALL JOB:EXTRUDE
MOVL C00305 V=30.0 PL=1
CALL JOB:EXTRUDE
MOVL C00306 V=30.0 PL=1
CALL JOB:EXTRUDE
MOVL C00307 V=30.0 PL=1
CALL JOB:EXTRUDE
MOVL C00308 V=30.0 PL=1
CALL JOB:EXTRUDE
MOVL C00309 V=30.0 PL=1
CALL JOB:EXTRUDE
MOVL C00310 V=30.0 PL=1
CALL JOB:EXTRUDE
MOVL C00311 V=30.0 PL=1
CALL JOB:EXTRUDE
MOVL C00312 V=30.0 PL=1
CALL JOB:EXTRUDE
MOVL C00313 V=30.0 PL=1
CALL JOB:EXTRUDE
MOVL C00314 V=30.0 PL=1
CALL JOB:EXTRUDE
MOVL C00315 V=30.0 PL=1
CALL JOB:EXTRUDE
MOVL C00316 V=30.0 PL=1
CALL JOB:EXTRUDE
MOVL C00317 V=30.0 PL=1
CALL JOB:EXTRUDE
MOVL C00318 V=30.0 PL=1
CALL JOB:EXTRUDE
MOVL C00319 V=30.0 PL=1
CALL JOB:EXTRUDE
MOVL C00320 V=30.0 PL=1
CALL JOB:EXTRUDE
MOVL C00321 V=30.0 PL=1
CALL JOB:EXTRUDE
MOVL C00322 V=30.0 PL=1
CALL JOB:EXTRUDE
MOVL C00323 V=30.0 PL=1
CALL JOB:EXTRUDE
MOVL C00324 V=30.0 PL=1
CALL JOB:EXTRUDE
MOVL C00325 V=30.0 PL=1
CALL JOB:EXTRUDE
MOVL C00326 V=30.0 PL=1
CALL JOB:EXTRUDE
MOVL C00327 V=30.0 PL=1
CALL JOB:EXTRUDE
MOVL C00328 V=30.0 PL=1
CALL JOB:EXTRUDE
MOVL C00329 V=30.0 PL=1
CALL JOB:EXTRUDE
MOVL C00330 V=30.0 PL=1
CALL JOB:EXTRUDE
MOVL C00331 V=30.0 PL=1
CALL JOB:EXTRUDE
MOVL C00332 V=30.0 PL=1
CALL JOB:EXTRUDE
MOVL C00333 V=30.0 PL=1
CALL JOB:EXTRUDE
MOVL C00334 V=30.0 PL=1
CALL JOB:EXTRUDE
MOVL C00335 V=30.0 PL=1
CALL JOB:EXTRUDE
MOVL C00336 V=30.0 PL=1
CALL JOB:EXTRUDE
MOVL C00337 V=30.0 PL=1
CALL JOB:EXTRUDE
MOVL C00338 V=30.0 PL=1
CALL JOB:EXTRUDE
MOVL C00339 V=30.0 PL=1
CALL JOB:EXTRUDE
MOVL C00340 V=30.0 PL=1
CALL JOB:EXTRUDE
MOVL C00341 V=30.0 PL=1
CALL JOB:EXTRUDE
MOVL C00342 V=30.0 PL=1
CALL JOB:EXTRUDE
MOVL C00343 V=30.0 PL=1
CALL JOB:EXTRUDE
MOVL C00344 V=30.0 PL=1
CALL JOB:EXTRUDE
MOVL C00345 V=30.0 PL=1
CALL JOB:EXTRUDE
MOVL C00346 V=30.0 PL=1
CALL JOB:EXTRUDE
MOVL C00347 V=30.0 PL=1
CALL JOB:EXTRUDE
MOVL C00348 V=30.0 PL=1
CALL JOB:EXTRUDE
MOVL C00349 V=30.0 PL=1
CALL JOB:EXTRUDE
MOVL C00350 V=30.0 PL=1
CALL JOB:EXTRUDE
MOVL C00351 V=30.0 PL=1
CALL JOB:EXTRUDE
MOVL C00352 V=30.0 PL=1
CALL JOB:EXTRUDE
MOVL C00353 V=30.0 PL=1
CALL JOB:EXTRUDE
MOVL C00354 V=30.0 PL=1
CALL JOB:EXTRUDE
MOVL C00355 V=30.0 PL=1
CALL JOB:EXTRUDE
MOVL C00356 V=30.0 PL=1
CALL JOB:EXTRUDE
MOVL C00357 V=30.0 PL=1
CALL JOB:EXTRUDE
MOVL C00358 V=30.0 PL=1
CALL JOB:EXTRUDE
MOVL C00359 V=30.0 PL=1
CALL JOB:EXTRUDE
MOVL C00360 V=30.0 PL=1
CALL JOB:EXTRUDE
MOVL C00361 V=30.0 PL=1
CALL JOB:EXTRUDE
MOVL C00362 V=30.0 PL=1
CALL JOB:EXTRUDE
MOVL C00363 V=30.0 PL=1
CALL JOB:EXTRUDE
MOVL C00364 V=30.0 PL=1
CALL JOB:EXTRUDE
MOVL C00365 V=30.0 PL=1
CALL JOB:EXTRUDE
MOVL C00366 V=30.0 PL=1
CALL JOB:EXTRUDE
MOVL C00367 V=30.0 PL=1
CALL JOB:EXTRUDE
MOVL C00368 V=30.0 PL=1
CALL JOB:EXTRUDE
MOVL C00369 V=30.0 PL=1
CALL JOB:EXTRUDE
MOVL C00370 V=30.0 PL=1
CALL JOB:EXTRUDE
MOVL C00371 V=30.0 PL=1
CALL JOB:EXTRUDE
MOVL C00372 V=30.0 PL=1
CALL JOB:EXTRUDE
MOVL C00373 V=30.0 PL=1
CALL JOB:EXTRUDE
MOVL C00374 V=30.0 PL=1
CALL JOB:EXTRUDE
MOVL C00375 V=30.0 PL=1
CALL JOB:EXTRUDE
MOVL C00376 V=30.0 PL=1
CALL JOB:EXTRUDE
MOVL C00377 V=30.0 PL=1
CALL JOB:EXTRUDE
MOVL C00378 V=30.0 PL=1
CALL JOB:EXTRUDE
MOVL C00379 V=30.0 PL=1
CALL JOB:EXTRUDE
MOVL C00380 V=30.0 PL=1
CALL JOB:EXTRUDE
MOVL C00381 V=30.0 PL=1
CALL JOB:EXTRUDE
MOVL C00382 V=30.0 PL=1
CALL JOB:EXTRUDE
MOVL C00383 V=30.0 PL=1
CALL JOB:EXTRUDE
MOVL C00384 V=30.0 PL=1
CALL JOB:EXTRUDE
MOVL C00385 V=30.0 PL=1
CALL JOB:EXTRUDE
MOVL C00386 V=30.0 PL=1
CALL JOB:EXTRUDE
MOVL C00387 V=30.0 PL=1
CALL JOB:EXTRUDE
MOVL C00388 V=30.0 PL=1
CALL JOB:EXTRUDE
MOVL C00389 V=30.0 PL=1
CALL JOB:EXTRUDE
MOVL C00390 V=30.0 PL=1
CALL JOB:EXTRUDE
MOVL C00391 V=30.0 PL=1
CALL JOB:EXTRUDE
MOVL C00392 V=30.0 PL=1
CALL JOB:EXTRUDE
MOVL C00393 V=30.0 PL=1
CALL JOB:EXTRUDE
MOVL C00394 V=30.0 PL=1
CALL JOB:EXTRUDE
MOVL C00395 V=30.0 PL=1
CALL JOB:EXTRUDE
MOVL C00396 V=30.0 PL=1
CALL JOB:EXTRUDE
MOVL C00397 V=30.0 PL=1
CALL JOB:EXTRUDE
MOVL C00398 V=30.0 PL=1
CALL JOB:EXTRUDE
MOVL C00399 V=30.0 PL=1
CALL JOB:EXTRUDE
MOVL C00400 V=30.0 PL=1
CALL JOB:EXTRUDE
MOVL C00401 V=30.0 PL=1
CALL JOB:EXTRUDE
MOVL C00402 V=30.0 PL=1
CALL JOB:EXTRUDE
MOVL C00403 V=30.0 PL=1
CALL JOB:EXTRUDE
MOVL C00404 V=30.0 PL=1
CALL JOB:EXTRUDE
MOVL C00405 V=30.0 PL=1
CALL JOB:EXTRUDE
MOVL C00406 V=30.0 PL=1
CALL JOB:EXTRUDE
MOVL C00407 V=30.0 PL=1
CALL JOB:EXTRUDE
CALL JOB:EXTRUDE
MOVL C00408 V=130.0 PL=1
CALL JOB:EXTRUDE
CALL JOB:EXTRUDE
MOVL C00409 V=30.0 PL=1
CALL JOB:EXTRUDE
MOVL C00410 V=30.0 PL=1
CALL JOB:EXTRUDE
MOVL C00411 V=30.0 PL=1
CALL JOB:EXTRUDE
MOVL C00412 V=30.0 PL=1
CALL JOB:EXTRUDE
MOVL C00413 V=30.0 PL=1
CALL JOB:EXTRUDE
MOVL C00414 V=30.0 PL=1
CALL JOB:EXTRUDE
MOVL C00415 V=30.0 PL=1
CALL JOB:EXTRUDE
MOVL C00416 V=30.0 PL=1
CALL JOB:EXTRUDE
MOVL C00417 V=30.0 PL=1
CALL JOB:EXTRUDE
MOVL C00418 V=30.0 PL=1
CALL JOB:EXTRUDE
MOVL C00419 V=30.0 PL=1
CALL JOB:EXTRUDE
MOVL C00420 V=30.0 PL=1
CALL JOB:EXTRUDE
MOVL C00421 V=30.0 PL=1
CALL JOB:EXTRUDE
MOVL C00422 V=30.0 PL=1
CALL JOB:EXTRUDE
MOVL C00423 V=30.0 PL=1
CALL JOB:EXTRUDE
MOVL C00424 V=30.0 PL=1
CALL JOB:EXTRUDE
MOVL C00425 V=30.0 PL=1
CALL JOB:EXTRUDE
MOVL C00426 V=30.0 PL=1
CALL JOB:EXTRUDE
MOVL C00427 V=30.0 PL=1
CALL JOB:EXTRUDE
MOVL C00428 V=30.0 PL=1
CALL JOB:EXTRUDE
MOVL C00429 V=30.0 PL=1
CALL JOB:EXTRUDE
MOVL C00430 V=30.0 PL=1
CALL JOB:EXTRUDE
MOVL C00431 V=30.0 PL=1
CALL JOB:EXTRUDE
MOVL C00432 V=30.0 PL=1
CALL JOB:EXTRUDE
MOVL C00433 V=30.0 PL=1
CALL JOB:EXTRUDE
MOVL C00434 V=30.0 PL=1
CALL JOB:EXTRUDE
MOVL C00435 V=30.0 PL=1
CALL JOB:EXTRUDE
MOVL C00436 V=30.0 PL=1
CALL JOB:EXTRUDE
MOVL C00437 V=30.0 PL=1
CALL JOB:EXTRUDE
MOVL C00438 V=30.0 PL=1
CALL JOB:EXTRUDE
MOVL C00439 V=30.0 PL=1
CALL JOB:EXTRUDE
MOVL C00440 V=30.0 PL=1
CALL JOB:EXTRUDE
MOVL C00441 V=30.0 PL=1
CALL JOB:EXTRUDE
MOVL C00442 V=30.0 PL=1
CALL JOB:EXTRUDE
MOVL C00443 V=30.0 PL=1
CALL JOB:EXTRUDE
MOVL C00444 V=30.0 PL=1
CALL JOB:EXTRUDE
MOVL C00445 V=30.0 PL=1
CALL JOB:EXTRUDE
MOVL C00446 V=30.0 PL=1
CALL JOB:EXTRUDE
MOVL C00447 V=30.0 PL=1
CALL JOB:EXTRUDE
MOVL C00448 V=30.0 PL=1
CALL JOB:EXTRUDE
MOVL C00449 V=30.0 PL=1
CALL JOB:EXTRUDE
MOVL C00450 V=30.0 PL=1
CALL JOB:EXTRUDE
MOVL C00451 V=30.0 PL=1
CALL JOB:EXTRUDE
MOVL C00452 V=30.0 PL=1
CALL JOB:EXTRUDE
MOVL C00453 V=30.0 PL=1
CALL JOB:EXTRUDE
MOVL C00454 V=30.0 PL=1
CALL JOB:EXTRUDE
MOVL C00455 V=30.0 PL=1
CALL JOB:EXTRUDE
MOVL C00456 V=30.0 PL=1
CALL JOB:EXTRUDE
MOVL C00457 V=30.0 PL=1
CALL JOB:EXTRUDE
MOVL C00458 V=30.0 PL=1
CALL JOB:EXTRUDE
MOVL C00459 V=30.0 PL=1
CALL JOB:EXTRUDE
MOVL C00460 V=30.0 PL=1
CALL JOB:EXTRUDE
MOVL C00461 V=30.0 PL=1
CALL JOB:EXTRUDE
MOVL C00462 V=30.0 PL=1
CALL JOB:EXTRUDE
MOVL C00463 V=30.0 PL=1
CALL JOB:EXTRUDE
MOVL C00464 V=30.0 PL=1
CALL JOB:EXTRUDE
MOVL C00465 V=30.0 PL=1
CALL JOB:EXTRUDE
MOVL C00466 V=30.0 PL=1
CALL JOB:EXTRUDE
MOVL C00467 V=30.0 PL=1
CALL JOB:EXTRUDE
MOVL C00468 V=30.0 PL=1
CALL JOB:EXTRUDE
MOVL C00469 V=30.0 PL=1
CALL JOB:EXTRUDE
MOVL C00470 V=30.0 PL=1
CALL JOB:EXTRUDE
MOVL C00471 V=30.0 PL=1
CALL JOB:EXTRUDE
MOVL C00472 V=30.0 PL=1
CALL JOB:EXTRUDE
MOVL C00473 V=30.0 PL=1
CALL JOB:EXTRUDE
MOVL C00474 V=30.0 PL=1
CALL JOB:EXTRUDE
MOVL C00475 V=30.0 PL=1
CALL JOB:EXTRUDE
MOVL C00476 V=30.0 PL=1
CALL JOB:EXTRUDE
MOVL C00477 V=30.0 PL=1
CALL JOB:EXTRUDE
MOVL C00478 V=30.0 PL=1
CALL JOB:EXTRUDE
MOVL C00479 V=30.0 PL=1
CALL JOB:EXTRUDE
MOVL C00480 V=30.0 PL=1
CALL JOB:EXTRUDE
MOVL C00481 V=30.0 PL=1
CALL JOB:EXTRUDE
MOVL C00482 V=30.0 PL=1
CALL JOB:EXTRUDE
MOVL C00483 V=30.0 PL=1
CALL JOB:EXTRUDE
MOVL C00484 V=30.0 PL=1
CALL JOB:EXTRUDE
MOVL C00485 V=30.0 PL=1
CALL JOB:EXTRUDE
MOVL C00486 V=30.0 PL=1
CALL JOB:EXTRUDE
MOVL C00487 V=30.0 PL=1
CALL JOB:EXTRUDE
MOVL C00488 V=30.0 PL=1
CALL JOB:EXTRUDE
MOVL C00489 V=30.0 PL=1
CALL JOB:EXTRUDE
MOVL C00490 V=30.0 PL=1
CALL JOB:EXTRUDE
MOVL C00491 V=30.0 PL=1
CALL JOB:EXTRUDE
MOVL C00492 V=30.0 PL=1
CALL JOB:EXTRUDE
MOVL C00493 V=30.0 PL=1
CALL JOB:EXTRUDE
MOVL C00494 V=30.0 PL=1
CALL JOB:EXTRUDE
MOVL C00495 V=30.0 PL=1
CALL JOB:EXTRUDE
MOVL C00496 V=30.0 PL=1
CALL JOB:EXTRUDE
MOVL C00497 V=30.0 PL=1
CALL JOB:EXTRUDE
MOVL C00498 V=30.0 PL=1
CALL JOB:EXTRUDE
MOVL C00499 V=30.0 PL=1
CALL JOB:EXTRUDE
MOVL C00500 V=30.0 PL=1
CALL JOB:EXTRUDE
MOVL C00501 V=30.0 PL=1
CALL JOB:EXTRUDE
MOVL C00502 V=30.0 PL=1
CALL JOB:EXTRUDE
MOVL C00503 V=30.0 PL=1
CALL JOB:EXTRUDE
MOVL C00504 V=30.0 PL=1
CALL JOB:EXTRUDE
MOVL C00505 V=30.0 PL=1
CALL JOB:EXTRUDE
MOVL C00506 V=30.0 PL=1
CALL JOB:EXTRUDE
MOVL C00507 V=30.0 PL=1
CALL JOB:EXTRUDE
MOVL C00508 V=30.0 PL=1
CALL JOB:EXTRUDE
MOVL C00509 V=30.0 PL=1
CALL JOB:EXTRUDE
MOVL C00510 V=30.0 PL=1
CALL JOB:EXTRUDE
MOVL C00511 V=30.0 PL=1
CALL JOB:EXTRUDE
MOVL C00512 V=30.0 PL=1
CALL JOB:EXTRUDE
MOVL C00513 V=30.0 PL=1
CALL JOB:EXTRUDE
MOVL C00514 V=30.0 PL=1
CALL JOB:EXTRUDE
MOVL C00515 V=30.0 PL=1
CALL JOB:EXTRUDE
MOVL C00516 V=30.0 PL=1
CALL JOB:EXTRUDE
MOVL C00517 V=30.0 PL=1
CALL JOB:EXTRUDE
MOVL C00518 V=30.0 PL=1
CALL JOB:EXTRUDE
MOVL C00519 V=30.0 PL=1
CALL JOB:EXTRUDE
CALL JOB:EXTRUDE
MOVL C00520 V=130.0 PL=1
CALL JOB:EXTRUDE
CALL JOB:EXTRUDE
MOVL C00521 V=80.0 PL=1
MOVL C00522 V=130.0 PL=1
CALL JOB:EXTRUDE
MOVL C00523 V=80.0 PL=1
MOVL C00524 V=130.0 PL=1
CALL JOB:EXTRUDE
MOVL C00525 V=80.0 PL=1
MOVL C00526 V=130.0 PL=1
CALL JOB:EXTRUDE
MOVL C00527 V=80.0 PL=1
CALL JOB:EXTRUDE
MOVL C00528 V=80.0 PL=1
CALL JOB:EXTRUDE
MOVL C00529 V=80.0 PL=1
CALL JOB:EXTRUDE
MOVL C00530 V=80.0 PL=1
CALL JOB:EXTRUDE
MOVL C00531 V=80.0 PL=1
CALL JOB:EXTRUDE
MOVL C00532 V=80.0 PL=1
CALL JOB:EXTRUDE
MOVL C00533 V=80.0 PL=1
CALL JOB:EXTRUDE
MOVL C00534 V=80.0 PL=1
CALL JOB:EXTRUDE
MOVL C00535 V=80.0 PL=1
CALL JOB:EXTRUDE
MOVL C00536 V=80.0 PL=1
CALL JOB:EXTRUDE
MOVL C00537 V=80.0 PL=1
CALL JOB:EXTRUDE
MOVL C00538 V=80.0 PL=1
CALL JOB:EXTRUDE
MOVL C00539 V=80.0 PL=1
CALL JOB:EXTRUDE
MOVL C00540 V=80.0 PL=1
MOVL C00541 V=130.0 PL=1
MOVL C00542 V=130.0 PL=1
CALL JOB:EXTRUDE
MOVL C00543 V=60.0 PL=1
CALL JOB:EXTRUDE
MOVL C00544 V=60.0 PL=1
CALL JOB:EXTRUDE
MOVL C00545 V=60.0 PL=1
CALL JOB:EXTRUDE
MOVL C00546 V=60.0 PL=1
CALL JOB:EXTRUDE
MOVL C00547 V=60.0 PL=1
CALL JOB:EXTRUDE
MOVL C00548 V=60.0 PL=1
CALL JOB:EXTRUDE
MOVL C00549 V=60.0 PL=1
CALL JOB:EXTRUDE
MOVL C00550 V=60.0 PL=1
CALL JOB:EXTRUDE
MOVL C00551 V=60.0 PL=1
CALL JOB:EXTRUDE
MOVL C00552 V=60.0 PL=1
CALL JOB:EXTRUDE
MOVL C00553 V=60.0 PL=1
CALL JOB:EXTRUDE
MOVL C00554 V=60.0 PL=1
CALL JOB:EXTRUDE
MOVL C00555 V=60.0 PL=1
CALL JOB:EXTRUDE
MOVL C00556 V=60.0 PL=1
CALL JOB:EXTRUDE
MOVL C00557 V=60.0 PL=1
CALL JOB:EXTRUDE
MOVL C00558 V=60.0 PL=1
CALL JOB:EXTRUDE
MOVL C00559 V=60.0 PL=1
CALL JOB:EXTRUDE
MOVL C00560 V=60.0 PL=1
CALL JOB:EXTRUDE
MOVL C00561 V=60.0 PL=1
CALL JOB:EXTRUDE
MOVL C00562 V=60.0 PL=1
CALL JOB:EXTRUDE
MOVL C00563 V=60.0 PL=1
CALL JOB:EXTRUDE
MOVL C00564 V=60.0 PL=1
CALL JOB:EXTRUDE
MOVL C00565 V=60.0 PL=1
CALL JOB:EXTRUDE
MOVL C00566 V=60.0 PL=1
CALL JOB:EXTRUDE
MOVL C00567 V=60.0 PL=1
CALL JOB:EXTRUDE
MOVL C00568 V=60.0 PL=1
CALL JOB:EXTRUDE
MOVL C00569 V=60.0 PL=1
CALL JOB:EXTRUDE
MOVL C00570 V=60.0 PL=1
MOVL C00571 V=130.0 PL=1
CALL JOB:EXTRUDE
MOVL C00572 V=60.0 PL=1
CALL JOB:EXTRUDE
MOVL C00573 V=60.0 PL=1
CALL JOB:EXTRUDE
MOVL C00574 V=60.0 PL=1
CALL JOB:EXTRUDE
MOVL C00575 V=60.0 PL=1
CALL JOB:EXTRUDE
MOVL C00576 V=60.0 PL=1
CALL JOB:EXTRUDE
MOVL C00577 V=60.0 PL=1
CALL JOB:EXTRUDE
MOVL C00578 V=60.0 PL=1
CALL JOB:EXTRUDE
MOVL C00579 V=60.0 PL=1
CALL JOB:EXTRUDE
MOVL C00580 V=60.0 PL=1
CALL JOB:EXTRUDE
MOVL C00581 V=60.0 PL=1
CALL JOB:EXTRUDE
MOVL C00582 V=60.0 PL=1
CALL JOB:EXTRUDE
MOVL C00583 V=60.0 PL=1
CALL JOB:EXTRUDE
MOVL C00584 V=60.0 PL=1
CALL JOB:EXTRUDE
MOVL C00585 V=60.0 PL=1
CALL JOB:EXTRUDE
MOVL C00586 V=60.0 PL=1
CALL JOB:EXTRUDE
MOVL C00587 V=60.0 PL=1
CALL JOB:EXTRUDE
MOVL C00588 V=60.0 PL=1
CALL JOB:EXTRUDE
MOVL C00589 V=60.0 PL=1
CALL JOB:EXTRUDE
MOVL C00590 V=60.0 PL=1
CALL JOB:EXTRUDE
MOVL C00591 V=60.0 PL=1
CALL JOB:EXTRUDE
MOVL C00592 V=60.0 PL=1
CALL JOB:EXTRUDE
MOVL C00593 V=60.0 PL=1
CALL JOB:EXTRUDE
MOVL C00594 V=60.0 PL=1
CALL JOB:EXTRUDE
MOVL C00595 V=60.0 PL=1
CALL JOB:EXTRUDE
MOVL C00596 V=60.0 PL=1
CALL JOB:EXTRUDE
MOVL C00597 V=60.0 PL=1
CALL JOB:EXTRUDE
MOVL C00598 V=60.0 PL=1
CALL JOB:EXTRUDE
MOVL C00599 V=60.0 PL=1
CALL JOB:EXTRUDE
MOVL C00600 V=60.0 PL=1
CALL JOB:EXTRUDE
MOVL C00601 V=60.0 PL=1
CALL JOB:EXTRUDE
MOVL C00602 V=60.0 PL=1
CALL JOB:EXTRUDE
MOVL C00603 V=60.0 PL=1
CALL JOB:EXTRUDE
MOVL C00604 V=60.0 PL=1
CALL JOB:EXTRUDE
MOVL C00605 V=60.0 PL=1
CALL JOB:EXTRUDE
MOVL C00606 V=60.0 PL=1
CALL JOB:EXTRUDE
MOVL C00607 V=60.0 PL=1
CALL JOB:EXTRUDE
MOVL C00608 V=60.0 PL=1
CALL JOB:EXTRUDE
MOVL C00609 V=60.0 PL=1
CALL JOB:EXTRUDE
MOVL C00610 V=60.0 PL=1
CALL JOB:EXTRUDE
MOVL C00611 V=60.0 PL=1
CALL JOB:EXTRUDE
MOVL C00612 V=60.0 PL=1
CALL JOB:EXTRUDE
MOVL C00613 V=60.0 PL=1
CALL JOB:EXTRUDE
MOVL C00614 V=60.0 PL=1
CALL JOB:EXTRUDE
MOVL C00615 V=60.0 PL=1
MOVL C00616 V=130.0 PL=1
CALL JOB:EXTRUDE
MOVL C00617 V=30.0 PL=1
CALL JOB:EXTRUDE
MOVL C00618 V=30.0 PL=1
CALL JOB:EXTRUDE
MOVL C00619 V=30.0 PL=1
CALL JOB:EXTRUDE
MOVL C00620 V=30.0 PL=1
CALL JOB:EXTRUDE
MOVL C00621 V=30.0 PL=1
CALL JOB:EXTRUDE
MOVL C00622 V=30.0 PL=1
CALL JOB:EXTRUDE
MOVL C00623 V=30.0 PL=1
CALL JOB:EXTRUDE
MOVL C00624 V=30.0 PL=1
CALL JOB:EXTRUDE
MOVL C00625 V=30.0 PL=1
CALL JOB:EXTRUDE
MOVL C00626 V=30.0 PL=1
CALL JOB:EXTRUDE
MOVL C00627 V=30.0 PL=1
CALL JOB:EXTRUDE
MOVL C00628 V=30.0 PL=1
CALL JOB:EXTRUDE
MOVL C00629 V=30.0 PL=1
CALL JOB:EXTRUDE
MOVL C00630 V=30.0 PL=1
CALL JOB:EXTRUDE
MOVL C00631 V=30.0 PL=1
CALL JOB:EXTRUDE
MOVL C00632 V=30.0 PL=1
CALL JOB:EXTRUDE
MOVL C00633 V=30.0 PL=1
CALL JOB:EXTRUDE
MOVL C00634 V=30.0 PL=1
CALL JOB:EXTRUDE
MOVL C00635 V=30.0 PL=1
CALL JOB:EXTRUDE
MOVL C00636 V=30.0 PL=1
CALL JOB:EXTRUDE
MOVL C00637 V=30.0 PL=1
CALL JOB:EXTRUDE
MOVL C00638 V=30.0 PL=1
CALL JOB:EXTRUDE
MOVL C00639 V=30.0 PL=1
CALL JOB:EXTRUDE
MOVL C00640 V=30.0 PL=1
CALL JOB:EXTRUDE
MOVL C00641 V=30.0 PL=1
CALL JOB:EXTRUDE
MOVL C00642 V=30.0 PL=1
CALL JOB:EXTRUDE
MOVL C00643 V=30.0 PL=1
CALL JOB:EXTRUDE
MOVL C00644 V=30.0 PL=1
CALL JOB:EXTRUDE
MOVL C00645 V=30.0 PL=1
CALL JOB:EXTRUDE
MOVL C00646 V=30.0 PL=1
CALL JOB:EXTRUDE
MOVL C00647 V=30.0 PL=1
CALL JOB:EXTRUDE
MOVL C00648 V=30.0 PL=1
CALL JOB:EXTRUDE
MOVL C00649 V=30.0 PL=1
CALL JOB:EXTRUDE
MOVL C00650 V=30.0 PL=1
CALL JOB:EXTRUDE
MOVL C00651 V=30.0 PL=1
CALL JOB:EXTRUDE
MOVL C00652 V=30.0 PL=1
CALL JOB:EXTRUDE
MOVL C00653 V=30.0 PL=1
CALL JOB:EXTRUDE
MOVL C00654 V=30.0 PL=1
CALL JOB:EXTRUDE
MOVL C00655 V=30.0 PL=1
CALL JOB:EXTRUDE
MOVL C00656 V=30.0 PL=1
CALL JOB:EXTRUDE
MOVL C00657 V=30.0 PL=1
CALL JOB:EXTRUDE
MOVL C00658 V=30.0 PL=1
CALL JOB:EXTRUDE
MOVL C00659 V=30.0 PL=1
CALL JOB:EXTRUDE
MOVL C00660 V=30.0 PL=1
CALL JOB:EXTRUDE
MOVL C00661 V=30.0 PL=1
CALL JOB:EXTRUDE
MOVL C00662 V=30.0 PL=1
CALL JOB:EXTRUDE
MOVL C00663 V=30.0 PL=1
CALL JOB:EXTRUDE
MOVL C00664 V=30.0 PL=1
CALL JOB:EXTRUDE
MOVL C00665 V=30.0 PL=1
CALL JOB:EXTRUDE
MOVL C00666 V=30.0 PL=1
CALL JOB:EXTRUDE
MOVL C00667 V=30.0 PL=1
CALL JOB:EXTRUDE
MOVL C00668 V=30.0 PL=1
CALL JOB:EXTRUDE
MOVL C00669 V=30.0 PL=1
CALL JOB:EXTRUDE
MOVL C00670 V=30.0 PL=1
CALL JOB:EXTRUDE
MOVL C00671 V=30.0 PL=1
CALL JOB:EXTRUDE
MOVL C00672 V=30.0 PL=1
CALL JOB:EXTRUDE
MOVL C00673 V=30.0 PL=1
CALL JOB:EXTRUDE
MOVL C00674 V=30.0 PL=1
CALL JOB:EXTRUDE
MOVL C00675 V=30.0 PL=1
CALL JOB:EXTRUDE
MOVL C00676 V=30.0 PL=1
CALL JOB:EXTRUDE
MOVL C00677 V=30.0 PL=1
CALL JOB:EXTRUDE
MOVL C00678 V=30.0 PL=1
CALL JOB:EXTRUDE
MOVL C00679 V=30.0 PL=1
CALL JOB:EXTRUDE
MOVL C00680 V=30.0 PL=1
CALL JOB:EXTRUDE
MOVL C00681 V=30.0 PL=1
CALL JOB:EXTRUDE
MOVL C00682 V=30.0 PL=1
CALL JOB:EXTRUDE
MOVL C00683 V=30.0 PL=1
CALL JOB:EXTRUDE
MOVL C00684 V=30.0 PL=1
CALL JOB:EXTRUDE
MOVL C00685 V=30.0 PL=1
CALL JOB:EXTRUDE
MOVL C00686 V=30.0 PL=1
CALL JOB:EXTRUDE
MOVL C00687 V=30.0 PL=1
CALL JOB:EXTRUDE
MOVL C00688 V=30.0 PL=1
MOVL C00689 V=130.0 PL=1
CALL JOB:EXTRUDE
CALL JOB:EXTRUDE
MOVL C00690 V=130.0 PL=1
CALL JOB:EXTRUDE
CALL JOB:EXTRUDE
MOVL C00691 V=30.0 PL=1
CALL JOB:EXTRUDE
MOVL C00692 V=30.0 PL=1
CALL JOB:EXTRUDE
MOVL C00693 V=30.0 PL=1
CALL JOB:EXTRUDE
MOVL C00694 V=30.0 PL=1
CALL JOB:EXTRUDE
MOVL C00695 V=30.0 PL=1
CALL JOB:EXTRUDE
MOVL C00696 V=30.0 PL=1
CALL JOB:EXTRUDE
MOVL C00697 V=30.0 PL=1
CALL JOB:EXTRUDE
MOVL C00698 V=30.0 PL=1
CALL JOB:EXTRUDE
MOVL C00699 V=30.0 PL=1
CALL JOB:EXTRUDE
MOVL C00700 V=30.0 PL=1
CALL JOB:EXTRUDE
MOVL C00701 V=30.0 PL=1
CALL JOB:EXTRUDE
MOVL C00702 V=30.0 PL=1
CALL JOB:EXTRUDE
MOVL C00703 V=30.0 PL=1
CALL JOB:EXTRUDE
MOVL C00704 V=30.0 PL=1
CALL JOB:EXTRUDE
MOVL C00705 V=30.0 PL=1
CALL JOB:EXTRUDE
MOVL C00706 V=30.0 PL=1
CALL JOB:EXTRUDE
MOVL C00707 V=30.0 PL=1
CALL JOB:EXTRUDE
MOVL C00708 V=30.0 PL=1
CALL JOB:EXTRUDE
MOVL C00709 V=30.0 PL=1
CALL JOB:EXTRUDE
MOVL C00710 V=30.0 PL=1
CALL JOB:EXTRUDE
MOVL C00711 V=30.0 PL=1
CALL JOB:EXTRUDE
MOVL C00712 V=30.0 PL=1
CALL JOB:EXTRUDE
MOVL C00713 V=30.0 PL=1
CALL JOB:EXTRUDE
MOVL C00714 V=30.0 PL=1
CALL JOB:EXTRUDE
MOVL C00715 V=30.0 PL=1
CALL JOB:EXTRUDE
MOVL C00716 V=30.0 PL=1
CALL JOB:EXTRUDE
MOVL C00717 V=30.0 PL=1
CALL JOB:EXTRUDE
MOVL C00718 V=30.0 PL=1
CALL JOB:EXTRUDE
MOVL C00719 V=30.0 PL=1
CALL JOB:EXTRUDE
MOVL C00720 V=30.0 PL=1
CALL JOB:EXTRUDE
MOVL C00721 V=30.0 PL=1
CALL JOB:EXTRUDE
MOVL C00722 V=30.0 PL=1
CALL JOB:EXTRUDE
MOVL C00723 V=30.0 PL=1
CALL JOB:EXTRUDE
MOVL C00724 V=30.0 PL=1
CALL JOB:EXTRUDE
MOVL C00725 V=30.0 PL=1
CALL JOB:EXTRUDE
MOVL C00726 V=30.0 PL=1
CALL JOB:EXTRUDE
MOVL C00727 V=30.0 PL=1
CALL JOB:EXTRUDE
MOVL C00728 V=30.0 PL=1
CALL JOB:EXTRUDE
MOVL C00729 V=30.0 PL=1
CALL JOB:EXTRUDE
MOVL C00730 V=30.0 PL=1
CALL JOB:EXTRUDE
MOVL C00731 V=30.0 PL=1
CALL JOB:EXTRUDE
MOVL C00732 V=30.0 PL=1
CALL JOB:EXTRUDE
MOVL C00733 V=30.0 PL=1
CALL JOB:EXTRUDE
MOVL C00734 V=30.0 PL=1
CALL JOB:EXTRUDE
MOVL C00735 V=30.0 PL=1
CALL JOB:EXTRUDE
MOVL C00736 V=30.0 PL=1
CALL JOB:EXTRUDE
MOVL C00737 V=30.0 PL=1
CALL JOB:EXTRUDE
MOVL C00738 V=30.0 PL=1
CALL JOB:EXTRUDE
MOVL C00739 V=30.0 PL=1
CALL JOB:EXTRUDE
MOVL C00740 V=30.0 PL=1
CALL JOB:EXTRUDE
MOVL C00741 V=30.0 PL=1
CALL JOB:EXTRUDE
MOVL C00742 V=30.0 PL=1
CALL JOB:EXTRUDE
MOVL C00743 V=30.0 PL=1
CALL JOB:EXTRUDE
MOVL C00744 V=30.0 PL=1
CALL JOB:EXTRUDE
MOVL C00745 V=30.0 PL=1
CALL JOB:EXTRUDE
MOVL C00746 V=30.0 PL=1
CALL JOB:EXTRUDE
MOVL C00747 V=30.0 PL=1
CALL JOB:EXTRUDE
MOVL C00748 V=30.0 PL=1
CALL JOB:EXTRUDE
MOVL C00749 V=30.0 PL=1
CALL JOB:EXTRUDE
MOVL C00750 V=30.0 PL=1
CALL JOB:EXTRUDE
MOVL C00751 V=30.0 PL=1
CALL JOB:EXTRUDE
MOVL C00752 V=30.0 PL=1
CALL JOB:EXTRUDE
MOVL C00753 V=30.0 PL=1
CALL JOB:EXTRUDE
MOVL C00754 V=30.0 PL=1
CALL JOB:EXTRUDE
MOVL C00755 V=30.0 PL=1
CALL JOB:EXTRUDE
MOVL C00756 V=30.0 PL=1
CALL JOB:EXTRUDE
MOVL C00757 V=30.0 PL=1
CALL JOB:EXTRUDE
MOVL C00758 V=30.0 PL=1
CALL JOB:EXTRUDE
MOVL C00759 V=30.0 PL=1
CALL JOB:EXTRUDE
MOVL C00760 V=30.0 PL=1
CALL JOB:EXTRUDE
MOVL C00761 V=30.0 PL=1
CALL JOB:EXTRUDE
MOVL C00762 V=30.0 PL=1
CALL JOB:EXTRUDE
MOVL C00763 V=30.0 PL=1
CALL JOB:EXTRUDE
MOVL C00764 V=30.0 PL=1
CALL JOB:EXTRUDE
MOVL C00765 V=30.0 PL=1
CALL JOB:EXTRUDE
MOVL C00766 V=30.0 PL=1
CALL JOB:EXTRUDE
MOVL C00767 V=30.0 PL=1
CALL JOB:EXTRUDE
MOVL C00768 V=30.0 PL=1
CALL JOB:EXTRUDE
MOVL C00769 V=30.0 PL=1
CALL JOB:EXTRUDE
MOVL C00770 V=30.0 PL=1
CALL JOB:EXTRUDE
MOVL C00771 V=30.0 PL=1
CALL JOB:EXTRUDE
MOVL C00772 V=30.0 PL=1
CALL JOB:EXTRUDE
MOVL C00773 V=30.0 PL=1
CALL JOB:EXTRUDE
MOVL C00774 V=30.0 PL=1
CALL JOB:EXTRUDE
MOVL C00775 V=30.0 PL=1
CALL JOB:EXTRUDE
MOVL C00776 V=30.0 PL=1
CALL JOB:EXTRUDE
MOVL C00777 V=30.0 PL=1
CALL JOB:EXTRUDE
MOVL C00778 V=30.0 PL=1
CALL JOB:EXTRUDE
MOVL C00779 V=30.0 PL=1
MOVL C00780 V=130.0 PL=1
CALL JOB:EXTRUDE
MOVL C00781 V=30.0 PL=1
CALL JOB:EXTRUDE
MOVL C00782 V=30.0 PL=1
CALL JOB:EXTRUDE
MOVL C00783 V=30.0 PL=1
CALL JOB:EXTRUDE
MOVL C00784 V=30.0 PL=1
CALL JOB:EXTRUDE
MOVL C00785 V=30.0 PL=1
CALL JOB:EXTRUDE
MOVL C00786 V=30.0 PL=1
CALL JOB:EXTRUDE
MOVL C00787 V=30.0 PL=1
CALL JOB:EXTRUDE
MOVL C00788 V=30.0 PL=1
CALL JOB:EXTRUDE
MOVL C00789 V=30.0 PL=1
CALL JOB:EXTRUDE
MOVL C00790 V=30.0 PL=1
CALL JOB:EXTRUDE
MOVL C00791 V=30.0 PL=1
CALL JOB:EXTRUDE
MOVL C00792 V=30.0 PL=1
CALL JOB:EXTRUDE
MOVL C00793 V=30.0 PL=1
CALL JOB:EXTRUDE
MOVL C00794 V=30.0 PL=1
CALL JOB:EXTRUDE
MOVL C00795 V=30.0 PL=1
CALL JOB:EXTRUDE
MOVL C00796 V=30.0 PL=1
CALL JOB:EXTRUDE
MOVL C00797 V=30.0 PL=1
CALL JOB:EXTRUDE
MOVL C00798 V=30.0 PL=1
CALL JOB:EXTRUDE
MOVL C00799 V=30.0 PL=1
CALL JOB:EXTRUDE
MOVL C00800 V=30.0 PL=1
CALL JOB:EXTRUDE
MOVL C00801 V=30.0 PL=1
CALL JOB:EXTRUDE
MOVL C00802 V=30.0 PL=1
CALL JOB:EXTRUDE
MOVL C00803 V=30.0 PL=1
CALL JOB:EXTRUDE
MOVL C00804 V=30.0 PL=1
CALL JOB:EXTRUDE
MOVL C00805 V=30.0 PL=1
CALL JOB:EXTRUDE
MOVL C00806 V=30.0 PL=1
CALL JOB:EXTRUDE
MOVL C00807 V=30.0 PL=1
CALL JOB:EXTRUDE
MOVL C00808 V=30.0 PL=1
CALL JOB:EXTRUDE
MOVL C00809 V=30.0 PL=1
CALL JOB:EXTRUDE
MOVL C00810 V=30.0 PL=1
CALL JOB:EXTRUDE
MOVL C00811 V=30.0 PL=1
CALL JOB:EXTRUDE
MOVL C00812 V=30.0 PL=1
CALL JOB:EXTRUDE
MOVL C00813 V=30.0 PL=1
CALL JOB:EXTRUDE
MOVL C00814 V=30.0 PL=1
CALL JOB:EXTRUDE
MOVL C00815 V=30.0 PL=1
CALL JOB:EXTRUDE
MOVL C00816 V=30.0 PL=1
CALL JOB:EXTRUDE
MOVL C00817 V=30.0 PL=1
CALL JOB:EXTRUDE
MOVL C00818 V=30.0 PL=1
CALL JOB:EXTRUDE
MOVL C00819 V=30.0 PL=1
CALL JOB:EXTRUDE
MOVL C00820 V=30.0 PL=1
CALL JOB:EXTRUDE
MOVL C00821 V=30.0 PL=1
CALL JOB:EXTRUDE
MOVL C00822 V=30.0 PL=1
CALL JOB:EXTRUDE
MOVL C00823 V=30.0 PL=1
CALL JOB:EXTRUDE
MOVL C00824 V=30.0 PL=1
CALL JOB:EXTRUDE
MOVL C00825 V=30.0 PL=1
CALL JOB:EXTRUDE
MOVL C00826 V=30.0 PL=1
CALL JOB:EXTRUDE
MOVL C00827 V=30.0 PL=1
CALL JOB:EXTRUDE
MOVL C00828 V=30.0 PL=1
CALL JOB:EXTRUDE
MOVL C00829 V=30.0 PL=1
CALL JOB:EXTRUDE
MOVL C00830 V=30.0 PL=1
CALL JOB:EXTRUDE
MOVL C00831 V=30.0 PL=1
CALL JOB:EXTRUDE
MOVL C00832 V=30.0 PL=1
CALL JOB:EXTRUDE
MOVL C00833 V=30.0 PL=1
CALL JOB:EXTRUDE
MOVL C00834 V=30.0 PL=1
CALL JOB:EXTRUDE
MOVL C00835 V=30.0 PL=1
CALL JOB:EXTRUDE
MOVL C00836 V=30.0 PL=1
CALL JOB:EXTRUDE
MOVL C00837 V=30.0 PL=1
CALL JOB:EXTRUDE
MOVL C00838 V=30.0 PL=1
CALL JOB:EXTRUDE
MOVL C00839 V=30.0 PL=1
CALL JOB:EXTRUDE
MOVL C00840 V=30.0 PL=1
CALL JOB:EXTRUDE
MOVL C00841 V=30.0 PL=1
CALL JOB:EXTRUDE
MOVL C00842 V=30.0 PL=1
CALL JOB:EXTRUDE
MOVL C00843 V=30.0 PL=1
CALL JOB:EXTRUDE
MOVL C00844 V=30.0 PL=1
CALL JOB:EXTRUDE
MOVL C00845 V=30.0 PL=1
CALL JOB:EXTRUDE
MOVL C00846 V=30.0 PL=1
CALL JOB:EXTRUDE
MOVL C00847 V=30.0 PL=1
CALL JOB:EXTRUDE
MOVL C00848 V=30.0 PL=1
CALL JOB:EXTRUDE
MOVL C00849 V=30.0 PL=1
CALL JOB:EXTRUDE
MOVL C00850 V=30.0 PL=1
CALL JOB:EXTRUDE
MOVL C00851 V=30.0 PL=1
CALL JOB:EXTRUDE
MOVL C00852 V=30.0 PL=1
CALL JOB:EXTRUDE
MOVL C00853 V=30.0 PL=1
CALL JOB:EXTRUDE
MOVL C00854 V=30.0 PL=1
CALL JOB:EXTRUDE
MOVL C00855 V=30.0 PL=1
CALL JOB:EXTRUDE
MOVL C00856 V=30.0 PL=1
CALL JOB:EXTRUDE
MOVL C00857 V=30.0 PL=1
CALL JOB:EXTRUDE
MOVL C00858 V=30.0 PL=1
CALL JOB:EXTRUDE
MOVL C00859 V=30.0 PL=1
CALL JOB:EXTRUDE
MOVL C00860 V=30.0 PL=1
CALL JOB:EXTRUDE
MOVL C00861 V=30.0 PL=1
CALL JOB:EXTRUDE
MOVL C00862 V=30.0 PL=1
CALL JOB:EXTRUDE
MOVL C00863 V=30.0 PL=1
CALL JOB:EXTRUDE
MOVL C00864 V=30.0 PL=1
CALL JOB:EXTRUDE
MOVL C00865 V=30.0 PL=1
CALL JOB:EXTRUDE
MOVL C00866 V=30.0 PL=1
CALL JOB:EXTRUDE
MOVL C00867 V=30.0 PL=1
CALL JOB:EXTRUDE
MOVL C00868 V=30.0 PL=1
CALL JOB:EXTRUDE
MOVL C00869 V=30.0 PL=1
MOVL C00870 V=130.0 PL=1
CALL JOB:EXTRUDE
MOVL C00871 V=30.0 PL=1
CALL JOB:EXTRUDE
MOVL C00872 V=30.0 PL=1
CALL JOB:EXTRUDE
MOVL C00873 V=30.0 PL=1
CALL JOB:EXTRUDE
MOVL C00874 V=30.0 PL=1
CALL JOB:EXTRUDE
MOVL C00875 V=30.0 PL=1
CALL JOB:EXTRUDE
MOVL C00876 V=30.0 PL=1
CALL JOB:EXTRUDE
MOVL C00877 V=30.0 PL=1
CALL JOB:EXTRUDE
MOVL C00878 V=30.0 PL=1
CALL JOB:EXTRUDE
MOVL C00879 V=30.0 PL=1
CALL JOB:EXTRUDE
MOVL C00880 V=30.0 PL=1
CALL JOB:EXTRUDE
MOVL C00881 V=30.0 PL=1
CALL JOB:EXTRUDE
MOVL C00882 V=30.0 PL=1
CALL JOB:EXTRUDE
MOVL C00883 V=30.0 PL=1
CALL JOB:EXTRUDE
MOVL C00884 V=30.0 PL=1
CALL JOB:EXTRUDE
MOVL C00885 V=30.0 PL=1
CALL JOB:EXTRUDE
MOVL C00886 V=30.0 PL=1
CALL JOB:EXTRUDE
MOVL C00887 V=30.0 PL=1
CALL JOB:EXTRUDE
MOVL C00888 V=30.0 PL=1
CALL JOB:EXTRUDE
MOVL C00889 V=30.0 PL=1
CALL JOB:EXTRUDE
MOVL C00890 V=30.0 PL=1
CALL JOB:EXTRUDE
MOVL C00891 V=30.0 PL=1
CALL JOB:EXTRUDE
MOVL C00892 V=30.0 PL=1
CALL JOB:EXTRUDE
MOVL C00893 V=30.0 PL=1
CALL JOB:EXTRUDE
MOVL C00894 V=30.0 PL=1
CALL JOB:EXTRUDE
MOVL C00895 V=30.0 PL=1
CALL JOB:EXTRUDE
MOVL C00896 V=30.0 PL=1
CALL JOB:EXTRUDE
MOVL C00897 V=30.0 PL=1
CALL JOB:EXTRUDE
MOVL C00898 V=30.0 PL=1
CALL JOB:EXTRUDE
MOVL C00899 V=30.0 PL=1
CALL JOB:EXTRUDE
MOVL C00900 V=30.0 PL=1
CALL JOB:EXTRUDE
MOVL C00901 V=30.0 PL=1
CALL JOB:EXTRUDE
MOVL C00902 V=30.0 PL=1
CALL JOB:EXTRUDE
MOVL C00903 V=30.0 PL=1
CALL JOB:EXTRUDE
MOVL C00904 V=30.0 PL=1
CALL JOB:EXTRUDE
MOVL C00905 V=30.0 PL=1
CALL JOB:EXTRUDE
MOVL C00906 V=30.0 PL=1
CALL JOB:EXTRUDE
MOVL C00907 V=30.0 PL=1
CALL JOB:EXTRUDE
MOVL C00908 V=30.0 PL=1
CALL JOB:EXTRUDE
MOVL C00909 V=30.0 PL=1
CALL JOB:EXTRUDE
MOVL C00910 V=30.0 PL=1
CALL JOB:EXTRUDE
MOVL C00911 V=30.0 PL=1
CALL JOB:EXTRUDE
MOVL C00912 V=30.0 PL=1
CALL JOB:EXTRUDE
MOVL C00913 V=30.0 PL=1
CALL JOB:EXTRUDE
MOVL C00914 V=30.0 PL=1
CALL JOB:EXTRUDE
MOVL C00915 V=30.0 PL=1
CALL JOB:EXTRUDE
MOVL C00916 V=30.0 PL=1
CALL JOB:EXTRUDE
MOVL C00917 V=30.0 PL=1
CALL JOB:EXTRUDE
MOVL C00918 V=30.0 PL=1
CALL JOB:EXTRUDE
MOVL C00919 V=30.0 PL=1
CALL JOB:EXTRUDE
MOVL C00920 V=30.0 PL=1
CALL JOB:EXTRUDE
MOVL C00921 V=30.0 PL=1
CALL JOB:EXTRUDE
MOVL C00922 V=30.0 PL=1
CALL JOB:EXTRUDE
MOVL C00923 V=30.0 PL=1
CALL JOB:EXTRUDE
MOVL C00924 V=30.0 PL=1
CALL JOB:EXTRUDE
MOVL C00925 V=30.0 PL=1
CALL JOB:EXTRUDE
MOVL C00926 V=30.0 PL=1
CALL JOB:EXTRUDE
MOVL C00927 V=30.0 PL=1
CALL JOB:EXTRUDE
MOVL C00928 V=30.0 PL=1
CALL JOB:EXTRUDE
MOVL C00929 V=30.0 PL=1
CALL JOB:EXTRUDE
MOVL C00930 V=30.0 PL=1
CALL JOB:EXTRUDE
MOVL C00931 V=30.0 PL=1
CALL JOB:EXTRUDE
MOVL C00932 V=30.0 PL=1
CALL JOB:EXTRUDE
MOVL C00933 V=30.0 PL=1
CALL JOB:EXTRUDE
MOVL C00934 V=30.0 PL=1
CALL JOB:EXTRUDE
MOVL C00935 V=30.0 PL=1
CALL JOB:EXTRUDE
MOVL C00936 V=30.0 PL=1
CALL JOB:EXTRUDE
MOVL C00937 V=30.0 PL=1
CALL JOB:EXTRUDE
MOVL C00938 V=30.0 PL=1
CALL JOB:EXTRUDE
MOVL C00939 V=30.0 PL=1
CALL JOB:EXTRUDE
MOVL C00940 V=30.0 PL=1
CALL JOB:EXTRUDE
MOVL C00941 V=30.0 PL=1
CALL JOB:EXTRUDE
MOVL C00942 V=30.0 PL=1
CALL JOB:EXTRUDE
MOVL C00943 V=30.0 PL=1
CALL JOB:EXTRUDE
MOVL C00944 V=30.0 PL=1
CALL JOB:EXTRUDE
MOVL C00945 V=30.0 PL=1
CALL JOB:EXTRUDE
MOVL C00946 V=30.0 PL=1
CALL JOB:EXTRUDE
MOVL C00947 V=30.0 PL=1
CALL JOB:EXTRUDE
MOVL C00948 V=30.0 PL=1
CALL JOB:EXTRUDE
MOVL C00949 V=30.0 PL=1
CALL JOB:EXTRUDE
MOVL C00950 V=30.0 PL=1
CALL JOB:EXTRUDE
MOVL C00951 V=30.0 PL=1
CALL JOB:EXTRUDE
MOVL C00952 V=30.0 PL=1
CALL JOB:EXTRUDE
MOVL C00953 V=30.0 PL=1
CALL JOB:EXTRUDE
MOVL C00954 V=30.0 PL=1
CALL JOB:EXTRUDE
MOVL C00955 V=30.0 PL=1
CALL JOB:EXTRUDE
MOVL C00956 V=30.0 PL=1
CALL JOB:EXTRUDE
MOVL C00957 V=30.0 PL=1
CALL JOB:EXTRUDE
MOVL C00958 V=30.0 PL=1
CALL JOB:EXTRUDE
MOVL C00959 V=30.0 PL=1
CALL JOB:EXTRUDE
MOVL C00960 V=30.0 PL=1
CALL JOB:EXTRUDE
MOVL C00961 V=30.0 PL=1
CALL JOB:EXTRUDE
MOVL C00962 V=30.0 PL=1
CALL JOB:EXTRUDE
MOVL C00963 V=30.0 PL=1
CALL JOB:EXTRUDE
MOVL C00964 V=30.0 PL=1
CALL JOB:EXTRUDE
MOVL C00965 V=30.0 PL=1
CALL JOB:EXTRUDE
MOVL C00966 V=30.0 PL=1
CALL JOB:EXTRUDE
MOVL C00967 V=30.0 PL=1
CALL JOB:EXTRUDE
MOVL C00968 V=30.0 PL=1
CALL JOB:EXTRUDE
MOVL C00969 V=30.0 PL=1
CALL JOB:EXTRUDE
MOVL C00970 V=30.0 PL=1
CALL JOB:EXTRUDE
MOVL C00971 V=30.0 PL=1
CALL JOB:EXTRUDE
MOVL C00972 V=30.0 PL=1
CALL JOB:EXTRUDE
MOVL C00973 V=30.0 PL=1
CALL JOB:EXTRUDE
MOVL C00974 V=30.0 PL=1
CALL JOB:EXTRUDE
MOVL C00975 V=30.0 PL=1
CALL JOB:EXTRUDE
MOVL C00976 V=30.0 PL=1
CALL JOB:EXTRUDE
MOVL C00977 V=30.0 PL=1
CALL JOB:EXTRUDE
MOVL C00978 V=30.0 PL=1
CALL JOB:EXTRUDE
MOVL C00979 V=30.0 PL=1
CALL JOB:EXTRUDE
MOVL C00980 V=30.0 PL=1
CALL JOB:EXTRUDE
MOVL C00981 V=30.0 PL=1
CALL JOB:EXTRUDE
MOVL C00982 V=30.0 PL=1
CALL JOB:EXTRUDE
MOVL C00983 V=30.0 PL=1
CALL JOB:EXTRUDE
MOVL C00984 V=30.0 PL=1
CALL JOB:EXTRUDE
MOVL C00985 V=30.0 PL=1
MOVL C00986 V=130.0 PL=1
CALL JOB:EXTRUDE
MOVL C00987 V=30.0 PL=1
CALL JOB:EXTRUDE
MOVL C00988 V=30.0 PL=1
CALL JOB:EXTRUDE
MOVL C00989 V=30.0 PL=1
CALL JOB:EXTRUDE
MOVL C00990 V=30.0 PL=1
CALL JOB:EXTRUDE
MOVL C00991 V=30.0 PL=1
CALL JOB:EXTRUDE
MOVL C00992 V=30.0 PL=1
CALL JOB:EXTRUDE
MOVL C00993 V=30.0 PL=1
CALL JOB:EXTRUDE
MOVL C00994 V=30.0 PL=1
CALL JOB:EXTRUDE
MOVL C00995 V=30.0 PL=1
CALL JOB:EXTRUDE
MOVL C00996 V=30.0 PL=1
CALL JOB:EXTRUDE
MOVL C00997 V=30.0 PL=1
CALL JOB:EXTRUDE
MOVL C00998 V=30.0 PL=1
CALL JOB:EXTRUDE
MOVL C00999 V=30.0 PL=1
CALL JOB:EXTRUDE
MOVL C01000 V=30.0 PL=1
CALL JOB:EXTRUDE
MOVL C01001 V=30.0 PL=1
END
